xyodfish/PIVOT/config/trajectories/galbot_mobile_wbc_ik_triple_shapes.csv
time,chassis_x,chassis_y,chassis_yaw,head_joint1,head_joint2,leg_joint1,leg_joint2,leg_joint3,leg_joint4,leg_joint5,left_arm_joint1,left_arm_joint2,left_arm_joint3,left_arm_joint4,left_arm_joint5,left_arm_joint6,left_arm_joint7,right_arm_joint1,right_arm_joint2,right_arm_joint3,right_arm_joint4,right_arm_joint5,right_arm_joint6,right_arm_joint7
0.000000,0.000000,0.000000,0.000000,0.000000,0.000000,0.250000,0.650000,0.400000,0.000000,0.000000,1.000000,-0.700000,-0.400000,-1.570000,0.000000,0.000000,0.000000,-1.000000,0.700000,0.400000,1.570000,0.000000,0.000000,0.000000
0.100000,0.242327,0.000504,0.013388,-0.017076,0.196769,0.003424,0.741183,0.541018,0.003947,-0.002617,1.341487,-0.596594,-0.499014,-1.537395,-0.092079,-0.140362,0.001546,-1.375734,0.661174,0.459415,1.468128,0.029151,0.206392,0.085777
0.150000,0.233748,0.001548,0.043517,-0.005397,0.179355,0.001000,0.743662,0.563183,-0.037421,-0.007766,1.334784,-0.595037,-0.509373,-1.535151,-0.096741,-0.139938,-0.003131,-1.318687,0.674118,0.433987,1.455598,0.014781,0.201638,0.074826
0.200000,0.225136,0.002152,0.065282,0.101574,0.163237,0.001000,0.746243,0.580570,-0.165981,-0.010749,1.570618,-0.573023,-0.694045,-1.575277,-0.153852,-0.160696,-0.080902,-1.091117,0.745411,0.300836,1.393709,-0.058429,0.195265,-0.011066
0.250000,0.216624,0.002746,0.086124,0.739721,0.143380,0.001000,0.749337,0.592180,-0.824884,-0.018110,2.393585,-1.112491,-1.297786,-1.638802,-0.258407,-0.425531,-0.272348,-0.367819,1.363115,-0.173412,0.834662,-0.336980,0.388990,-0.267646
0.300000,0.200305,0.002205,0.084239,0.926331,0.114969,0.001000,0.749694,0.618763,-1.009942,-0.018146,2.601609,-1.151623,-1.210597,-1.591034,-0.374907,-0.583937,-0.491905,-3.001798,-1.607063,-1.686629,-0.503128,-2.291042,0.613508,0.145044
0.350000,0.199579,0.003661,0.129608,0.918744,0.107752,0.001000,0.756816,0.624870,-1.047440,-0.027812,2.599665,-1.142120,-1.221749,-1.596130,-0.377864,-0.576204,-0.489136,-3.001826,-1.607063,-1.686537,-0.503537,-2.290397,0.612244,0.155265
0.400000,0.191235,0.003908,0.150928,0.903948,0.091887,0.001000,0.761226,0.645095,-1.054081,-0.027927,2.593200,-1.124876,-1.247729,-1.604525,-0.383756,-0.560494,-0.479308,-3.002158,-1.607063,-1.670287,-0.495742,-2.295992,0.610780,0.163102
0.450000,0.182931,0.004042,0.172117,0.889482,0.076301,0.001001,0.766066,0.666537,-1.060955,-0.026751,2.575800,-1.117480,-1.280892,-1.612303,-0.383537,-0.539842,-0.455600,-3.002695,-1.607063,-1.652627,-0.487703,-2.303043,0.609168,0.170256
0.500000,0.174692,0.004059,0.193158,0.874064,0.061037,0.001004,0.771344,0.689205,-1.066748,-0.024244,2.549817,-1.114240,-1.317397,-1.619852,-0.378508,-0.515324,-0.423518,-2.999470,-1.607063,-1.649277,-0.482228,-2.297962,0.609396,0.181450
0.550000,0.167291,0.003944,0.209548,0.861211,0.047254,0.001000,0.777202,0.712012,-1.070441,-0.020477,2.638505,-1.012718,-1.275609,-1.626261,-0.433965,-0.546875,-0.539352,-2.999745,-1.607063,-1.633784,-0.475510,-2.304780,0.607739,0.188434
0.600000,0.171781,0.004861,0.218533,0.862109,0.050294,0.001000,0.785489,0.714982,-1.080263,-0.023134,2.836846,-0.824334,-1.164324,-1.628667,-0.519275,-0.656272,-0.800593,-3.000223,-1.607063,-1.649560,-0.484432,-2.298729,0.606065,0.199748
0.650000,0.151385,0.003146,0.251573,-0.409391,0.021778,0.001000,0.789982,0.768752,0.157873,-0.005487,2.995428,0.804820,-1.979312,-1.152906,-0.539918,-0.286967,-0.263943,-2.122575,0.236072,-2.465098,-1.542521,-2.642344,0.399208,0.807744
0.700000,0.143039,0.002867,0.267732,-0.896869,0.004392,0.001000,0.797080,0.792698,0.629143,-0.001442,2.983837,1.603645,-2.056152,-0.464762,-0.477676,-0.518201,0.050844,-2.603287,0.785507,-2.150966,-1.545480,-2.714617,0.590772,0.916568
0.750000,0.136721,0.002911,0.285944,-0.884930,-0.010915,0.001000,0.804666,0.812037,0.598998,0.003728,2.984802,1.603906,-2.099795,-0.459531,-0.448146,-0.514984,0.052822,-2.337688,1.078299,-1.911927,-1.550424,-2.899095,0.454830,0.517247
0.800000,0.127188,0.002700,0.306433,-0.867520,-0.032574,0.001000,0.812919,0.836798,0.561210,0.011607,2.973181,1.603906,-2.109778,-0.450911,-0.452806,-0.516832,0.043795,-2.299130,1.067995,-1.878489,-1.555991,-2.911682,0.428808,0.483991
0.850000,0.120777,0.002721,0.320945,-0.855462,-0.048657,0.001000,0.821390,0.857476,0.534801,0.017836,2.961979,1.604422,-2.106284,-0.445306,-0.465368,-0.518612,0.034294,-2.284298,1.045018,-1.869149,-1.559586,-2.910640,0.413752,0.482485
0.900000,0.113927,0.002719,0.335273,-0.841403,-0.065842,0.001000,0.830364,0.879536,0.506672,0.024761,2.950618,1.602204,-2.105583,-0.442237,-0.475847,-0.518994,0.024058,-2.267002,1.019184,-1.859684,-1.562763,-2.909725,0.397445,0.479836
0.950000,0.104351,0.002562,0.355081,-0.825613,-0.088930,0.001000,0.840780,0.907433,0.471577,0.034670,2.933027,1.606374,-2.096226,-0.427581,-0.498450,-0.525332,0.012590,-2.246478,0.987010,-1.845161,-1.564811,-2.906619,0.378937,0.475171
1.000000,0.097080,0.002590,0.368918,-0.811040,-0.107747,0.001000,0.851208,0.932307,0.443716,0.042952,2.919274,1.604869,-2.090924,-0.422514,-0.513833,-0.527016,0.001568,-2.224504,0.960118,-1.835186,-1.565989,-2.906929,0.361993,0.469546
1.050000,0.100633,-0.003771,0.335768,0.703163,-0.051724,0.032260,0.833275,0.878774,-1.038268,0.033564,-2.611397,-0.406061,-1.735049,-1.677143,-0.729828,-0.799566,-1.176839,-2.985457,-1.492928,-1.483093,-0.564914,-2.415877,0.537870,0.310835
1.100000,0.078700,0.001236,0.393178,-0.427171,-0.146941,0.001000,0.876664,1.009413,0.037754,0.056167,-3.003326,1.113462,-2.915972,-0.990451,0.029429,-0.225265,0.096039,-1.716281,0.474405,-2.328848,-1.499481,-2.860749,0.230762,0.501270
1.150000,0.072349,0.001265,0.414280,-0.394276,-0.163713,0.001000,0.889145,1.039213,-0.015033,0.065663,-3.003326,1.076332,-2.915972,-1.014503,0.009479,-0.212704,0.076061,-1.657788,0.245061,-2.580202,-1.480701,-2.688500,0.288909,0.683033
1.200000,0.064332,0.001155,0.426735,-0.353245,-0.184391,0.001000,0.904112,1.076391,-0.066890,0.076135,-3.003326,1.028709,-2.915972,-1.043184,-0.016060,-0.198593,0.051186,-2.284093,-0.187652,-2.308241,-1.454073,-2.385096,0.480195,0.982810
1.250000,0.056197,0.001120,0.439094,-0.310746,-0.205961,0.001000,0.920835,1.117232,-0.119726,0.087683,-3.003326,0.978298,-2.915972,-1.072068,-0.042984,-0.185039,0.025045,-2.262561,-0.351002,-2.407924,-1.422790,-2.283433,0.546090,1.043056
1.300000,0.054527,0.001667,0.451237,-0.298047,-0.213346,0.001000,0.930677,1.135632,-0.143633,0.093431,-3.003230,0.964291,-2.915972,-1.083101,-0.050093,-0.178439,0.015769,-2.294293,-0.359580,-2.351482,-1.413051,-2.286150,0.532129,1.029646
1.350000,0.055986,0.002467,0.466571,-0.299747,-0.213346,0.001000,0.936204,1.141472,-0.156950,0.096581,-3.002489,0.967946,-2.915972,-1.086257,-0.047493,-0.174632,0.014782,-2.276895,-0.397966,-2.411920,-1.415272,-2.256724,0.556837,1.062913
1.400000,0.057219,0.003202,0.481380,-0.292582,-0.213346,0.001000,0.941614,1.148109,-0.178574,0.099785,-2.996378,0.957569,-2.915972,-1.098993,-0.051335,-0.167227,0.008817,-1.079004,0.375223,-2.907556,-1.412748,-2.836351,0.194282,0.515094
1.450000,0.058406,0.003920,0.491755,-0.287434,-0.213346,0.001000,0.946651,1.154077,-0.193847,0.102063,-2.991472,0.950443,-2.915972,-1.109591,-0.053693,-0.160561,0.003884,-1.059965,0.388990,-2.915972,-1.411495,-2.849192,0.186856,0.507810
1.500000,0.059447,0.004630,0.505820,-0.282160,-0.213346,0.001000,0.951408,1.159993,-0.212852,0.105155,-2.986508,0.943202,-2.915972,-1.120240,-0.056131,-0.153842,-0.001183,-1.044771,0.406889,-2.915972,-1.410229,-2.866290,0.178389,0.496366
1.550000,0.060337,0.005288,0.519372,-0.274322,-0.213346,0.001000,0.955896,1.165979,-0.233900,0.108246,-2.979999,0.931939,-2.915972,-1.133526,-0.060497,-0.146154,-0.007842,-1.024701,0.429492,-2.915972,-1.407627,-2.887913,0.168952,0.480211
1.600000,0.061141,0.005867,0.528315,-0.264893,-0.213346,0.001000,0.960038,1.171648,-0.252014,0.110439,-2.972522,0.918184,-2.915972,-1.148375,-0.066114,-0.137918,-0.015594,-1.002320,0.454609,-2.915972,-1.404223,-2.911935,0.159398,0.461632
1.650000,0.061934,0.006516,0.540986,-0.265761,-0.213346,0.001000,0.963622,1.175837,-0.263538,0.113182,-2.971305,0.920914,-2.915972,-1.152623,-0.063836,-0.133310,-0.017160,-1.001697,0.458880,-2.915972,-1.406968,-2.915972,0.154613,0.463215
1.700000,0.062702,0.007109,0.549285,-0.268615,-0.213346,0.001000,0.966727,1.179085,-0.268812,0.114914,-2.971255,0.926841,-2.915972,-1.154909,-0.059999,-0.129332,-0.017528,-1.005248,0.458937,-2.915972,-1.411119,-2.915972,0.150573,0.468690
1.750000,0.063361,0.007647,0.557207,-0.271347,-0.213346,0.001000,0.969443,1.181939,-0.273840,0.116569,-2.971097,0.932609,-2.915972,-1.157350,-0.056223,-0.125271,-0.017977,-1.008607,0.459002,-2.915972,-1.415409,-2.915972,0.146373,0.473970
1.800000,0.063864,0.008144,0.567520,-0.274038,-0.213346,0.001000,0.971797,1.184589,-0.281247,0.118752,-2.970922,0.938387,-2.915972,-1.159743,-0.052445,-0.121219,-0.018431,-1.011768,0.459077,-2.915972,-1.419759,-2.915972,0.142033,0.479080
1.850000,0.064308,0.008550,0.574101,-0.276566,-0.213346,0.001000,0.973700,1.186584,-0.285168,0.120119,-2.970609,0.943922,-2.915972,-1.162362,-0.048764,-0.117060,-0.018991,-1.014737,0.459155,-2.915972,-1.424288,-2.915972,0.137519,0.483982
1.900000,0.064644,0.008883,0.580092,-0.278980,-0.213346,0.001000,0.975187,1.188143,-0.288626,0.121359,-2.970215,0.949316,-2.915972,-1.165079,-0.045142,-0.112852,-0.019609,-1.017510,0.459238,-2.915972,-1.428950,-2.915972,0.132842,0.488691
1.950000,0.064874,0.009141,0.585491,-0.281284,-0.213346,0.001000,0.976252,1.189258,-0.291615,0.122472,-2.969747,0.954576,-2.915972,-1.167878,-0.041576,-0.108606,-0.020279,-1.020088,0.459326,-2.915972,-1.433741,-2.915972,0.128003,0.493207
2.000000,0.064997,0.009319,0.590295,-0.283479,-0.213346,0.001000,0.976892,1.189925,-0.294131,0.123457,-2.969212,0.959703,-2.915972,-1.170746,-0.038069,-0.104332,-0.020995,-1.022470,0.459417,-2.915972,-1.438662,-2.915972,0.123002,0.497532
2.050000,0.065014,0.009415,0.594490,-0.285565,-0.213346,0.001000,0.977105,1.190139,-0.296160,0.124310,-2.968614,0.964695,-2.915972,-1.173675,-0.034623,-0.100037,-0.021755,-1.024657,0.459512,-2.915972,-1.443712,-2.915972,0.117837,0.501665
2.100000,0.064834,0.009366,0.598149,-0.281837,-0.213346,0.001000,0.977052,1.190812,-0.303434,0.125268,-2.964788,0.960603,-2.915972,-1.182410,-0.035530,-0.093583,-0.025955,-1.019963,0.459049,-2.915972,-1.448537,-2.915972,0.113163,0.496720
2.150000,0.057651,0.004504,0.601473,-0.277977,-0.213346,0.011819,0.967117,1.170791,-0.310511,0.126166,-2.960919,0.956339,-2.915972,-1.191206,-0.036538,-0.087104,-0.030242,-1.015075,0.458603,-2.915972,-1.453512,-2.915972,0.108321,0.491576
2.200000,0.051695,0.000164,0.263756,-0.274064,-0.213346,0.023313,0.954735,1.136716,0.015999,0.055237,-2.957083,0.952053,-2.915972,-1.199878,-0.037593,-0.080693,-0.034555,-1.009992,0.458178,-2.915972,-1.458563,-2.915972,0.103334,0.486261
2.250000,0.049159,-0.000279,0.134803,-0.269932,-0.212994,0.025971,0.951562,1.132759,0.138084,0.028688,-2.952706,0.947190,-2.915957,-1.209054,-0.038881,-0.074104,-0.039016,-1.005212,0.457826,-2.915972,-1.463935,-2.915972,0.098176,0.480856
2.300000,0.034640,-0.001384,0.083582,-0.265828,-0.213150,0.045211,0.936554,1.100482,0.184100,0.017966,-2.949155,0.942696,-2.915724,-1.217545,-0.040247,-0.067786,-0.043565,-0.999504,0.457429,-2.915972,-1.469159,-2.915972,0.092867,0.475095
2.350000,0.022257,-0.002493,0.085568,-0.261482,-0.212721,0.062881,0.923167,1.069007,0.177805,0.018335,-2.944621,0.937536,-2.915781,-1.226753,-0.041695,-0.061232,-0.048125,-0.994430,0.457141,-2.915972,-1.474786,-2.915972,0.087396,0.469330
2.400000,0.011570,-0.003220,0.081162,-0.257255,-0.213155,0.077833,0.912657,1.044214,0.177896,0.017427,-2.941347,0.933186,-2.915787,-1.234836,-0.042989,-0.055112,-0.052619,-0.987934,0.456765,-2.915972,-1.480083,-2.915972,0.081783,0.463106
2.450000,0.001150,-0.004118,0.081953,-0.252750,-0.212800,0.093375,0.901992,1.017708,0.172611,0.017552,-2.936928,0.927866,-2.915821,-1.243849,-0.044619,-0.048698,-0.057286,-0.982351,0.456533,-2.915972,-1.485864,-2.915972,0.076008,0.456937
2.500000,-0.009197,-0.004981,0.082038,-0.248181,-0.212561,0.109099,0.891868,0.991703,0.167955,0.017537,-2.932660,0.922537,-2.915869,-1.252680,-0.046313,-0.042395,-0.061989,-0.976407,0.456317,-2.915972,-1.491685,-2.915972,0.070085,0.450545
2.550000,-0.020630,-0.005421,0.075410,-0.243793,-0.213276,0.126159,0.882222,0.966013,0.170063,0.016181,-2.929837,0.918173,-2.915843,-1.260215,-0.047799,-0.036592,-0.066558,-0.968916,0.456027,-2.915972,-1.497092,-2.915972,0.064035,0.443687
2.600000,-0.031747,-0.006148,0.074037,-0.239132,-0.213211,0.143828,0.872585,0.938767,0.166745,0.015873,-2.925874,0.912839,-2.915856,-1.268648,-0.049634,-0.030529,-0.071306,-0.962321,0.455882,-2.915972,-1.502963,-2.915972,0.057828,0.436877
2.650000,-0.042603,-0.006757,0.071948,-0.240460,-0.213176,0.161460,0.863567,0.912135,0.170115,0.015433,-2.925233,0.916986,-2.915972,-1.271293,-0.046591,-0.026506,-0.071957,-0.970793,0.447265,-2.907877,-1.512535,-2.908589,0.053143,0.437568
2.700000,-0.053757,-0.007292,0.069412,-0.279725,-0.213251,0.180136,0.854804,0.884263,0.211858,0.015015,-2.944802,0.980269,-2.915972,-1.237553,-0.013889,-0.035937,-0.048261,-1.083444,0.376004,-2.852854,-1.544223,-2.843897,0.064717,0.497929
2.750000,-0.066473,-0.008407,0.071166,-0.308270,-0.212318,0.203206,0.845340,0.850283,0.238669,0.015423,-2.956597,1.025495,-2.915972,-1.214303,0.009281,-0.042529,-0.032599,-1.185633,0.309869,-2.809624,-1.569424,-2.781606,0.081060,0.556782
2.800000,-0.079436,-0.008826,0.067415,-0.335755,-0.212794,0.225860,0.837481,0.820011,0.269828,0.014762,-2.969085,1.069579,-2.915972,-1.190015,0.030994,-0.050254,-0.018541,-1.308491,0.231305,-2.758988,-1.592533,-2.707674,0.108372,0.628341
2.850000,-0.091130,-0.009808,0.068583,-0.360573,-0.211813,0.248176,0.829876,0.788672,0.293486,0.015054,-2.977989,1.108128,-2.915972,-1.169417,0.050033,-0.057043,-0.006566,-1.486161,0.126128,-2.684638,-1.614517,-2.611717,0.156742,0.725155
2.900000,-0.104169,-0.009848,0.063284,-0.366562,-0.212942,0.271178,0.823868,0.761015,0.304676,0.014012,-2.980803,1.119566,-2.915745,-1.165546,0.055772,-0.056506,-0.005017,-1.659682,0.017438,-2.605701,-1.625793,-2.521613,0.210798,0.812000
2.950000,-0.113921,-0.010515,0.063500,-0.355756,-0.212356,0.289840,0.818106,0.736160,0.293651,0.013975,-2.973800,1.104591,-2.915595,-1.180612,0.050020,-0.047558,-0.011781,-1.772340,-0.059422,-2.547013,-1.629848,-2.465107,0.244963,0.859532
3.000000,-0.123737,-0.010775,0.061380,-0.345815,-0.211999,0.308611,0.812868,0.712071,0.285779,0.013455,-2.967465,1.091081,-2.915611,-1.194281,0.044831,-0.039343,-0.018151,-1.799296,-0.082109,-2.524212,-1.634190,-2.449981,0.248174,0.863850
3.050000,-0.134898,-0.010353,0.055596,-0.338827,-0.213228,0.328651,0.808663,0.689482,0.284467,0.012252,-2.964523,1.083170,-2.915773,-1.203012,0.041781,-0.033341,-0.023079,-1.795621,-0.085889,-2.514964,-1.639054,-2.447771,0.241123,0.854653
3.100000,-0.144649,-0.010580,0.053967,-0.332877,-0.213030,0.347775,0.804320,0.665993,0.280109,0.011868,-2.960387,1.075689,-2.915748,-1.212024,0.039144,-0.027364,-0.027390,-1.783737,-0.083056,-2.511223,-1.645250,-2.449949,0.230969,0.842204
3.150000,-0.154247,-0.010649,0.051780,-0.326913,-0.212962,0.366688,0.800412,0.643308,0.276283,0.011371,-2.956462,1.068230,-2.915747,-1.220724,0.036423,-0.021608,-0.031713,-1.772132,-0.080784,-2.507382,-1.651351,-2.451639,0.221049,0.829987
3.200000,-0.163709,-0.010552,0.049060,-0.321323,-0.213023,0.385399,0.796912,0.621380,0.273355,0.010768,-2.961545,1.053464,-2.896396,-1.228732,0.018716,-0.015965,-0.046422,-1.758009,-0.076606,-2.504412,-1.657543,-2.454548,0.210074,0.816420
3.250000,-0.172978,-0.010280,0.045837,-0.315403,-0.213216,0.403758,0.793778,0.600329,0.270589,0.010063,-2.963986,1.040966,-2.883561,-1.236745,0.005900,-0.010646,-0.057762,-1.746963,-0.074983,-2.500010,-1.663450,-2.455599,0.200374,0.804374
3.300000,-0.180464,-0.010527,0.045322,-0.309293,-0.211803,0.420413,0.790155,0.578742,0.264967,0.009870,-2.963285,1.028088,-2.873380,-1.246406,-0.005118,-0.004899,-0.067669,-1.737360,-0.073231,-2.496376,-1.670168,-2.456657,0.190868,0.793110
3.350000,-0.188738,-0.010664,0.044355,-0.303151,-0.212170,0.436895,0.787385,0.559973,0.259778,0.009664,-2.963765,1.017419,-2.865814,-1.254045,-0.014072,-0.000111,-0.076274,-1.729055,-0.074264,-2.490857,-1.675718,-2.455622,0.182497,0.782638
3.400000,-0.196840,-0.009889,0.039827,-0.297071,-0.212661,0.452833,0.784828,0.542272,0.258132,0.008693,-2.963557,1.007665,-2.860321,-1.261331,-0.021456,0.004388,-0.083714,-1.720631,-0.075608,-2.485479,-1.681157,-2.454257,0.174265,0.772301
3.450000,-0.203357,-0.008953,0.035079,-0.290880,-0.211506,0.467346,0.781645,0.523737,0.256572,0.007610,-2.960566,0.997081,-2.856367,-1.270244,-0.027959,0.009364,-0.090336,-1.712468,-0.076029,-2.481479,-1.687490,-2.453465,0.165804,0.762207
3.500000,-0.210571,-0.009408,0.035882,-0.284940,-0.212207,0.481605,0.779180,0.507719,0.249854,0.007800,-2.959421,0.988712,-2.853891,-1.276794,-0.033104,0.013317,-0.096030,-1.703996,-0.078068,-2.476307,-1.692667,-2.451362,0.157918,0.752223
3.550000,-0.217387,-0.008139,0.030291,-0.278993,-0.213002,0.494637,0.776669,0.493308,0.249381,0.006607,-2.957776,0.980802,-2.852779,-1.283123,-0.037324,0.017063,-0.100978,-1.695867,-0.080753,-2.471098,-1.697699,-2.448709,0.150365,0.742615
3.600000,-0.222340,-0.008387,0.030612,-0.272964,-0.212070,0.505955,0.773241,0.477659,0.243031,0.006640,-2.953547,0.971805,-2.852525,-1.291065,-0.041213,0.021284,-0.105475,-1.687907,-0.082297,-2.467295,-1.703643,-2.446762,0.142480,0.733123
3.650000,-0.228161,-0.006835,0.024463,-0.267077,-0.213030,0.516688,0.770430,0.465427,0.243163,0.005329,-2.951291,0.964641,-2.853333,-1.296829,-0.044159,0.024570,-0.109301,-1.680282,-0.086051,-2.462076,-1.708354,-2.443130,0.135510,0.724153
3.700000,-0.232025,-0.006879,0.024259,-0.261084,-0.212207,0.525511,0.766543,0.451940,0.237366,0.005258,-2.946499,0.956203,-2.854693,-1.304263,-0.047056,0.028340,-0.112879,-1.672899,-0.088663,-2.458242,-1.713989,-2.440205,0.128211,0.715296
3.750000,-0.235297,-0.005241,0.018252,-0.254990,-0.211380,0.532786,0.762301,0.439925,0.237139,0.003937,-2.941335,0.947729,-2.856710,-1.311649,-0.049691,0.031949,-0.116176,-1.666324,-0.092229,-2.454228,-1.719461,-2.436523,0.121433,0.707029
3.800000,-0.239386,-0.004962,0.017064,-0.249301,-0.212585,0.539629,0.758607,0.430679,0.232619,0.003701,-2.938761,0.941384,-2.859194,-1.316456,-0.051581,0.034491,-0.118877,-1.658978,-0.097055,-2.449107,-1.723656,-2.431793,0.115112,0.698706
3.850000,-0.241355,-0.004668,0.015933,-0.243377,-0.211900,0.543995,0.753572,0.420671,0.227798,0.003442,-2.933534,0.933355,-2.861962,-1.323182,-0.053790,0.037576,-0.121619,-1.652328,-0.101021,-2.445216,-1.728805,-2.427609,0.108608,0.690663
3.900000,-0.244231,-0.002737,0.009265,-0.237742,-0.213176,0.547773,0.749046,0.413984,0.228687,0.002013,-2.930797,0.927121,-2.865063,-1.327592,-0.055442,0.039688,-0.123898,-1.645415,-0.106612,-2.440085,-1.732678,-2.422162,0.102783,0.682842
3.950000,-0.244891,-0.002452,0.008276,-0.231985,-0.212516,0.549092,0.743098,0.406117,0.223895,0.001791,-2.925551,0.919286,-2.868171,-1.333782,-0.057546,0.042282,-0.126304,-1.638805,-0.110864,-2.436305,-1.737544,-2.417569,0.096529,0.675019
4.000000,-0.244852,-0.002132,0.007193,-0.226318,-0.211896,0.548709,0.736641,0.399483,0.219285,0.001552,-2.920362,0.911506,-2.871343,-1.339708,-0.059684,0.044620,-0.128614,-1.632116,-0.115135,-2.432556,-1.742277,-2.412885,0.090324,0.667206
4.050000,-0.246132,-0.000327,0.001125,-0.220978,-0.213346,0.548568,0.730967,0.395692,0.219881,0.000253,-2.917925,0.905537,-2.874634,-1.343294,-0.061328,0.046001,-0.130505,-1.624847,-0.120663,-2.427542,-1.745811,-2.407268,0.084564,0.659401
4.100000,-0.245342,0.001983,-0.006620,-0.218745,-0.205019,0.556973,0.724752,0.373103,0.225226,-0.001383,-2.900861,0.901019,-2.885416,-1.352582,-0.056419,0.049501,-0.126565,-1.606184,-0.102580,-2.438493,-1.749112,-2.419278,0.076844,0.642160
4.150000,-0.251505,0.002496,-0.008249,-0.215801,-0.213346,0.559507,0.722146,0.376375,0.223862,-0.001791,-2.908599,0.902690,-2.888269,-1.347613,-0.055839,0.047581,-0.126590,-1.598640,-0.107691,-2.432097,-1.741748,-2.415321,0.079749,0.632654
4.200000,-0.249214,0.002709,-0.009138,-0.211739,-0.213346,0.552899,0.713997,0.374859,0.220670,-0.001990,-2.905391,0.896958,-2.890766,-1.350962,-0.057661,0.048355,-0.127966,-1.593967,-0.108170,-2.430543,-1.738906,-2.414493,0.081067,0.623537
4.250000,-0.246200,0.004836,-0.016265,-0.207849,-0.213346,0.544448,0.705403,0.375055,0.223743,-0.003532,-2.902381,0.891564,-2.893157,-1.353924,-0.059431,0.048962,-0.129255,-1.589069,-0.108233,-2.428949,-1.735827,-2.413882,0.082331,0.614076
4.300000,-0.242351,0.004965,-0.016918,-0.204295,-0.213346,0.533960,0.696279,0.376440,0.220828,-0.003671,-2.899608,0.886483,-2.895480,-1.356422,-0.061123,0.049211,-0.130279,-1.583135,-0.106935,-2.427532,-1.732904,-2.414232,0.082811,0.603876
4.350000,-0.237911,0.005577,-0.019295,-0.183401,-0.213346,0.521960,0.686880,0.379057,0.202258,-0.004168,-2.882344,0.858137,-2.908271,-1.374180,-0.070372,0.054411,-0.138515,-1.643836,-0.187243,-2.414062,-1.719655,-2.357292,0.129371,0.641685
4.400000,-0.233139,0.006775,-0.023831,-0.149149,-0.213346,0.509131,0.677452,0.382486,0.172438,-0.005121,-2.863581,0.802995,-2.908343,-1.402824,-0.101427,0.061356,-0.164908,-1.738199,-0.281090,-2.365963,-1.697621,-2.297681,0.179631,0.675614
4.450000,-0.228069,0.006765,-0.024228,-0.126424,-0.213346,0.495466,0.668012,0.386607,0.150100,-0.005188,-2.855922,0.761667,-2.898327,-1.421004,-0.129693,0.063686,-0.188427,-1.785236,-0.325209,-2.332842,-1.682150,-2.272193,0.201436,0.681415
4.500000,-0.222358,0.008157,-0.029822,-0.098312,-0.213346,0.480151,0.658434,0.392344,0.127455,-0.006365,-2.843389,0.712008,-2.890382,-1.443213,-0.161997,0.065566,-0.216073,-1.837430,-0.375500,-2.294182,-1.662741,-2.245261,0.224231,0.685664
4.550000,-0.216202,0.008024,-0.030009,-0.076655,-0.213346,0.463580,0.648856,0.399205,0.105982,-0.006389,-2.833588,0.673036,-2.883721,-1.459521,-0.187713,0.065271,-0.238038,-1.871584,-0.408146,-2.264549,-1.647003,-2.228961,0.238012,0.682623
4.600000,-0.209521,0.009112,-0.034950,-0.049888,-0.213346,0.445656,0.639347,0.407534,0.084044,-0.007425,-2.819451,0.625404,-2.877577,-1.479493,-0.218507,0.063947,-0.265021,-1.911556,-0.447766,-2.229592,-1.627367,-2.210553,0.253290,0.678852
4.650000,-0.202477,0.009191,-0.036230,-0.028725,-0.213346,0.426627,0.630016,0.417088,0.064133,-0.007685,-2.806935,0.587478,-2.873846,-1.494560,-0.242807,0.061257,-0.286259,-1.940187,-0.474676,-2.200705,-1.611134,-2.199258,0.262668,0.671247
4.700000,-0.194913,0.009642,-0.039174,-0.003394,-0.213346,0.406249,0.620893,0.428177,0.041679,-0.008300,-2.790015,0.542576,-2.871076,-1.512233,-0.271282,0.057116,-0.311718,-1.973356,-0.507305,-2.167443,-1.591349,-2.186443,0.273070,0.662740
4.750000,-0.187064,0.010282,-0.043148,0.019932,-0.213346,0.385049,0.612140,0.440447,0.022238,-0.009136,-2.771715,0.501330,-2.871083,-1.527951,-0.296961,0.051843,-0.334846,-2.002382,-0.534808,-2.135883,-1.572584,-2.177009,0.280734,0.652305
4.800000,-0.178778,0.010651,-0.046302,0.042086,-0.213346,0.362614,0.603760,0.454300,0.003168,-0.009801,-2.755167,0.460709,-2.868116,-1.542318,-0.323352,0.044836,-0.358667,-2.029140,-0.559215,-2.104963,-1.554212,-2.169858,0.286592,0.640538
4.850000,-0.170190,0.010146,-0.045820,0.064923,-0.213346,0.339204,0.595865,0.469592,-0.020140,-0.009701,-2.738674,0.417790,-2.862542,-1.556689,-0.351985,0.035760,-0.384798,-2.056050,-0.583830,-2.073061,-1.534843,-2.163636,0.291759,0.627709
4.900000,-0.161335,0.010357,-0.048715,0.093760,-0.213299,0.315279,0.588546,0.485844,-0.046145,-0.010320,-2.714979,0.364134,-2.857239,-1.574616,-0.387555,0.022983,-0.418294,-2.088322,-0.617096,-2.036228,-1.510176,-2.155400,0.298521,0.613435
4.950000,-0.152417,0.010460,-0.051346,0.119211,-0.213281,0.291069,0.581894,0.503082,-0.069023,-0.010890,-2.691870,0.316118,-2.853043,-1.589598,-0.419407,0.009000,-0.448519,-2.116234,-0.644285,-2.001937,-1.487587,-2.150595,0.302839,0.598197
5.000000,-0.143158,0.010424,-0.053605,0.145263,-0.213273,0.265946,0.575907,0.521880,-0.092864,-0.011390,-2.665369,0.266730,-2.849856,-1.604337,-0.452158,-0.007552,-0.480162,-2.143850,-0.672026,-1.967359,-1.463887,-2.146690,0.306720,0.581976
5.050000,-0.133494,0.010422,-0.056360,0.172431,-0.212947,0.240254,0.570552,0.541511,-0.117333,-0.011988,-2.633601,0.214670,-2.847880,-1.619392,-0.486715,-0.027423,-0.514398,-2.171509,-0.701108,-1.932674,-1.438932,-2.143475,0.310440,0.564836
5.100000,-0.123853,0.010742,-0.061271,0.199790,-0.212904,0.214420,0.566082,0.562356,-0.139887,-0.013067,-2.597569,0.161989,-2.847639,-1.633547,-0.521871,-0.050404,-0.549856,-2.198204,-0.730733,-1.898423,-1.412780,-2.140934,0.314018,0.546869
5.150000,-0.114193,0.010322,-0.062317,0.228785,-0.212962,0.188333,0.562488,0.584484,-0.167857,-0.013351,-2.553373,0.105526,-2.849895,-1.647843,-0.559833,-0.078237,-0.589173,-2.224830,-0.763087,-1.864237,-1.384365,-2.138438,0.318063,0.527884
5.200000,-0.104830,0.009821,-0.062890,0.262546,-0.213236,0.162868,0.559776,0.607023,-0.201059,-0.013575,-2.492220,0.038600,-2.856602,-1.663827,-0.605433,-0.115556,-0.638163,-2.253045,-0.802907,-1.828767,-1.350616,-2.134799,0.323671,0.506895
5.250000,-0.094914,0.009884,-0.067477,0.300079,-0.212658,0.137552,0.557563,0.628805,-0.234094,-0.014631,-2.407989,-0.039455,-2.868200,-1.681187,-0.659750,-0.166183,-0.699441,-2.281825,-0.848378,-1.793926,-1.312993,-2.130636,0.330470,0.484072
5.300000,-0.085174,0.009324,-0.068094,0.338403,-0.212131,0.112633,0.556201,0.651226,-0.271800,-0.014871,-2.299116,-0.125667,-2.886149,-1.697498,-0.721013,-0.231998,-0.771841,-2.308868,-0.895732,-1.761239,-1.273243,-2.126555,0.337971,0.460101
5.350000,-0.076632,0.009048,-0.070644,0.375729,-0.212947,0.089336,0.555933,0.674305,-0.306640,-0.015649,-2.160603,-0.221953,-2.911758,-1.711023,-0.790343,-0.317588,-0.857269,-2.332804,-0.943393,-1.731411,-1.231662,-2.122137,0.346394,0.435565
5.400000,-0.065802,0.008642,-0.073648,0.371646,-0.212683,0.061814,0.556939,0.702449,-0.299614,-0.016258,-2.332617,-0.184399,-2.788089,-1.705684,-0.756094,-0.285521,-0.815179,-2.334067,-0.932033,-1.724410,-1.231961,-2.127837,0.344513,0.428671
5.450000,-0.054313,0.008075,-0.076236,0.368375,-0.212503,0.033051,0.559372,0.733362,-0.293808,-0.016784,-2.297603,-0.186685,-2.818252,-1.700555,-0.759892,-0.292966,-0.815336,-2.335945,-0.922008,-1.716913,-1.231195,-2.133323,0.342985,0.421459
5.500000,-0.045452,0.007529,-0.077694,0.392313,-0.212895,0.010487,0.561668,0.758084,-0.316322,-0.017257,-2.953217,-0.169188,-2.241982,-1.707114,-0.691897,-0.241647,-0.744692,-2.352636,-0.951388,-1.694703,-1.202052,-2.132825,0.348385,0.402345
5.550000,-0.048836,0.007978,-0.079358,0.589994,-0.212314,0.019653,0.555851,0.738468,-0.512331,-0.019167,-2.968602,-0.418902,-2.016112,-1.770004,-0.742723,-0.391591,-0.873676,-2.462212,-1.225318,-1.565534,-0.974415,-2.126063,0.387279,0.278944
5.600000,-0.049666,0.008516,-0.084231,0.593277,-0.213046,0.019947,0.553408,0.735802,-0.510854,-0.020394,-2.972596,-0.424158,-2.009104,-1.765919,-0.743079,-0.398545,-0.871344,-2.462801,-1.229980,-1.565113,-0.963503,-2.122470,0.392714,0.270852
5.650000,-0.049932,0.008993,-0.088643,0.604655,-0.212882,0.020145,0.550903,0.732169,-0.517904,-0.021529,-2.976465,-0.438474,-1.991812,-1.763967,-0.744147,-0.412047,-0.874462,-2.468111,-1.245795,-1.559724,-0.943080,-2.119687,0.399467,0.257140
5.700000,-0.050178,0.009421,-0.092595,0.613210,-0.212838,0.020229,0.548746,0.729218,-0.522583,-0.022542,-2.980421,-0.449482,-1.977795,-1.761094,-0.744790,-0.423359,-0.875617,-2.473390,-1.257244,-1.553041,-0.925580,-2.119096,0.404708,0.244502
5.750000,-0.050398,0.009798,-0.096098,0.616715,-0.212921,0.020138,0.546966,0.727113,-0.522656,-0.023402,-2.983489,-0.454739,-1.970090,-1.756948,-0.745085,-0.431039,-0.873884,-2.477779,-1.260873,-1.545663,-0.914091,-2.121253,0.407685,0.234511
5.800000,-0.050670,0.010131,-0.099148,0.621153,-0.213120,0.020142,0.545478,0.725336,-0.524107,-0.024186,-2.986326,-0.460992,-1.961654,-1.752823,-0.745590,-0.439515,-0.872642,-2.483656,-1.265752,-1.535440,-0.900870,-2.125175,0.410280,0.223247
5.850000,-0.049931,0.010654,-0.104569,0.641635,-0.212005,0.019834,0.543758,0.721661,-0.539246,-0.025597,-2.989765,-0.484513,-1.932955,-1.752059,-0.746860,-0.460519,-0.881364,-2.496932,-1.294561,-1.518698,-0.866988,-2.128083,0.417331,0.200769
5.900000,-0.050194,0.010913,-0.106959,0.648088,-0.212372,0.019867,0.542865,0.720598,-0.543361,-0.026291,-2.992019,-0.492666,-1.922806,-1.747825,-0.747698,-0.470732,-0.881211,-2.504490,-1.303219,-1.505916,-0.849560,-2.133137,0.420578,0.187337
5.950000,-0.050559,0.011104,-0.108640,0.655665,-0.212907,0.020031,0.542280,0.719909,-0.549299,-0.026866,-2.993960,-0.501936,-1.911794,-1.743570,-0.748754,-0.481893,-0.881653,-2.512718,-1.314116,-1.492213,-0.829751,-2.138381,0.424409,0.172823
6.000000,-0.049624,0.011468,-0.112837,0.664947,-0.212018,0.019138,0.541648,0.718545,-0.554441,-0.027872,-2.995078,-0.512507,-1.897023,-1.740013,-0.749435,-0.495007,-0.884355,-2.522142,-1.327068,-1.478338,-0.808751,-2.144097,0.428521,0.157274
6.050000,-0.050032,0.011562,-0.113617,0.674997,-0.212779,0.019365,0.541676,0.718619,-0.563740,-0.028329,-2.996275,-0.524016,-1.883827,-1.735656,-0.750895,-0.508314,-0.886248,-2.531604,-1.343123,-1.463213,-0.783445,-2.149353,0.433907,0.140293
6.100000,-0.049051,0.011809,-0.116821,0.687978,-0.212033,0.018438,0.541647,0.717992,-0.573555,-0.029205,-2.996726,-0.537890,-1.865223,-1.732066,-0.751884,-0.524547,-0.891179,-2.544928,-1.364971,-1.449351,-0.759728,-2.157751,0.438281,0.129371
6.150000,-0.049509,0.011809,-0.116753,0.701751,-0.213099,0.018675,0.542321,0.718928,-0.587413,-0.029602,-2.997156,-0.552659,-1.848380,-1.727534,-0.753728,-0.541013,-0.895221,-2.558333,-1.390184,-1.433826,-0.731034,-2.166089,0.444095,0.116612
6.200000,-0.048450,0.011937,-0.118980,0.717505,-0.212489,0.017636,0.542914,0.719142,-0.600961,-0.030355,-2.996868,-0.568460,-1.826796,-1.723513,-0.754860,-0.559742,-0.901954,-2.573121,-1.417953,-1.417897,-0.700335,-2.175409,0.450446,0.102165
6.250000,-0.047324,0.012001,-0.120708,0.734764,-0.211933,0.016491,0.543824,0.719815,-0.616503,-0.031048,-2.996270,-0.585168,-1.803439,-1.719192,-0.755954,-0.579834,-0.909716,-2.588579,-1.449210,-1.401149,-0.665382,-2.184990,0.458168,0.085640
6.300000,-0.046103,0.011998,-0.121934,0.753608,-0.211413,0.015199,0.545055,0.720972,-0.634121,-0.031685,-2.995404,-0.602714,-1.778096,-1.714483,-0.756955,-0.601367,-0.918595,-2.604727,-1.484434,-1.383599,-0.625380,-2.194738,0.467578,0.066669
6.350000,-0.046618,0.011811,-0.120230,0.773223,-0.213201,0.015218,0.547113,0.724083,-0.655442,-0.032018,-2.994192,-0.621001,-1.755176,-1.708446,-0.759220,-0.623214,-0.926339,-2.621372,-1.524920,-1.362041,-0.576564,-2.205813,0.479417,0.043912
6.400000,-0.045246,0.011692,-0.120583,0.788030,-0.212928,0.013406,0.549131,0.727009,-0.669890,-0.032435,-2.991023,-0.633236,-1.735077,-1.702734,-0.760664,-0.642594,-0.934288,-2.724234,-1.544070,-1.024018,-0.537869,-2.506161,0.428613,-0.042287
6.450000,-0.044350,0.011581,-0.120492,0.789326,-0.212783,0.012417,0.551352,0.730050,-0.671270,-0.032424,-2.983873,-0.632600,-1.732470,-1.697020,-0.763291,-0.652675,-0.936713,-2.669302,-1.556863,-1.243935,-0.525922,-2.310230,0.474319,0.005473
6.500000,-0.043119,0.011383,-0.119956,0.793667,-0.212725,0.010683,0.554047,0.734327,-0.676134,-0.032397,-2.976264,-0.634352,-1.726290,-1.691235,-0.765997,-0.665403,-0.941245,-2.685845,-1.569246,-1.205466,-0.506265,-2.345678,0.475884,-0.006499
6.550000,-0.041648,0.011112,-0.118981,0.798281,-0.212768,0.008371,0.557203,0.739793,-0.681704,-0.032287,-2.970104,-0.636520,-1.719422,-1.685412,-0.768431,-0.677699,-0.945201,-2.708442,-1.582746,-1.140778,-0.484525,-2.405014,0.474677,-0.024226
6.600000,-0.038899,0.010648,-0.117575,0.801262,-0.212921,0.003017,0.561477,0.749651,-0.686067,-0.032043,-2.970028,-0.638699,-1.713186,-1.679629,-0.769693,-0.685930,-0.944676,-2.736799,-1.594687,-1.046985,-0.465067,-2.491699,0.470038,-0.046580
6.650000,-0.032173,0.010885,-0.123852,0.809329,-0.202017,0.002076,0.560884,0.738958,-0.687722,-0.032087,-2.970300,-0.639727,-1.683255,-1.677143,-0.763782,-0.700841,-0.957275,-2.751369,-1.603154,-1.038335,-0.458610,-2.508272,0.472997,-0.051565
6.700000,-0.023723,0.010379,-0.121321,0.818121,-0.185441,0.003243,0.558586,0.720701,-0.698651,-0.029147,-2.974245,-0.638452,-1.642307,-1.675751,-0.753378,-0.716189,-0.974253,-2.769539,-1.605014,-1.031580,-0.463344,-2.527562,0.471425,-0.054942
6.750000,-0.011129,0.009620,-0.118424,0.829728,-0.163028,0.002054,0.555967,0.699250,-0.712704,-0.025352,-2.978279,-0.635038,-1.587949,-1.675278,-0.738260,-0.735415,-1.000262,-2.789355,-1.603615,-1.035307,-0.475757,-2.541577,0.467877,-0.056439
6.800000,0.001672,0.008980,-0.117063,0.841253,-0.140745,0.001000,0.554411,0.678680,-0.725218,-0.021896,-2.984244,-0.630143,-1.532459,-1.673680,-0.722337,-0.753985,-1.027130,-2.811260,-1.601955,-1.030591,-0.487642,-2.563362,0.463447,-0.060245
6.850000,0.011336,0.008331,-0.113593,0.850253,-0.123822,0.001000,0.554743,0.664064,-0.737431,-0.018908,-2.988190,-0.624977,-1.488789,-1.670688,-0.709938,-0.770026,-1.049509,-2.805522,-1.602925,-1.119359,-0.493256,-2.497223,0.475313,-0.041923
6.900000,0.020635,0.007684,-0.109802,0.858133,-0.107886,0.001000,0.555960,0.651236,-0.748899,-0.016108,-2.991499,-0.618214,-1.447635,-1.667161,-0.698119,-0.785303,-1.071994,-2.802637,-1.604275,-1.193204,-0.498968,-2.444374,0.486077,-0.026513
6.950000,0.029541,0.007045,-0.105717,0.866753,-0.092956,0.001000,0.557973,0.640076,-0.761444,-0.013532,-2.996153,-0.611934,-1.406224,-1.662983,-0.686261,-0.800510,-1.094654,-2.819646,-1.606029,-1.188227,-0.500697,-2.462276,0.486110,-0.029630
7.000000,0.043560,0.006339,-0.102920,0.868097,-0.068994,0.001000,0.559450,0.620274,-0.765396,-0.009823,-3.003326,-0.594401,-1.357503,-1.660974,-0.668720,-0.811228,-1.122505,-2.826973,-1.582113,-1.232157,-0.538198,-2.445687,0.480036,-0.011499
7.050000,0.051743,0.005733,-0.098319,0.863615,-0.055905,0.001000,0.563022,0.612391,-0.765434,-0.007604,-3.003326,-0.579615,-1.337233,-1.658521,-0.661025,-0.816517,-1.136135,-2.835263,-1.562204,-1.247758,-0.562150,-2.446910,0.475363,0.001076
7.100000,0.067902,0.006277,-0.120303,0.845904,-0.029463,0.001000,0.566252,0.591370,-0.725645,-0.004723,-3.003326,-0.546759,-1.310884,-1.659804,-0.647190,-0.814427,-1.155262,-2.845543,-1.501722,-1.269894,-0.634942,-2.455355,0.452768,0.029302
7.150000,0.079658,0.005857,-0.123307,0.827507,-0.010650,0.001079,0.570953,0.579333,-0.704207,-0.001721,-3.002127,-0.520540,-1.299975,-1.660294,-0.639688,-0.809465,-1.162589,-2.854090,-1.452523,-1.285701,-0.688350,-2.462604,0.437136,0.052517
7.200000,0.089095,0.005573,-0.128233,0.812813,0.003657,0.001000,0.576448,0.572202,-0.684580,0.000603,-2.999382,-0.499263,-1.292572,-1.659599,-0.634846,-0.806780,-1.168371,-2.861835,-1.416674,-1.299448,-0.724482,-2.467279,0.428100,0.070629
7.250000,0.102031,0.005375,-0.141182,0.693575,0.023634,0.001000,0.582668,0.560319,-0.552429,0.003906,-2.984428,-0.428968,-1.428300,-1.672002,-0.652387,-0.717618,-1.066532,-2.858450,-1.212645,-1.324873,-0.907808,-2.478138,0.369829,0.158180
7.300000,0.112268,0.004654,-0.144965,-0.805882,0.035044,0.001108,0.589411,0.546545,0.950741,0.008703,-3.000873,1.505353,-2.914595,-0.708324,0.251694,-0.382396,0.292303,-3.003326,0.720411,-1.862025,-1.693617,-2.552774,0.660557,0.857027
7.350000,0.126418,0.004832,-0.197784,-0.840694,0.051989,0.001225,0.597379,0.527860,1.038128,0.020101,-3.001510,1.537594,-2.915016,-0.678332,0.271529,-0.400599,0.308462,-2.818981,0.879300,-1.892246,-1.678494,-2.625827,0.594015,0.701729
7.400000,0.136379,0.003926,-0.209605,-0.860829,0.063427,0.001297,0.605400,0.517979,1.069864,0.027455,-3.001002,1.554224,-2.914764,-0.661578,0.282485,-0.411369,0.318568,-2.810771,0.891398,-1.935964,-1.664904,-2.638968,0.611417,0.723625
7.450000,0.145693,0.002902,-0.221222,-0.877981,0.073430,0.001360,0.613801,0.509298,1.098371,0.035368,-3.000567,1.568011,-2.914554,-0.647144,0.291806,-0.420746,0.327252,-2.800270,0.901286,-1.975614,-1.651061,-2.651599,0.625888,0.742855
7.500000,0.154396,0.001757,-0.224677,-0.893685,0.082700,0.001412,0.622502,0.502689,1.117272,0.042014,-3.000190,1.580457,-2.914365,-0.633806,0.300400,-0.429432,0.335178,-2.791243,0.906807,-2.015176,-1.636691,-2.662635,0.640713,0.765114
7.550000,0.162959,0.000654,-0.203936,-0.912971,0.093441,0.001417,0.631486,0.499927,1.115677,0.042999,-2.999909,1.596185,-2.914243,-0.617646,0.311181,-0.439744,0.344315,-2.781115,0.915422,-2.059597,-1.620230,-2.674798,0.657861,0.789656
7.600000,0.173301,-0.000516,-0.192855,-0.930982,0.105534,0.001000,0.641561,0.494990,1.122365,0.046579,-2.997823,1.607063,-2.909538,-0.606892,0.317658,-0.447184,0.352830,-2.767028,0.925520,-2.104207,-1.603000,-2.688640,0.672811,0.811303
7.650000,0.181889,-0.001225,-0.171802,-0.943790,0.116668,0.001000,0.651268,0.494792,1.114041,0.045131,-2.997922,1.607063,-2.885921,-0.603440,0.305054,-0.449027,0.354191,-2.750089,0.933524,-2.142822,-1.586668,-2.702187,0.683047,0.827657
7.700000,0.190444,-0.001734,-0.150617,-0.956746,0.127861,0.001000,0.661274,0.495697,1.105785,0.042675,-2.998043,1.607063,-2.861882,-0.600384,0.292247,-0.450708,0.355560,-2.731349,0.944064,-2.179959,-1.569416,-2.716170,0.692447,0.841444
7.750000,0.198991,-0.002049,-0.129308,-0.969975,0.139148,0.001000,0.671579,0.497626,1.097732,0.039260,-2.998355,1.607063,-2.836826,-0.597598,0.278787,-0.452248,0.356773,-2.711312,0.957072,-2.215605,-1.551169,-2.730481,0.701335,0.853008
7.800000,0.207531,-0.002171,-0.107897,-0.983469,0.150531,0.001000,0.682174,0.500547,1.089904,0.034915,-2.998844,1.607063,-2.810823,-0.595124,0.264732,-0.453643,0.357853,-2.690352,0.972450,-2.249568,-1.531903,-2.745041,0.709878,0.862489
7.850000,0.216062,-0.002105,-0.086406,-0.997223,0.162013,0.001000,0.693049,0.504433,1.082320,0.029665,-2.999495,1.607063,-2.783943,-0.592999,0.250138,-0.454891,0.358822,-2.668810,0.990028,-2.281738,-1.511592,-2.759766,0.718257,0.870103
7.900000,0.224582,-0.001852,-0.064856,-1.011233,0.173594,0.001000,0.704197,0.509262,1.074999,0.023531,-3.000293,1.607063,-2.756271,-0.591260,0.235077,-0.455990,0.359705,-2.647053,1.009379,-2.312262,-1.490209,-2.774519,0.726720,0.876365
7.950000,0.233086,-0.001415,-0.043267,-1.025268,0.185277,0.001000,0.715610,0.515023,1.067737,0.016527,-3.000646,1.607063,-2.729755,-0.590331,0.221134,-0.456866,0.361107,-2.625256,1.030100,-2.341067,-1.467831,-2.789230,0.735270,0.881445
8.000000,0.241567,-0.000798,-0.021673,-1.038656,0.197054,0.001000,0.727281,0.521703,1.059894,0.008677,-2.998711,1.607063,-2.710384,-0.591371,0.213202,-0.457294,0.364882,-2.603524,1.051381,-2.367969,-1.444774,-2.803827,0.743626,0.885393
8.050000,0.246208,-0.000163,-0.004163,-1.042838,0.202938,0.001000,0.736883,0.531495,1.046915,0.001677,-2.994750,1.604431,-2.707761,-0.596328,0.214263,-0.455730,0.368724,-2.584909,1.061276,-2.383623,-1.427687,-2.813923,0.746679,0.886756
8.100000,0.246249,0.000268,0.009350,-0.999540,0.231880,0.040047,0.740948,0.472307,0.990437,-0.003918,-2.938319,1.504841,-2.728185,-0.718401,0.218040,-0.400800,0.385944,-2.584959,0.872093,-2.583974,-1.438837,-2.787359,0.769632,1.092252
8.150000,0.234386,0.001482,0.042867,-0.899344,0.183750,0.001000,0.744025,0.568484,0.857161,-0.011963,-2.930761,1.435653,-2.775612,-0.777862,0.199270,-0.365563,0.348975,-2.616897,0.736660,-2.485563,-1.498422,-2.741577,0.715222,1.072779
8.200000,0.224642,0.002067,0.065058,-0.490051,0.165126,0.001184,0.745966,0.584846,0.425850,-0.011734,-2.685618,0.934017,-2.915972,-1.198086,0.039596,-0.179770,0.196162,-2.461340,0.322549,-2.402688,-1.570458,-2.656372,0.511760,0.903785
8.250000,0.217806,0.002640,0.087078,-0.218820,0.150753,0.001000,0.749846,0.600399,0.132712,-0.013176,-2.483411,0.557394,-2.915972,-1.397736,-0.203026,-0.149901,-0.064899,-1.690598,0.286817,-2.828111,-1.524743,-2.743258,0.328007,0.598896
8.300000,0.209225,0.003059,0.109444,-0.082146,0.134189,0.001000,0.753249,0.618467,-0.026319,-0.014617,-2.350134,0.367808,-2.915972,-1.473844,-0.342073,-0.184776,-0.235106,-1.323889,0.459402,-2.915972,-1.469823,-2.915972,0.229026,0.341607
8.350000,0.200713,0.003326,0.130776,-0.090673,0.118266,0.001000,0.757112,0.638242,-0.039196,-0.015397,-2.385434,0.391119,-2.915972,-1.460854,-0.328847,-0.178068,-0.216649,-1.310198,0.461495,-2.915972,-1.466724,-2.915972,0.226717,0.348092
8.400000,0.192125,0.003486,0.151891,-0.099149,0.102042,0.001000,0.761385,0.658707,-0.051958,-0.015433,-2.420429,0.414917,-2.915972,-1.447436,-0.315467,-0.171893,-0.198907,-1.295847,0.463422,-2.915972,-1.463402,-2.915972,0.224370,0.354252
8.450000,0.183477,0.003548,0.172777,-0.107572,0.085527,0.001000,0.766093,0.679883,-0.064579,-0.014716,-2.455096,0.439163,-2.915972,-1.433583,-0.301976,-0.166273,-0.181906,-1.280850,0.465169,-2.915972,-1.459862,-2.915972,0.221989,0.360087
8.500000,0.174558,0.003826,0.193499,0.617206,0.063945,0.001009,0.771244,0.694565,-0.810240,-0.017825,-2.322161,-0.265659,-1.886134,-1.658963,-0.692748,-0.821665,-1.255451,-2.780196,-1.372860,-2.121012,-0.874473,-2.003555,0.652766,0.545341
8.550000,0.165873,0.003821,0.214034,0.786223,0.046050,0.001019,0.776929,0.715684,-0.999962,-0.018094,-3.003326,-0.444460,-1.234932,-1.642705,-0.617360,-0.821613,-1.197195,-2.873930,-1.582912,-2.053618,-0.611791,-1.957454,0.673963,0.352996
8.600000,0.160188,0.003389,0.230511,-0.247767,0.039291,0.001000,0.783446,0.744350,0.017426,-0.008974,-2.658849,0.688618,-2.915972,-1.306888,-0.147575,-0.146802,-0.014105,-1.518055,0.304148,-2.860120,-1.498756,-2.754123,0.290699,0.595233
8.650000,0.158608,0.003786,0.243934,-0.138290,0.033057,0.001000,0.790681,0.756755,-0.105512,-0.008026,-2.564189,0.524569,-2.915972,-1.386911,-0.254271,-0.149639,-0.129752,-1.238656,0.469558,-2.915972,-1.450026,-2.915972,0.213450,0.385706
8.700000,0.143281,0.002933,0.271022,-0.734129,0.004753,0.001019,0.797090,0.792125,0.463110,-0.001420,-3.003326,1.433928,-2.915972,-0.755345,0.209152,-0.357043,0.263164,-2.503301,0.650131,-2.123524,-1.568820,-2.722409,0.489562,0.830223
8.750000,0.137567,0.002965,0.286580,-0.707003,-0.009096,0.001000,0.804629,0.811205,0.420430,0.002818,-3.003326,1.408087,-2.915972,-0.777607,0.193856,-0.343677,0.249278,-2.405317,0.695715,-2.083366,-1.570619,-2.770081,0.433970,0.728298
8.800000,0.127209,0.002587,0.306555,-0.660511,-0.031555,0.001000,0.812909,0.838473,0.354082,0.010153,-3.003326,1.361782,-2.915972,-0.813954,0.167048,-0.322679,0.225940,-2.263049,0.731488,-2.042589,-1.569616,-2.835071,0.366103,0.599314
8.850000,0.121593,0.002607,0.321674,-0.633110,-0.045534,0.001000,0.821223,0.858786,0.311711,0.015123,-3.003326,1.334630,-2.915972,-0.836114,0.151515,-0.309592,0.211156,-2.208929,0.709138,-2.047839,-1.567310,-2.846488,0.341772,0.575478
8.900000,0.113780,0.002422,0.338640,-0.596132,-0.063765,0.001000,0.830378,0.883941,0.258071,0.021898,-3.003318,1.296774,-2.915947,-0.864962,0.130142,-0.293072,0.191346,-2.137110,0.673471,-2.064407,-1.561500,-2.856987,0.314134,0.549723
8.950000,0.104709,0.002097,0.355438,-0.553462,-0.084622,0.001000,0.840587,0.913004,0.199104,0.030014,-3.003326,1.251949,-2.915972,-0.897422,0.105154,-0.274958,0.168163,-2.046683,0.630287,-2.097660,-1.551301,-2.867207,0.286077,0.523851
9.000000,0.097900,0.001991,0.369622,-0.520002,-0.101397,0.001000,0.850740,0.938725,0.152007,0.037006,-3.003326,1.216473,-2.915972,-0.923137,0.085594,-0.260563,0.149173,-1.964024,0.597223,-2.137653,-1.540835,-2.876223,0.265054,0.505653
9.050000,0.090636,0.001845,0.383439,-0.484229,-0.119270,0.001000,0.861722,0.966791,0.103150,0.044770,-3.003326,1.177748,-2.915972,-0.950115,0.064417,-0.245796,0.128580,-1.880140,0.546560,-2.199830,-1.527092,-2.870491,0.249664,0.505499
9.100000,0.081514,0.001547,0.400851,-0.439615,-0.141199,0.001000,0.874728,1.001538,0.042282,0.054993,-3.003313,1.127998,-2.915916,-0.982444,0.037356,-0.228885,0.102799,-1.779639,0.452635,-2.315679,-1.506137,-2.831273,0.244470,0.539861
9.150000,0.072348,0.001265,0.414275,-0.394270,-0.163716,0.001000,0.889146,1.039218,-0.015034,0.065663,-3.003326,1.076325,-2.915972,-1.014507,0.009475,-0.212703,0.076058,-1.658416,0.240568,-2.584376,-1.480697,-2.684766,0.290826,0.687123
9.200000,0.064332,0.001155,0.426735,-0.353245,-0.184391,0.001000,0.904112,1.076391,-0.066890,0.076135,-3.003326,1.028708,-2.915972,-1.043184,-0.016060,-0.198593,0.051186,-2.283953,-0.187734,-2.308472,-1.454073,-2.385031,0.480252,0.982878
9.250000,0.056197,0.001120,0.439094,-0.310746,-0.205961,0.001000,0.920835,1.117232,-0.119726,0.087683,-3.003326,0.978298,-2.915972,-1.072068,-0.042984,-0.185039,0.025045,-2.262685,-0.350803,-2.407577,-1.422790,-2.283589,0.545940,1.042905
9.300000,0.054527,0.001667,0.451237,-0.298047,-0.213346,0.001000,0.930677,1.135632,-0.143633,0.093431,-3.003230,0.964291,-2.915972,-1.083101,-0.050093,-0.178439,0.015769,-2.294275,-0.359603,-2.351526,-1.413051,-2.286131,0.532147,1.029663
9.350000,0.055986,0.002467,0.466571,-0.299747,-0.213346,0.001000,0.936204,1.141472,-0.156950,0.096581,-3.002489,0.967946,-2.915972,-1.086257,-0.047493,-0.174632,0.014782,-2.276896,-0.397965,-2.411919,-1.415272,-2.256725,0.556837,1.062912
9.400000,0.057219,0.003202,0.481380,-0.292582,-0.213346,0.001000,0.941614,1.148109,-0.178574,0.099785,-2.996378,0.957569,-2.915972,-1.098993,-0.051335,-0.167227,0.008817,-1.079004,0.375223,-2.907556,-1.412748,-2.836351,0.194282,0.515094
9.450000,0.058406,0.003920,0.491755,-0.287434,-0.213346,0.001000,0.946651,1.154077,-0.193847,0.102063,-2.991472,0.950443,-2.915972,-1.109591,-0.053693,-0.160561,0.003884,-1.059965,0.388990,-2.915972,-1.411495,-2.849192,0.186856,0.507810
9.500000,0.059447,0.004630,0.505820,-0.282160,-0.213346,0.001000,0.951408,1.159993,-0.212852,0.105155,-2.986508,0.943202,-2.915972,-1.120240,-0.056131,-0.153842,-0.001183,-1.044771,0.406889,-2.915972,-1.410229,-2.866290,0.178389,0.496366
9.550000,0.060337,0.005288,0.519372,-0.274322,-0.213346,0.001000,0.955896,1.165979,-0.233900,0.108246,-2.979999,0.931939,-2.915972,-1.133526,-0.060497,-0.146154,-0.007842,-1.024701,0.429492,-2.915972,-1.407627,-2.887913,0.168952,0.480211
9.600000,0.061141,0.005867,0.528315,-0.264893,-0.213346,0.001000,0.960038,1.171648,-0.252014,0.110439,-2.972522,0.918184,-2.915972,-1.148375,-0.066114,-0.137918,-0.015594,-1.002320,0.454609,-2.915972,-1.404223,-2.911935,0.159398,0.461632
9.650000,0.061934,0.006516,0.540986,-0.265761,-0.213346,0.001000,0.963622,1.175837,-0.263538,0.113182,-2.971305,0.920914,-2.915972,-1.152623,-0.063836,-0.133310,-0.017160,-1.001697,0.458880,-2.915972,-1.406968,-2.915972,0.154613,0.463215
9.700000,0.062702,0.007109,0.549285,-0.268615,-0.213346,0.001000,0.966727,1.179085,-0.268812,0.114914,-2.971255,0.926841,-2.915972,-1.154909,-0.059999,-0.129332,-0.017528,-1.005248,0.458937,-2.915972,-1.411119,-2.915972,0.150573,0.468690
9.750000,0.063361,0.007647,0.557207,-0.271347,-0.213346,0.001000,0.969443,1.181939,-0.273840,0.116569,-2.971097,0.932609,-2.915972,-1.157350,-0.056223,-0.125271,-0.017977,-1.008607,0.459002,-2.915972,-1.415409,-2.915972,0.146373,0.473970
9.800000,0.063864,0.008144,0.567520,-0.274038,-0.213346,0.001000,0.971797,1.184589,-0.281247,0.118752,-2.970922,0.938387,-2.915972,-1.159743,-0.052445,-0.121219,-0.018431,-1.011768,0.459077,-2.915972,-1.419759,-2.915972,0.142033,0.479080
9.850000,0.064308,0.008550,0.574101,-0.276566,-0.213346,0.001000,0.973700,1.186584,-0.285168,0.120119,-2.970609,0.943922,-2.915972,-1.162362,-0.048764,-0.117060,-0.018991,-1.014737,0.459155,-2.915972,-1.424288,-2.915972,0.137519,0.483982
9.900000,0.064644,0.008883,0.580092,-0.278980,-0.213346,0.001000,0.975187,1.188143,-0.288626,0.121359,-2.970215,0.949316,-2.915972,-1.165079,-0.045142,-0.112852,-0.019609,-1.017510,0.459238,-2.915972,-1.428950,-2.915972,0.132842,0.488691
9.950000,0.064874,0.009141,0.585491,-0.281284,-0.213346,0.001000,0.976252,1.189258,-0.291615,0.122472,-2.969747,0.954576,-2.915972,-1.167878,-0.041576,-0.108606,-0.020279,-1.020088,0.459326,-2.915972,-1.433741,-2.915972,0.128003,0.493207
10.000000,0.064997,0.009319,0.590295,-0.283479,-0.213346,0.001000,0.976892,1.189925,-0.294131,0.123457,-2.969212,0.959703,-2.915972,-1.170746,-0.038069,-0.104332,-0.020995,-1.022470,0.459417,-2.915972,-1.438662,-2.915972,0.123002,0.497532
10.050000,0.065014,0.009415,0.594490,-0.285565,-0.213346,0.001000,0.977105,1.190139,-0.296160,0.124310,-2.968614,0.964695,-2.915972,-1.173675,-0.034623,-0.100037,-0.021755,-1.024657,0.459512,-2.915972,-1.443712,-2.915972,0.117837,0.501665
10.100000,0.064834,0.009366,0.598149,-0.281837,-0.213346,0.001000,0.977052,1.190812,-0.303434,0.125268,-2.964788,0.960603,-2.915972,-1.182410,-0.035530,-0.093583,-0.025955,-1.019963,0.459049,-2.915972,-1.448537,-2.915972,0.113163,0.496720
10.150000,0.057651,0.004504,0.601473,-0.277977,-0.213346,0.011819,0.967117,1.170791,-0.310511,0.126166,-2.960919,0.956339,-2.915972,-1.191206,-0.036538,-0.087104,-0.030242,-1.015075,0.458603,-2.915972,-1.453512,-2.915972,0.108321,0.491576
10.200000,0.051695,0.000164,0.263756,-0.274064,-0.213346,0.023313,0.954735,1.136716,0.015999,0.055237,-2.957083,0.952053,-2.915972,-1.199878,-0.037593,-0.080693,-0.034555,-1.009992,0.458178,-2.915972,-1.458563,-2.915972,0.103334,0.486261
10.250000,0.049159,-0.000279,0.134803,-0.269932,-0.212994,0.025971,0.951562,1.132759,0.138084,0.028688,-2.952706,0.947190,-2.915957,-1.209054,-0.038881,-0.074104,-0.039016,-1.005212,0.457826,-2.915972,-1.463935,-2.915972,0.098176,0.480856
10.300000,0.034640,-0.001384,0.083582,-0.265828,-0.213150,0.045211,0.936554,1.100482,0.184100,0.017966,-2.949155,0.942696,-2.915724,-1.217545,-0.040247,-0.067786,-0.043565,-0.999504,0.457429,-2.915972,-1.469159,-2.915972,0.092867,0.475095
10.350000,0.022257,-0.002493,0.085568,-0.261482,-0.212721,0.062881,0.923167,1.069007,0.177805,0.018335,-2.944621,0.937536,-2.915781,-1.226753,-0.041695,-0.061232,-0.048125,-0.994430,0.457141,-2.915972,-1.474786,-2.915972,0.087396,0.469330
10.400000,0.011570,-0.003220,0.081162,-0.257255,-0.213155,0.077833,0.912657,1.044214,0.177896,0.017427,-2.941347,0.933186,-2.915787,-1.234836,-0.042989,-0.055112,-0.052619,-0.987934,0.456765,-2.915972,-1.480083,-2.915972,0.081783,0.463106
10.450000,0.001150,-0.004118,0.081953,-0.252750,-0.212800,0.093375,0.901992,1.017708,0.172611,0.017552,-2.936928,0.927866,-2.915821,-1.243849,-0.044619,-0.048698,-0.057286,-0.982351,0.456533,-2.915972,-1.485864,-2.915972,0.076008,0.456937
10.500000,-0.009197,-0.004981,0.082038,-0.248181,-0.212561,0.109099,0.891868,0.991703,0.167955,0.017537,-2.932660,0.922537,-2.915869,-1.252680,-0.046313,-0.042395,-0.061989,-0.976407,0.456317,-2.915972,-1.491685,-2.915972,0.070085,0.450545
10.550000,-0.020630,-0.005421,0.075410,-0.243793,-0.213276,0.126159,0.882222,0.966013,0.170063,0.016181,-2.929837,0.918173,-2.915843,-1.260215,-0.047799,-0.036592,-0.066558,-0.968916,0.456027,-2.915972,-1.497092,-2.915972,0.064035,0.443687
10.600000,-0.031747,-0.006148,0.074037,-0.239132,-0.213211,0.143828,0.872585,0.938767,0.166745,0.015873,-2.925874,0.912839,-2.915856,-1.268648,-0.049634,-0.030529,-0.071306,-0.962321,0.455882,-2.915972,-1.502963,-2.915972,0.057828,0.436877
10.650000,-0.042603,-0.006757,0.071948,-0.240460,-0.213176,0.161460,0.863567,0.912135,0.170115,0.015433,-2.925233,0.916986,-2.915972,-1.271293,-0.046591,-0.026506,-0.071957,-0.970793,0.447265,-2.907877,-1.512535,-2.908589,0.053143,0.437568
10.700000,-0.053757,-0.007292,0.069412,-0.279725,-0.213251,0.180136,0.854804,0.884263,0.211858,0.015015,-2.944802,0.980269,-2.915972,-1.237553,-0.013889,-0.035937,-0.048261,-1.083444,0.376004,-2.852854,-1.544223,-2.843897,0.064717,0.497929
10.750000,-0.066473,-0.008407,0.071166,-0.308270,-0.212318,0.203206,0.845340,0.850283,0.238669,0.015423,-2.956597,1.025495,-2.915972,-1.214303,0.009281,-0.042529,-0.032599,-1.185633,0.309869,-2.809624,-1.569424,-2.781606,0.081060,0.556782
10.800000,-0.079436,-0.008826,0.067415,-0.335755,-0.212794,0.225860,0.837481,0.820011,0.269828,0.014762,-2.969085,1.069579,-2.915972,-1.190015,0.030994,-0.050254,-0.018541,-1.308491,0.231305,-2.758988,-1.592533,-2.707674,0.108372,0.628341
10.850000,-0.091130,-0.009808,0.068583,-0.360573,-0.211813,0.248176,0.829876,0.788672,0.293486,0.015054,-2.977989,1.108128,-2.915972,-1.169417,0.050033,-0.057043,-0.006566,-1.486161,0.126128,-2.684638,-1.614517,-2.611717,0.156742,0.725155
10.900000,-0.104169,-0.009848,0.063284,-0.366562,-0.212942,0.271178,0.823868,0.761015,0.304676,0.014012,-2.980803,1.119566,-2.915745,-1.165546,0.055772,-0.056506,-0.005017,-1.659682,0.017438,-2.605701,-1.625793,-2.521613,0.210798,0.812000
10.950000,-0.113921,-0.010515,0.063500,-0.355756,-0.212356,0.289840,0.818106,0.736160,0.293651,0.013975,-2.973800,1.104591,-2.915595,-1.180612,0.050020,-0.047558,-0.011781,-1.772340,-0.059422,-2.547013,-1.629848,-2.465107,0.244963,0.859532
11.000000,-0.123737,-0.010775,0.061380,-0.345815,-0.211999,0.308611,0.812868,0.712071,0.285779,0.013455,-2.967465,1.091081,-2.915611,-1.194281,0.044831,-0.039343,-0.018151,-1.799296,-0.082109,-2.524212,-1.634190,-2.449981,0.248174,0.863850
11.050000,-0.134898,-0.010353,0.055596,-0.338827,-0.213228,0.328651,0.808663,0.689482,0.284467,0.012252,-2.964523,1.083170,-2.915773,-1.203012,0.041781,-0.033341,-0.023079,-1.795621,-0.085889,-2.514964,-1.639054,-2.447771,0.241123,0.854653
11.100000,-0.144649,-0.010580,0.053967,-0.332877,-0.213030,0.347775,0.804320,0.665993,0.280109,0.011868,-2.960387,1.075689,-2.915748,-1.212024,0.039144,-0.027364,-0.027390,-1.783737,-0.083056,-2.511223,-1.645250,-2.449949,0.230969,0.842204
11.150000,-0.154247,-0.010649,0.051780,-0.326913,-0.212962,0.366688,0.800412,0.643308,0.276283,0.011371,-2.956462,1.068230,-2.915747,-1.220724,0.036423,-0.021608,-0.031713,-1.772132,-0.080784,-2.507382,-1.651351,-2.451639,0.221049,0.829987
11.200000,-0.163709,-0.010552,0.049060,-0.321323,-0.213023,0.385399,0.796912,0.621380,0.273355,0.010768,-2.961545,1.053464,-2.896396,-1.228732,0.018716,-0.015965,-0.046422,-1.758009,-0.076606,-2.504412,-1.657543,-2.454548,0.210074,0.816420
11.250000,-0.172978,-0.010280,0.045837,-0.315403,-0.213216,0.403758,0.793778,0.600329,0.270589,0.010063,-2.963986,1.040966,-2.883561,-1.236745,0.005900,-0.010646,-0.057762,-1.746963,-0.074983,-2.500010,-1.663450,-2.455599,0.200374,0.804374
11.300000,-0.180464,-0.010527,0.045322,-0.309293,-0.211803,0.420413,0.790155,0.578742,0.264967,0.009870,-2.963285,1.028088,-2.873380,-1.246406,-0.005118,-0.004899,-0.067669,-1.737360,-0.073231,-2.496376,-1.670168,-2.456657,0.190868,0.793110
11.350000,-0.188738,-0.010664,0.044355,-0.303151,-0.212170,0.436895,0.787385,0.559973,0.259778,0.009664,-2.963765,1.017419,-2.865814,-1.254045,-0.014072,-0.000111,-0.076274,-1.729055,-0.074264,-2.490857,-1.675718,-2.455622,0.182497,0.782638
11.400000,-0.196840,-0.009889,0.039827,-0.297071,-0.212661,0.452833,0.784828,0.542272,0.258132,0.008693,-2.963557,1.007665,-2.860321,-1.261331,-0.021456,0.004388,-0.083714,-1.720631,-0.075608,-2.485479,-1.681157,-2.454257,0.174265,0.772301
11.450000,-0.203357,-0.008953,0.035079,-0.290880,-0.211506,0.467346,0.781645,0.523737,0.256572,0.007610,-2.960566,0.997081,-2.856367,-1.270244,-0.027959,0.009364,-0.090336,-1.712468,-0.076029,-2.481479,-1.687490,-2.453465,0.165804,0.762207
11.500000,-0.210571,-0.009408,0.035882,-0.284940,-0.212207,0.481605,0.779180,0.507719,0.249854,0.007800,-2.959421,0.988712,-2.853891,-1.276794,-0.033104,0.013317,-0.096030,-1.703996,-0.078068,-2.476307,-1.692667,-2.451362,0.157918,0.752223
11.550000,-0.217387,-0.008139,0.030291,-0.278993,-0.213002,0.494637,0.776669,0.493308,0.249381,0.006607,-2.957776,0.980802,-2.852779,-1.283123,-0.037324,0.017063,-0.100978,-1.695867,-0.080753,-2.471098,-1.697699,-2.448709,0.150365,0.742615
11.600000,-0.222340,-0.008387,0.030612,-0.272964,-0.212070,0.505955,0.773241,0.477659,0.243031,0.006640,-2.953547,0.971805,-2.852525,-1.291065,-0.041213,0.021284,-0.105475,-1.687907,-0.082297,-2.467295,-1.703643,-2.446762,0.142480,0.733123
11.650000,-0.228161,-0.006835,0.024463,-0.267077,-0.213030,0.516688,0.770430,0.465427,0.243163,0.005329,-2.951291,0.964641,-2.853333,-1.296829,-0.044159,0.024570,-0.109301,-1.680282,-0.086051,-2.462076,-1.708354,-2.443130,0.135510,0.724153
11.700000,-0.232025,-0.006879,0.024259,-0.261084,-0.212207,0.525511,0.766543,0.451940,0.237366,0.005258,-2.946499,0.956203,-2.854693,-1.304263,-0.047056,0.028340,-0.112879,-1.672899,-0.088663,-2.458242,-1.713989,-2.440205,0.128211,0.715296
11.750000,-0.235297,-0.005241,0.018252,-0.254990,-0.211380,0.532786,0.762301,0.439925,0.237139,0.003937,-2.941335,0.947729,-2.856710,-1.311649,-0.049691,0.031949,-0.116176,-1.666324,-0.092229,-2.454228,-1.719461,-2.436523,0.121433,0.707029
11.800000,-0.239386,-0.004962,0.017064,-0.249301,-0.212585,0.539629,0.758607,0.430679,0.232619,0.003701,-2.938761,0.941384,-2.859194,-1.316456,-0.051581,0.034491,-0.118877,-1.658978,-0.097055,-2.449107,-1.723656,-2.431793,0.115112,0.698706
11.850000,-0.241355,-0.004668,0.015933,-0.243377,-0.211900,0.543995,0.753572,0.420671,0.227798,0.003442,-2.933534,0.933355,-2.861962,-1.323182,-0.053790,0.037576,-0.121619,-1.652328,-0.101021,-2.445216,-1.728805,-2.427609,0.108608,0.690663
11.900000,-0.244231,-0.002737,0.009265,-0.237742,-0.213176,0.547773,0.749046,0.413984,0.228687,0.002013,-2.930797,0.927121,-2.865063,-1.327592,-0.055442,0.039688,-0.123898,-1.645415,-0.106612,-2.440085,-1.732678,-2.422162,0.102783,0.682842
11.950000,-0.244891,-0.002452,0.008276,-0.231985,-0.212516,0.549092,0.743098,0.406117,0.223895,0.001791,-2.925551,0.919286,-2.868171,-1.333782,-0.057546,0.042282,-0.126304,-1.638805,-0.110864,-2.436305,-1.737544,-2.417569,0.096529,0.675019
12.000000,-0.244852,-0.002132,0.007193,-0.226318,-0.211896,0.548709,0.736641,0.399483,0.219285,0.001552,-2.920362,0.911506,-2.871343,-1.339708,-0.059684,0.044620,-0.128614,-1.632116,-0.115135,-2.432556,-1.742277,-2.412885,0.090324,0.667206
