xyodfish/PIVOT/config/trajectories/galbot_mobile_wbc_ik_bimanual_sweep.csv
time,chassis_x,chassis_y,chassis_yaw,head_joint1,head_joint2,leg_joint1,leg_joint2,leg_joint3,leg_joint4,leg_joint5,left_arm_joint1,left_arm_joint2,left_arm_joint3,left_arm_joint4,left_arm_joint5,left_arm_joint6,left_arm_joint7,right_arm_joint1,right_arm_joint2,right_arm_joint3,right_arm_joint4,right_arm_joint5,right_arm_joint6,right_arm_joint7
0.000000,0.000000,0.000000,0.000000,0.000000,-0.000024,0.299797,1.199957,0.849885,-0.165108,0.000000,0.464910,-1.600683,0.426903,-0.829098,1.081907,-0.168118,-0.262981,-0.609350,-2.000000,1.600080,0.600051,1.700010,0.000000,0.799993
0.200000,0.000538,0.008838,-0.002293,0.000000,-0.000024,0.276439,1.179193,0.857995,-0.208680,-0.163500,0.467161,-1.457142,0.426920,-0.954856,1.112038,-0.130897,-0.130807,-0.594111,-1.606744,1.696181,0.979755,1.553458,-0.017908,0.971306
0.300000,0.001353,0.009545,0.001641,0.000000,-0.000024,0.275569,1.176341,0.858114,-0.202164,-0.150050,0.468340,-1.454371,0.425253,-0.963204,1.106255,-0.142194,-0.134915,-0.594845,-1.606905,1.692060,0.990079,1.547458,-0.013539,0.967075
0.400000,0.002282,0.010205,0.005576,0.000000,-0.000024,0.274714,1.173600,0.858174,-0.195786,-0.136785,0.469553,-1.451371,0.423556,-0.971269,1.100473,-0.153591,-0.139258,-0.595431,-1.606906,1.687962,1.000066,1.541512,-0.009196,0.962535
0.500000,0.003331,0.010841,0.009509,0.000000,-0.000024,0.273866,1.170955,0.858174,-0.189564,-0.123754,0.470791,-1.448153,0.421843,-0.979054,1.094723,-0.165051,-0.143800,-0.595873,-1.606590,1.683893,1.009790,1.535597,-0.004858,0.957684
0.600000,0.004501,0.011457,0.013442,0.000000,-0.000024,0.273021,1.168398,0.858114,-0.183501,-0.110961,0.472053,-1.444722,0.420119,-0.986557,1.089015,-0.176570,-0.148536,-0.596170,-1.605946,1.679857,1.019259,1.529713,-0.000520,0.952523
0.700000,0.005790,0.012053,0.017373,0.000000,-0.000024,0.272178,1.165926,0.857996,-0.177600,-0.098404,0.473339,-1.441081,0.418389,-0.993775,1.083355,-0.188146,-0.153467,-0.596323,-1.604978,1.675858,1.028470,1.523866,0.003821,0.947054
0.800000,0.007198,0.012631,0.021304,0.000000,-0.000024,0.271335,1.163533,0.857821,-0.171862,-0.086085,0.474651,-1.437237,0.416655,-1.000707,1.077753,-0.199777,-0.158593,-0.596335,-1.603690,1.671899,1.037421,1.518059,0.008169,0.941275
0.900000,0.008724,0.013193,0.025235,0.000000,-0.000024,0.270493,1.161216,0.857590,-0.166288,-0.074003,0.475989,-1.433193,0.414922,-1.007350,1.072215,-0.211461,-0.163913,-0.596207,-1.602084,1.667980,1.046108,1.512297,0.012528,0.935188
1.000000,0.010365,0.013740,0.029164,0.000000,-0.000024,0.269651,1.158971,0.857305,-0.160882,-0.062159,0.477351,-1.428953,0.413194,-1.013703,1.066751,-0.223197,-0.169426,-0.595941,-1.600162,1.664106,1.054529,1.506584,0.016902,0.928792
1.100000,0.012121,0.014273,0.033092,0.000000,-0.000024,0.268807,1.156792,0.856968,-0.155645,-0.050553,0.478739,-1.424522,0.411473,-1.019764,1.061367,-0.234982,-0.175133,-0.595539,-1.597928,1.660277,1.062680,1.500924,0.021294,0.922089
1.200000,0.013990,0.014794,0.037020,0.000000,-0.000024,0.267961,1.154677,0.856580,-0.150578,-0.039186,0.480150,-1.419903,0.409763,-1.025532,1.056074,-0.246814,-0.181031,-0.595003,-1.595384,1.656497,1.070559,1.495320,0.025708,0.915078
1.300000,0.015970,0.015305,0.040946,0.000000,-0.000024,0.267113,1.152622,0.856143,-0.145684,-0.028058,0.481585,-1.415101,0.408068,-1.031005,1.050877,-0.258692,-0.187122,-0.594338,-1.592533,1.652765,1.078163,1.489777,0.030149,0.907761
1.400000,0.018059,0.015807,0.044872,0.000000,-0.000024,0.266261,1.150621,0.855658,-0.140965,-0.017172,0.483042,-1.410120,0.406390,-1.036182,1.045787,-0.270612,-0.193403,-0.593545,-1.589376,1.649083,1.085488,1.484298,0.034620,0.900137
1.500000,0.020255,0.016302,0.048797,0.000000,-0.000024,0.265406,1.148673,0.855128,-0.136422,-0.006529,0.484520,-1.404963,0.404731,-1.041064,1.040810,-0.282572,-0.199875,-0.592628,-1.585915,1.645453,1.092531,1.478887,0.039124,0.892209
1.600000,0.022555,0.016791,0.052722,0.000000,-0.000024,0.264548,1.146772,0.854553,-0.132057,0.003871,0.486017,-1.399634,0.403095,-1.045650,1.035956,-0.294569,-0.206535,-0.591590,-1.582153,1.641874,1.099288,1.473546,0.043667,0.883976
1.700000,0.024957,0.017276,0.056645,0.000000,-0.000024,0.263685,1.144915,0.853936,-0.127873,0.014024,0.487531,-1.394138,0.401484,-1.049939,1.031232,-0.306600,-0.213383,-0.590435,-1.578092,1.638348,1.105757,1.468280,0.048250,0.875440
1.800000,0.027458,0.017760,0.060568,0.000000,-0.000024,0.262818,1.143099,0.853278,-0.123870,0.023930,0.489060,-1.388477,0.399900,-1.053931,1.026647,-0.318663,-0.220416,-0.589167,-1.573734,1.634874,1.111933,1.463091,0.052879,0.866601
1.900000,0.030055,0.018242,0.064490,0.000000,-0.000024,0.261947,1.141319,0.852582,-0.120050,0.033587,0.490603,-1.382655,0.398345,-1.057628,1.022208,-0.330754,-0.227635,-0.587790,-1.569079,1.631453,1.117814,1.457983,0.057556,0.857461
2.000000,0.032746,0.018726,0.068411,0.000000,-0.000024,0.261072,1.139574,0.851849,-0.116415,0.042991,0.492156,-1.376676,0.396820,-1.061030,1.017923,-0.342870,-0.235037,-0.586308,-1.564130,1.628084,1.123394,1.452957,0.062285,0.848021
2.100000,0.035526,0.019213,0.072332,0.000000,-0.000024,0.260193,1.137859,0.851081,-0.112965,0.052141,0.493717,-1.370542,0.395328,-1.064137,1.013801,-0.355008,-0.242621,-0.584726,-1.558888,1.624766,1.128672,1.448018,0.067069,0.838281
2.200000,0.038393,0.019704,0.076253,0.000000,-0.000024,0.259309,1.136172,0.850281,-0.109703,0.061035,0.495284,-1.364258,0.393869,-1.066952,1.009848,-0.367164,-0.250384,-0.583049,-1.553354,1.621500,1.133642,1.443167,0.071913,0.828244
2.300000,0.041344,0.020200,0.080172,0.000000,-0.000024,0.258422,1.134508,0.849450,-0.106630,0.069669,0.496854,-1.357827,0.392445,-1.069475,1.006072,-0.379334,-0.258324,-0.581281,-1.547531,1.618284,1.138301,1.438408,0.076818,0.817911
2.400000,0.044374,0.020704,0.084092,0.000000,-0.000024,0.257531,1.132866,0.848590,-0.103745,0.078041,0.498422,-1.351250,0.391056,-1.071708,1.002481,-0.391515,-0.266440,-0.579428,-1.541418,1.615116,1.142646,1.433742,0.081789,0.807282
2.500000,0.047481,0.021217,0.088011,0.000000,-0.000024,0.256637,1.131242,0.847704,-0.101051,0.086148,0.499988,-1.344532,0.389704,-1.073654,0.999082,-0.403703,-0.274729,-0.577494,-1.535018,1.611996,1.146673,1.429172,0.086828,0.796361
2.600000,0.050659,0.021740,0.091930,0.000000,-0.000024,0.255741,1.129634,0.846794,-0.098548,0.093987,0.501546,-1.337676,0.388388,-1.075314,0.995881,-0.415894,-0.283189,-0.575484,-1.528332,1.608922,1.150378,1.424701,0.091937,0.785147
2.700000,0.053906,0.022275,0.095849,0.000000,-0.000024,0.254842,1.128039,0.845861,-0.096236,0.101556,0.503095,-1.330683,0.387110,-1.076691,0.992886,-0.428084,-0.291817,-0.573405,-1.521359,1.605893,1.153756,1.420330,0.097121,0.773644
2.800000,0.057217,0.022823,0.099767,0.000000,-0.000024,0.253941,1.126455,0.844908,-0.094116,0.108851,0.504629,-1.323556,0.385869,-1.077787,0.990102,-0.440270,-0.300610,-0.571262,-1.514103,1.602907,1.156805,1.416062,0.102380,0.761853
2.900000,0.060589,0.023385,0.103686,0.000000,-0.000024,0.253039,1.124878,0.843937,-0.092188,0.115869,0.506147,-1.316297,0.384665,-1.078607,0.987535,-0.452447,-0.309566,-0.569059,-1.506563,1.599963,1.159520,1.411899,0.107719,0.749775
3.000000,0.064013,0.023965,0.107571,0.000000,-0.000024,0.252138,1.123308,0.842951,-0.090432,0.122611,0.507645,-1.308905,0.383491,-1.079153,0.985189,-0.464606,-0.318683,-0.566807,-1.498738,1.597061,1.161900,1.407843,0.113147,0.737417
3.100000,0.067473,0.024571,0.111281,0.000000,-0.000024,0.251241,1.121739,0.841959,-0.088758,0.129095,0.509128,-1.301362,0.382323,-1.079433,0.983055,-0.476724,-0.327972,-0.564525,-1.490621,1.594219,1.163945,1.403899,0.118703,0.724803
3.200000,0.070964,0.025204,0.114817,0.000000,-0.000024,0.250349,1.120170,0.840963,-0.087166,0.135317,0.510591,-1.293671,0.381159,-1.079450,0.981139,-0.488797,-0.337429,-0.562220,-1.482212,1.591432,1.165653,1.400069,0.124388,0.711935
3.300000,0.074479,0.025864,0.118180,0.000000,-0.000024,0.249466,1.118600,0.839966,-0.085655,0.141273,0.512032,-1.285832,0.380000,-1.079208,0.979445,-0.500821,-0.347049,-0.559897,-1.473512,1.588698,1.167020,1.396355,0.130205,0.698815
3.400000,0.078015,0.026552,0.121371,0.000000,-0.000024,0.248591,1.117026,0.838971,-0.084224,0.146960,0.513448,-1.277848,0.378845,-1.078712,0.977978,-0.512792,-0.356831,-0.557565,-1.464523,1.586015,1.168041,1.392758,0.136153,0.685446
3.500000,0.081567,0.027268,0.124391,0.000000,-0.000024,0.247726,1.115448,0.837980,-0.082872,0.152374,0.514835,-1.269721,0.377696,-1.077964,0.976743,-0.524708,-0.366771,-0.555229,-1.455243,1.583381,1.168714,1.389281,0.142233,0.671829
3.600000,0.085129,0.028011,0.127242,0.000000,-0.000024,0.246874,1.113865,0.836996,-0.081598,0.157512,0.516190,-1.261452,0.376552,-1.076969,0.975744,-0.536565,-0.376865,-0.552895,-1.445675,1.580792,1.169035,1.385924,0.148447,0.657967
3.700000,0.088696,0.028783,0.129925,0.000000,-0.000024,0.246035,1.112276,0.836021,-0.080401,0.162371,0.517510,-1.253042,0.375412,-1.075732,0.974984,-0.548360,-0.387110,-0.550571,-1.435819,1.578246,1.169001,1.382691,0.154793,0.643861
3.800000,0.092809,0.028442,0.133835,0.000000,-0.000024,0.244354,1.109963,0.833996,-0.078687,0.163364,0.518152,-1.242328,0.374979,-1.074743,0.974383,-0.562313,-0.395108,-0.548264,-1.423873,1.573736,1.170210,1.379090,0.159358,0.630795
3.900000,0.096957,0.027892,0.137744,0.000000,-0.000024,0.242565,1.107414,0.831684,-0.076890,0.163366,0.518523,-1.230987,0.374616,-1.073601,0.973952,-0.576678,-0.402735,-0.545885,-1.411243,1.568880,1.171439,1.375475,0.163693,0.617797
4.000000,0.101089,0.027459,0.141654,0.000000,-0.000024,0.240853,1.104878,0.829406,-0.075437,0.163363,0.518839,-1.219722,0.374214,-1.072167,0.973763,-0.590847,-0.410656,-0.543421,-1.398488,1.564202,1.172200,1.371991,0.168247,0.604407
