xyodfish/PIVOT/config/trajectories/galbot_wbc_ik_triple_fixed_base.csv
time,chassis_x,chassis_y,chassis_yaw,head_joint1,head_joint2,leg_joint1,leg_joint2,leg_joint3,leg_joint4,leg_joint5,left_arm_joint1,left_arm_joint2,left_arm_joint3,left_arm_joint4,left_arm_joint5,left_arm_joint6,left_arm_joint7,right_arm_joint1,right_arm_joint2,right_arm_joint3,right_arm_joint4,right_arm_joint5,right_arm_joint6,right_arm_joint7
0.000000,0.000000,0.000000,0.000000,0.000000,0.000000,0.250000,0.650000,0.400000,0.000000,0.000000,1.000000,-0.700000,-0.400000,-1.570000,0.000000,0.000000,0.000000,-1.000000,0.700000,0.400000,1.570000,0.000000,0.000000,0.000000
0.100000,0.000000,0.000000,0.000000,-0.013243,0.015024,0.273915,0.656818,0.367879,0.013243,0.000000,0.994740,-0.653679,-0.431369,-1.442442,-0.047267,-0.128789,0.061555,-1.032407,0.706912,0.401684,1.374729,-0.007436,0.195447,0.021586
0.150000,0.000000,0.000000,0.000000,-0.013798,0.015594,0.277000,0.663384,0.370790,0.013798,0.000000,0.994684,-0.654047,-0.430695,-1.442778,-0.046911,-0.128476,0.061655,-1.034145,0.711364,0.398558,1.375588,-0.011979,0.194343,0.026838
0.200000,0.000000,0.000000,0.000000,-0.014377,0.016168,0.280094,0.669950,0.373688,0.014377,0.000000,0.994623,-0.654501,-0.429937,-1.443322,-0.046467,-0.127962,0.061674,-1.035846,0.715825,0.395419,1.376335,-0.016519,0.193256,0.032071
0.250000,0.000000,0.000000,0.000000,-0.014970,0.016738,0.283179,0.676498,0.376581,0.014970,0.000000,0.994559,-0.655037,-0.429107,-1.444073,-0.045941,-0.127249,0.061607,-1.037510,0.720286,0.392277,1.377019,-0.021050,0.192170,0.037283
0.300000,0.000000,0.000000,0.000000,-0.015576,0.017303,0.286248,0.683019,0.379468,0.015576,0.000000,0.994492,-0.655653,-0.428205,-1.445031,-0.045331,-0.126336,0.061456,-1.039137,0.724746,0.389134,1.377647,-0.025570,0.191078,0.042469
0.350000,0.000000,0.000000,0.000000,-0.016193,0.017861,0.289297,0.689501,0.382343,0.016193,0.000000,0.994424,-0.656348,-0.427233,-1.446192,-0.044641,-0.125227,0.061221,-1.040724,0.729200,0.385992,1.378226,-0.030075,0.189974,0.047625
0.400000,0.000000,0.000000,0.000000,-0.016821,0.018411,0.292320,0.695935,0.385205,0.016821,0.000000,0.994354,-0.657122,-0.426193,-1.447554,-0.043870,-0.123923,0.060902,-1.042268,0.733644,0.382854,1.378767,-0.034560,0.188850,0.052746
0.450000,0.000000,0.000000,0.000000,-0.017456,0.018952,0.295312,0.702311,0.388048,0.017456,0.000000,0.994281,-0.657973,-0.425085,-1.449113,-0.043020,-0.122425,0.060499,-1.043768,0.738077,0.379722,1.379275,-0.039022,0.187701,0.057827
0.500000,0.000000,0.000000,0.000000,-0.018097,0.019482,0.298267,0.708618,0.390870,0.018097,0.000000,0.994205,-0.658901,-0.423913,-1.450866,-0.042092,-0.120738,0.060014,-1.045221,0.742494,0.376599,1.379761,-0.043458,0.186519,0.062865
0.550000,0.000000,0.000000,0.000000,-0.018743,0.020000,0.301180,0.714847,0.393666,0.018743,0.000000,0.994127,-0.659903,-0.422677,-1.452809,-0.041088,-0.118864,0.059447,-1.046626,0.746892,0.373486,1.380232,-0.047865,0.185297,0.067853
0.600000,0.000000,0.000000,0.000000,-0.019391,0.020506,0.304047,0.720986,0.396434,0.019391,0.000000,0.994047,-0.660979,-0.421380,-1.454937,-0.040008,-0.116805,0.058800,-1.047981,0.751269,0.370385,1.380697,-0.052238,0.184031,0.072789
0.650000,0.000000,0.000000,0.000000,-0.020040,0.020997,0.306862,0.727027,0.399168,0.020040,0.000000,0.993963,-0.662128,-0.420022,-1.457245,-0.038856,-0.114566,0.058074,-1.049285,0.755622,0.367299,1.381165,-0.056575,0.182712,0.077666
0.700000,0.000000,0.000000,0.000000,-0.020688,0.021474,0.309620,0.732959,0.401865,0.020688,0.000000,0.993876,-0.663347,-0.418606,-1.459728,-0.037632,-0.112150,0.057271,-1.050535,0.759947,0.364229,1.381644,-0.060872,0.181334,0.082480
0.750000,0.000000,0.000000,0.000000,-0.021332,0.021934,0.312316,0.738772,0.404522,0.021332,0.000000,0.993785,-0.664636,-0.417134,-1.462380,-0.036337,-0.109561,0.056391,-1.051730,0.764242,0.361177,1.382145,-0.065128,0.179891,0.087227
0.800000,0.000000,0.000000,0.000000,-0.021970,0.022378,0.314946,0.744457,0.407133,0.021970,0.000000,0.993691,-0.665993,-0.415607,-1.465195,-0.034975,-0.106804,0.055437,-1.052868,0.768505,0.358145,1.382674,-0.069338,0.178378,0.091902
0.850000,0.000000,0.000000,0.000000,-0.022601,0.022804,0.317505,0.750005,0.409696,0.022601,0.000000,0.993592,-0.667415,-0.414028,-1.468168,-0.033547,-0.103883,0.054411,-1.053950,0.772732,0.355134,1.383241,-0.073501,0.176787,0.096501
0.900000,0.000000,0.000000,0.000000,-0.023222,0.023211,0.319988,0.755405,0.412206,0.023222,0.000000,0.993489,-0.668902,-0.412398,-1.471291,-0.032055,-0.100803,0.053314,-1.054972,0.776921,0.352145,1.383856,-0.077613,0.175113,0.101018
0.950000,0.000000,0.000000,0.000000,-0.023831,0.023599,0.322391,0.760650,0.414659,0.023831,0.000000,0.993381,-0.670452,-0.410719,-1.474557,-0.030501,-0.097570,0.052148,-1.055935,0.781070,0.349180,1.384525,-0.081673,0.173350,0.105450
1.000000,0.000000,0.000000,0.000000,-0.024426,0.023966,0.324710,0.765729,0.417052,0.024426,0.000000,0.993268,-0.672062,-0.408994,-1.477960,-0.028887,-0.094188,0.050917,-1.056837,0.785176,0.346240,1.385259,-0.085679,0.171491,0.109792
1.050000,0.000000,0.000000,0.000000,-0.025006,0.024313,0.326941,0.770634,0.419380,0.025006,0.000000,0.993149,-0.673730,-0.407225,-1.481492,-0.027215,-0.090664,0.049621,-1.057677,0.789237,0.343326,1.386065,-0.089627,0.169533,0.114040
1.100000,0.000000,0.000000,0.000000,-0.025568,0.024638,0.329079,0.775358,0.421640,0.025568,0.000000,0.993025,-0.675456,-0.405414,-1.485145,-0.025489,-0.087002,0.048264,-1.058455,0.793252,0.340439,1.386952,-0.093517,0.167468,0.118190
1.150000,0.000000,0.000000,0.000000,-0.026111,0.024941,0.331121,0.779891,0.423828,0.026111,0.000000,0.992893,-0.677235,-0.403562,-1.488913,-0.023709,-0.083209,0.046847,-1.059169,0.797217,0.337579,1.387928,-0.097347,0.165292,0.122237
1.200000,0.000000,0.000000,0.000000,-0.026631,0.025222,0.333063,0.784226,0.425941,0.026631,0.000000,0.992755,-0.679067,-0.401673,-1.492786,-0.021879,-0.079292,0.045374,-1.059820,0.801132,0.334749,1.389000,-0.101114,0.163000,0.126179
1.250000,0.000000,0.000000,0.000000,-0.027129,0.025479,0.334902,0.788355,0.427973,0.027129,0.000000,0.992610,-0.680949,-0.399748,-1.496757,-0.020002,-0.075255,0.043847,-1.060406,0.804994,0.331948,1.390177,-0.104818,0.160587,0.130010
1.300000,0.000000,0.000000,0.000000,-0.027601,0.025713,0.336635,0.792271,0.429923,0.027601,0.000000,0.992457,-0.682878,-0.397790,-1.500819,-0.018079,-0.071107,0.042269,-1.060927,0.808802,0.329177,1.391465,-0.108457,0.158048,0.133728
1.350000,0.000000,0.000000,0.000000,-0.028047,0.025923,0.338257,0.795967,0.431787,0.028047,0.000000,0.992295,-0.684852,-0.395801,-1.504962,-0.016113,-0.066853,0.040643,-1.061383,0.812554,0.326437,1.392873,-0.112031,0.155379,0.137329
1.400000,0.000000,0.000000,0.000000,-0.028464,0.026108,0.339767,0.799437,0.433561,0.028464,0.000000,0.992125,-0.686870,-0.393783,-1.509179,-0.014108,-0.062501,0.038971,-1.061773,0.816250,0.323728,1.394405,-0.115538,0.152576,0.140810
1.450000,0.000000,0.000000,0.000000,-0.028851,0.026270,0.341161,0.802674,0.435243,0.028851,0.000000,0.991945,-0.688927,-0.391739,-1.513461,-0.012065,-0.058057,0.037256,-1.062098,0.819887,0.321051,1.396070,-0.118977,0.149635,0.144167
1.500000,0.000000,0.000000,0.000000,-0.029208,0.026406,0.342438,0.805673,0.436829,0.029208,0.000000,0.991756,-0.691023,-0.389672,-1.517800,-0.009988,-0.053528,0.035502,-1.062356,0.823465,0.318405,1.397873,-0.122347,0.146551,0.147399
1.550000,0.000000,0.000000,0.000000,-0.029533,0.026518,0.343594,0.808428,0.438316,0.029533,0.000000,0.991557,-0.693153,-0.387583,-1.522188,-0.007879,-0.048922,0.033711,-1.062547,0.826982,0.315791,1.399820,-0.125650,0.143322,0.150501
1.600000,0.000000,0.000000,0.000000,-0.029824,0.026605,0.344628,0.810934,0.439702,0.029824,0.000000,0.991347,-0.695316,-0.385476,-1.526617,-0.005742,-0.044245,0.031887,-1.062672,0.830439,0.313209,1.401916,-0.128883,0.139945,0.153473
1.650000,0.000000,0.000000,0.000000,-0.030081,0.026666,0.345538,0.813188,0.440984,0.030081,0.000000,0.991125,-0.697508,-0.383353,-1.531078,-0.003578,-0.039506,0.030032,-1.062730,0.833833,0.310659,1.404165,-0.132046,0.136415,0.156311
1.700000,0.000000,0.000000,0.000000,-0.030303,0.026703,0.346322,0.815184,0.442159,0.030303,0.000000,0.990892,-0.699727,-0.381216,-1.535563,-0.001392,-0.034711,0.028150,-1.062722,0.837165,0.308142,1.406573,-0.135141,0.132732,0.159013
1.750000,0.000000,0.000000,0.000000,-0.030489,0.026715,0.346978,0.816920,0.443226,0.030489,0.000000,0.990647,-0.701970,-0.379068,-1.540065,0.000815,-0.029868,0.026245,-1.062646,0.840435,0.305656,1.409143,-0.138166,0.128892,0.161579
1.800000,0.000000,0.000000,0.000000,-0.030640,0.026702,0.347507,0.818391,0.444183,0.030640,0.000000,0.990389,-0.704234,-0.376911,-1.544574,0.003038,-0.024984,0.024318,-1.062503,0.843641,0.303202,1.411879,-0.141123,0.124893,0.164006
1.850000,0.000000,0.000000,0.000000,-0.030754,0.026664,0.347905,0.819596,0.445027,0.030754,0.000000,0.990119,-0.706515,-0.374749,-1.549084,0.005275,-0.020068,0.022374,-1.062294,0.846784,0.300781,1.414784,-0.144011,0.120734,0.166293
1.900000,0.000000,0.000000,0.000000,-0.030831,0.026602,0.348174,0.820533,0.445757,0.030831,0.000000,0.989834,-0.708812,-0.372584,-1.553587,0.007523,-0.015126,0.020415,-1.062018,0.849863,0.298390,1.417859,-0.146830,0.116412,0.168439
1.950000,0.000000,0.000000,0.000000,-0.030873,0.026515,0.348313,0.821199,0.446372,0.030873,0.000000,0.989536,-0.711121,-0.370418,-1.558074,0.009779,-0.010166,0.018446,-1.061674,0.852880,0.296031,1.421109,-0.149583,0.111927,0.170443
2.000000,0.000000,0.000000,0.000000,-0.030878,0.026404,0.348320,0.821594,0.446869,0.030878,0.000000,0.989223,-0.713438,-0.368255,-1.562540,0.012040,-0.005196,0.016469,-1.061264,0.855833,0.293703,1.424533,-0.152268,0.107278,0.172305
2.050000,0.000000,0.000000,0.000000,-0.030847,0.026270,0.348198,0.821717,0.447249,0.030847,0.000000,0.988896,-0.715762,-0.366096,-1.566976,0.014302,-0.000224,0.014487,-1.060787,0.858724,0.291405,1.428133,-0.154888,0.102463,0.174025
2.100000,0.000000,0.000000,0.000000,-0.029816,0.025602,0.347286,0.821520,0.448631,0.029816,0.000000,0.989442,-0.717520,-0.365110,-1.571658,0.016070,0.004762,0.011985,-1.059654,0.856515,0.292832,1.434349,-0.152853,0.097547,0.170419
2.150000,0.000000,0.000000,0.000000,-0.028749,0.024918,0.346254,0.821054,0.449882,0.028749,0.000000,0.989969,-0.719276,-0.364135,-1.576301,0.017834,0.009739,0.009485,-1.058424,0.854238,0.294310,1.440730,-0.150750,0.092461,0.166691
2.200000,0.000000,0.000000,0.000000,-0.027648,0.024216,0.345100,0.820319,0.451003,0.027648,-0.000000,0.990478,-0.721028,-0.363171,-1.580897,0.019591,0.014697,0.006992,-1.057106,0.851897,0.295833,1.447272,-0.148580,0.087209,0.162835
2.250000,0.000000,0.000000,0.000000,-0.026515,0.023499,0.343825,0.819317,0.451993,0.026515,-0.000000,0.990969,-0.722773,-0.362220,-1.585440,0.021339,0.019630,0.004508,-1.055696,0.849492,0.297401,1.453970,-0.146341,0.081791,0.158854
2.300000,0.000000,0.000000,0.000000,-0.025351,0.022767,0.342432,0.818049,0.452851,0.025351,-0.000000,0.991441,-0.724507,-0.361285,-1.589923,0.023073,0.024529,0.002038,-1.054193,0.847024,0.299014,1.460817,-0.144036,0.076209,0.154748
2.350000,0.000000,0.000000,0.000000,-0.024159,0.022021,0.340921,0.816519,0.453576,0.024159,-0.000000,0.991894,-0.726228,-0.360366,-1.594341,0.024792,0.029389,-0.000415,-1.052595,0.844494,0.300672,1.467806,-0.141663,0.070465,0.150521
2.400000,0.000000,0.000000,0.000000,-0.022941,0.021264,0.339296,0.814728,0.454168,0.022941,-0.000000,0.992328,-0.727933,-0.359466,-1.598686,0.026493,0.034200,-0.002847,-1.050900,0.841903,0.302377,1.474932,-0.139223,0.064561,0.146174
2.450000,0.000000,0.000000,0.000000,-0.021700,0.020495,0.337559,0.812680,0.454626,0.021700,-0.000000,0.992742,-0.729620,-0.358587,-1.602955,0.028172,0.038956,-0.005255,-1.049107,0.839252,0.304127,1.482187,-0.136716,0.058499,0.141709
2.500000,0.000000,0.000000,0.000000,-0.020438,0.019716,0.335713,0.810379,0.454950,0.020438,-0.000000,0.993136,-0.731284,-0.357730,-1.607140,0.029828,0.043651,-0.007635,-1.047213,0.836542,0.305924,1.489564,-0.134142,0.052282,0.137129
2.550000,0.000000,0.000000,0.000000,-0.019157,0.018929,0.333760,0.807830,0.455140,0.019157,-0.000000,0.993510,-0.732923,-0.356898,-1.611237,0.031457,0.048275,-0.009983,-1.045218,0.833774,0.307767,1.497055,-0.131503,0.045913,0.132437
2.600000,0.000000,0.000000,0.000000,-0.017861,0.018135,0.331704,0.805036,0.455197,0.017861,-0.000000,0.993864,-0.734535,-0.356091,-1.615241,0.033057,0.052824,-0.012296,-1.043120,0.830951,0.309657,1.504652,-0.128797,0.039394,0.127634
2.650000,0.000000,0.000000,0.000000,-0.016553,0.017335,0.329547,0.802002,0.455120,0.016553,-0.000000,0.994198,-0.736116,-0.355311,-1.619148,0.034625,0.057289,-0.014571,-1.040918,0.828072,0.311595,1.512347,-0.126027,0.032728,0.122725
2.700000,0.000000,0.000000,0.000000,-0.015235,0.016530,0.327294,0.798735,0.454911,0.015235,-0.000000,0.994513,-0.737664,-0.354562,-1.622952,0.036159,0.061664,-0.016805,-1.038611,0.825139,0.313579,1.520132,-0.123192,0.025919,0.117712
2.750000,0.000000,0.000000,0.000000,-0.013910,0.015721,0.324948,0.795240,0.454571,0.013910,-0.000000,0.994807,-0.739176,-0.353842,-1.626650,0.037655,0.065943,-0.018993,-1.036197,0.822154,0.315611,1.527998,-0.120293,0.018970,0.112599
2.800000,0.000000,0.000000,0.000000,-0.012582,0.014911,0.322512,0.791523,0.454100,0.012582,-0.000000,0.995082,-0.740649,-0.353156,-1.630237,0.039112,0.070119,-0.021133,-1.033675,0.819118,0.317691,1.535937,-0.117330,0.011885,0.107388
2.850000,0.000000,0.000000,0.000000,-0.011253,0.014099,0.319991,0.787590,0.453500,0.011253,-0.000000,0.995338,-0.742080,-0.352504,-1.633709,0.040527,0.074185,-0.023223,-1.031046,0.816032,0.319818,1.543940,-0.114306,0.004668,0.102083
2.900000,0.000000,0.000000,0.000000,-0.009927,0.013288,0.317389,0.783449,0.452772,0.009927,-0.000000,0.995574,-0.743468,-0.351887,-1.637063,0.041897,0.078137,-0.025257,-1.028307,0.812898,0.321993,1.551998,-0.111220,-0.002677,0.096689
2.950000,0.000000,0.000000,0.000000,-0.008608,0.012478,0.314710,0.779107,0.451918,0.008608,-0.000000,0.995792,-0.744808,-0.351307,-1.640296,0.043220,0.081967,-0.027235,-1.025460,0.809717,0.324216,1.560103,-0.108073,-0.010147,0.091207
3.000000,0.000000,0.000000,0.000000,-0.007297,0.011671,0.311958,0.774570,0.450941,0.007297,-0.000000,0.995992,-0.746099,-0.350766,-1.643404,0.044494,0.085669,-0.029153,-1.022503,0.806491,0.326486,1.568244,-0.104867,-0.017736,0.085643
3.050000,0.000000,0.000000,0.000000,-0.005999,0.010868,0.309138,0.769848,0.449841,0.005999,-0.000000,0.996173,-0.747338,-0.350265,-1.646385,0.045716,0.089240,-0.031008,-1.019436,0.803220,0.328804,1.576414,-0.101603,-0.025441,0.080000
3.100000,0.000000,0.000000,0.000000,-0.004716,0.010071,0.306255,0.764948,0.448622,0.004716,-0.000000,0.996337,-0.748523,-0.349806,-1.649235,0.046885,0.092672,-0.032797,-1.016260,0.799907,0.331169,1.584603,-0.098282,-0.033256,0.074282
3.150000,0.000000,0.000000,0.000000,-0.003453,0.009279,0.303313,0.759877,0.447285,0.003453,-0.000000,0.996484,-0.749652,-0.349388,-1.651952,0.047998,0.095961,-0.034519,-1.012974,0.796553,0.333581,1.592802,-0.094905,-0.041178,0.068492
3.200000,0.000000,0.000000,0.000000,-0.002211,0.008495,0.300317,0.754646,0.445833,0.002211,-0.000000,0.996615,-0.750721,-0.349015,-1.654533,0.049053,0.099102,-0.036170,-1.009579,0.793159,0.336039,1.601002,-0.091474,-0.049200,0.062636
3.250000,0.000000,0.000000,0.000000,-0.000994,0.007720,0.297273,0.749262,0.444269,0.000994,-0.000000,0.996729,-0.751730,-0.348687,-1.656977,0.050048,0.102090,-0.037748,-1.006076,0.789727,0.338544,1.609195,-0.087990,-0.057318,0.056716
3.300000,0.000000,0.000000,0.000000,0.000195,0.006955,0.294184,0.743734,0.442595,-0.000195,-0.000000,0.996829,-0.752677,-0.348404,-1.659282,0.050983,0.104921,-0.039252,-1.002465,0.786258,0.341094,1.617371,-0.084456,-0.065526,0.050737
3.350000,0.000000,0.000000,0.000000,0.001354,0.006200,0.291057,0.738072,0.440815,-0.001354,-0.000000,0.996914,-0.753558,-0.348168,-1.661445,0.051853,0.107590,-0.040679,-0.998747,0.782755,0.343689,1.625522,-0.080872,-0.073820,0.044703
3.400000,0.000000,0.000000,0.000000,0.002479,0.005457,0.287897,0.732284,0.438931,-0.002479,-0.000000,0.996984,-0.754374,-0.347981,-1.663464,0.052659,0.110093,-0.042026,-0.994924,0.779217,0.346328,1.633639,-0.077240,-0.082194,0.038619
3.450000,0.000000,0.000000,0.000000,0.003567,0.004727,0.284707,0.726380,0.436946,-0.003567,-0.000000,0.997041,-0.755121,-0.347841,-1.665339,0.053399,0.112427,-0.043293,-0.990997,0.775647,0.349010,1.641713,-0.073563,-0.090642,0.032488
3.500000,0.000000,0.000000,0.000000,0.004617,0.004011,0.281495,0.720371,0.434865,-0.004617,-0.000000,0.997085,-0.755799,-0.347751,-1.667068,0.054071,0.114589,-0.044477,-0.986968,0.772046,0.351734,1.649737,-0.069843,-0.099159,0.026315
3.550000,0.000000,0.000000,0.000000,0.005625,0.003310,0.278265,0.714264,0.432689,-0.005625,-0.000000,0.997117,-0.756405,-0.347711,-1.668649,0.054674,0.116574,-0.045577,-0.982838,0.768417,0.354499,1.657703,-0.066082,-0.107738,0.020103
3.600000,0.000000,0.000000,0.000000,0.006590,0.002624,0.275022,0.708070,0.430424,-0.006590,-0.000000,0.997137,-0.756940,-0.347721,-1.670081,0.055208,0.118380,-0.046592,-0.978609,0.764759,0.357304,1.665601,-0.062282,-0.116375,0.013857
3.650000,0.000000,0.000000,0.000000,0.007509,0.001955,0.271772,0.701799,0.428072,-0.007509,-0.000000,0.997146,-0.757401,-0.347782,-1.671364,0.055669,0.120004,-0.047519,-0.974284,0.761075,0.360147,1.673425,-0.058445,-0.125062,0.007582
3.700000,0.000000,0.000000,0.000000,0.008380,0.001304,0.268520,0.695461,0.425636,-0.008380,-0.000000,0.997145,-0.757787,-0.347894,-1.672497,0.056059,0.121444,-0.048359,-0.969865,0.757367,0.363026,1.681168,-0.054575,-0.133793,0.001281
3.750000,0.000000,0.000000,0.000000,0.009201,0.000671,0.265272,0.689065,0.423122,-0.009201,-0.000000,0.997133,-0.758099,-0.348058,-1.673478,0.056376,0.122698,-0.049109,-0.965355,0.753635,0.365941,1.688821,-0.050673,-0.142564,-0.005041
3.800000,0.000000,0.000000,0.000000,0.009971,0.000058,0.262032,0.682622,0.420532,-0.009971,-0.000000,0.997112,-0.758334,-0.348273,-1.674307,0.056620,0.123763,-0.049768,-0.960757,0.749882,0.368889,1.696378,-0.046742,-0.151366,-0.011380
3.850000,0.000000,0.000000,0.000000,0.010688,-0.000536,0.258806,0.676141,0.417871,-0.010688,-0.000000,0.997082,-0.758494,-0.348539,-1.674984,0.056789,0.124638,-0.050337,-0.956073,0.746108,0.371868,1.703832,-0.042786,-0.160195,-0.017732
3.900000,0.000000,0.000000,0.000000,0.011350,-0.001109,0.255599,0.669633,0.415143,-0.011350,-0.000000,0.997043,-0.758576,-0.348857,-1.675508,0.056884,0.125322,-0.050814,-0.951308,0.742317,0.374875,1.711178,-0.038807,-0.169042,-0.024093
3.950000,0.000000,0.000000,0.000000,0.011957,-0.001660,0.252416,0.663107,0.412351,-0.011957,-0.000000,0.996995,-0.758581,-0.349226,-1.675878,0.056904,0.125814,-0.051198,-0.946464,0.738508,0.377910,1.718408,-0.034809,-0.177903,-0.030459
4.000000,0.000000,0.000000,0.000000,0.012507,-0.002190,0.249263,0.656573,0.409500,-0.012507,-0.000000,0.996940,-0.758509,-0.349646,-1.676095,0.056850,0.126112,-0.051490,-0.941545,0.734685,0.380968,1.725517,-0.030794,-0.186771,-0.036825
4.050000,0.000000,0.000000,0.000000,0.013000,-0.002696,0.246144,0.650042,0.406594,-0.013000,-0.000000,0.996878,-0.758359,-0.350116,-1.676158,0.056720,0.126217,-0.051689,-0.936556,0.730848,0.384049,1.732499,-0.026765,-0.195638,-0.043187
4.100000,0.000000,0.000000,0.000000,0.013710,-0.003282,0.242919,0.643524,0.403887,-0.013710,-0.000000,0.997109,-0.757968,-0.350987,-1.676174,0.056378,0.126140,-0.051938,-0.934048,0.726552,0.388179,1.731439,-0.022444,-0.194592,-0.048474
4.150000,0.000000,0.000000,0.000000,0.014400,-0.003874,0.239693,0.637030,0.401211,-0.014400,-0.000000,0.997350,-0.757480,-0.351954,-1.676042,0.055945,0.125870,-0.052111,-0.931585,0.722262,0.392304,1.730328,-0.018130,-0.193514,-0.053749
4.200000,0.000000,0.000000,0.000000,0.015060,-0.004462,0.236485,0.630568,0.398545,-0.015060,-0.000000,0.997599,-0.756903,-0.353003,-1.675761,0.055425,0.125407,-0.052202,-0.929135,0.717976,0.396430,1.729133,-0.013822,-0.192404,-0.059010
4.250000,0.000000,0.000000,0.000000,0.015687,-0.005044,0.233300,0.624149,0.395893,-0.015687,-0.000000,0.997854,-0.756236,-0.354133,-1.675331,0.054820,0.124753,-0.052211,-0.926703,0.713699,0.400554,1.727850,-0.009526,-0.191255,-0.064253
4.300000,0.000000,0.000000,0.000000,0.016283,-0.005621,0.230142,0.617781,0.393260,-0.016283,-0.000000,0.998119,-0.755480,-0.355342,-1.674754,0.054131,0.123907,-0.052140,-0.924295,0.709433,0.404674,1.726475,-0.005245,-0.190061,-0.069472
4.350000,0.000000,0.000000,0.000000,0.016847,-0.006192,0.227016,0.611475,0.390651,-0.016847,-0.000000,0.998391,-0.754637,-0.356630,-1.674028,0.053357,0.122871,-0.051987,-0.921914,0.705181,0.408786,1.725005,-0.000983,-0.188816,-0.074665
4.400000,0.000000,0.000000,0.000000,0.017380,-0.006756,0.223925,0.605239,0.388070,-0.017380,-0.000000,0.998674,-0.753708,-0.357995,-1.673155,0.052501,0.121647,-0.051755,-0.919566,0.700946,0.412888,1.723434,0.003257,-0.187513,-0.079825
4.450000,0.000000,0.000000,0.000000,0.017881,-0.007312,0.220875,0.599082,0.385520,-0.017881,-0.000000,0.998966,-0.752693,-0.359436,-1.672136,0.051563,0.120236,-0.051442,-0.917254,0.696730,0.416978,1.721761,0.007470,-0.186147,-0.084951
4.500000,0.000000,0.000000,0.000000,0.018351,-0.007860,0.217869,0.593015,0.383006,-0.018351,-0.000000,0.999268,-0.751595,-0.360952,-1.670971,0.050544,0.118641,-0.051052,-0.914984,0.692537,0.421051,1.719982,0.011654,-0.184712,-0.090036
4.550000,0.000000,0.000000,0.000000,0.018792,-0.008399,0.214912,0.587044,0.380532,-0.018792,-0.000000,0.999581,-0.750415,-0.362540,-1.669661,0.049447,0.116863,-0.050583,-0.912759,0.688370,0.425105,1.718095,0.015805,-0.183202,-0.095079
4.600000,0.000000,0.000000,0.000000,0.019202,-0.008929,0.212008,0.581180,0.378101,-0.019202,-0.000000,0.999906,-0.749155,-0.364199,-1.668207,0.048272,0.114905,-0.050038,-0.910584,0.684232,0.429138,1.716096,0.019919,-0.181612,-0.100073
4.650000,0.000000,0.000000,0.000000,0.019583,-0.009447,0.209161,0.575431,0.375718,-0.019583,-0.000000,1.000242,-0.747817,-0.365927,-1.666610,0.047021,0.112770,-0.049416,-0.908462,0.680126,0.433146,1.713983,0.023992,-0.179936,-0.105017
4.700000,0.000000,0.000000,0.000000,0.019936,-0.009955,0.206374,0.569804,0.373385,-0.019936,-0.000000,1.000589,-0.746403,-0.367721,-1.664871,0.045696,0.110462,-0.048721,-0.906399,0.676055,0.437125,1.711754,0.028021,-0.178169,-0.109907
4.750000,0.000000,0.000000,0.000000,0.020262,-0.010451,0.203653,0.564308,0.371106,-0.020262,-0.000000,1.000949,-0.744915,-0.369579,-1.662993,0.044300,0.107982,-0.047951,-0.904398,0.672023,0.441074,1.709408,0.032003,-0.176306,-0.114738
4.800000,0.000000,0.000000,0.000000,0.020561,-0.010934,0.201001,0.558951,0.368884,-0.020561,-0.000000,1.001320,-0.743356,-0.371498,-1.660975,0.042833,0.105336,-0.047110,-0.902463,0.668032,0.444990,1.706942,0.035934,-0.174342,-0.119508
4.850000,0.000000,0.000000,0.000000,0.020834,-0.011404,0.198421,0.553740,0.366722,-0.020834,-0.000000,1.001704,-0.741728,-0.373477,-1.658821,0.041300,0.102527,-0.046198,-0.900597,0.664086,0.448868,1.704355,0.039810,-0.172273,-0.124213
4.900000,0.000000,0.000000,0.000000,0.021082,-0.011860,0.195919,0.548682,0.364623,-0.021082,-0.000000,1.002100,-0.740034,-0.375511,-1.656531,0.039701,0.099559,-0.045217,-0.898803,0.660188,0.452707,1.701646,0.043630,-0.170094,-0.128851
4.950000,0.000000,0.000000,0.000000,0.021307,-0.012301,0.193496,0.543785,0.362590,-0.021307,-0.000000,1.002508,-0.738277,-0.377598,-1.654108,0.038039,0.096436,-0.044169,-0.897086,0.656341,0.456503,1.698813,0.047389,-0.167801,-0.133419
5.000000,0.000000,0.000000,0.000000,0.021509,-0.012726,0.191157,0.539056,0.360625,-0.021509,-0.000000,1.002928,-0.736459,-0.379736,-1.651553,0.036318,0.093163,-0.043055,-0.895447,0.652548,0.460255,1.695855,0.051085,-0.165389,-0.137913
5.050000,0.000000,0.000000,0.000000,0.021689,-0.013135,0.188905,0.534501,0.358731,-0.021689,-0.000000,1.003360,-0.734584,-0.381920,-1.648870,0.034539,0.089745,-0.041876,-0.893891,0.648812,0.463957,1.692773,0.054715,-0.162856,-0.142332
5.100000,0.000000,0.000000,0.000000,0.021849,-0.013527,0.186744,0.530127,0.356910,-0.021849,-0.000000,1.003804,-0.732655,-0.384147,-1.646060,0.032706,0.086187,-0.040636,-0.892419,0.645137,0.467610,1.689565,0.058276,-0.160196,-0.146672
5.150000,0.000000,0.000000,0.000000,0.021990,-0.013901,0.184677,0.525939,0.355163,-0.021990,-0.000000,1.004259,-0.730675,-0.386414,-1.643127,0.030821,0.082494,-0.039334,-0.891034,0.641525,0.471208,1.686230,0.061765,-0.157407,-0.150932
5.200000,0.000000,0.000000,0.000000,0.022112,-0.014256,0.182707,0.521944,0.353493,-0.022112,-0.000000,1.004725,-0.728647,-0.388718,-1.640073,0.028887,0.078672,-0.037975,-0.889738,0.637979,0.474751,1.682769,0.065180,-0.154486,-0.155109
5.250000,0.000000,0.000000,0.000000,0.022217,-0.014593,0.180838,0.518147,0.351901,-0.022217,-0.000000,1.005203,-0.726576,-0.391055,-1.636901,0.026908,0.074725,-0.036559,-0.888534,0.634502,0.478235,1.679180,0.068519,-0.151429,-0.159201
5.300000,0.000000,0.000000,0.000000,0.022307,-0.014909,0.179072,0.514552,0.350389,-0.022307,-0.000000,1.005691,-0.724463,-0.393421,-1.633615,0.024887,0.070661,-0.035089,-0.887422,0.631097,0.481658,1.675465,0.071779,-0.148234,-0.163206
5.350000,0.000000,0.000000,0.000000,0.022381,-0.015205,0.177412,0.511166,0.348959,-0.022381,-0.000000,1.006189,-0.722313,-0.395813,-1.630218,0.022826,0.066485,-0.033566,-0.886405,0.627767,0.485018,1.671622,0.074958,-0.144899,-0.167123
5.400000,0.000000,0.000000,0.000000,0.022441,-0.015479,0.175862,0.507993,0.347610,-0.022441,-0.000000,1.006697,-0.720130,-0.398226,-1.626714,0.020730,0.062204,-0.031993,-0.885484,0.624514,0.488312,1.667653,0.078055,-0.141420,-0.170949
5.450000,0.000000,0.000000,0.000000,0.022488,-0.015731,0.174423,0.505036,0.346344,-0.022488,-0.000000,1.007213,-0.717916,-0.400656,-1.623107,0.018601,0.057823,-0.030373,-0.884660,0.621341,0.491539,1.663556,0.081067,-0.137795,-0.174684
5.500000,0.000000,0.000000,0.000000,0.022523,-0.015960,0.173098,0.502301,0.345163,-0.022523,-0.000000,1.007739,-0.715676,-0.403101,-1.619400,0.016443,0.053350,-0.028708,-0.883934,0.618250,0.494697,1.659333,0.083993,-0.134024,-0.178326
5.550000,0.000000,0.000000,0.000000,0.022547,-0.016166,0.171890,0.499790,0.344066,-0.022547,-0.000000,1.008272,-0.713413,-0.405555,-1.615600,0.014259,0.048791,-0.026999,-0.883307,0.615243,0.497783,1.654984,0.086832,-0.130103,-0.181875
5.600000,0.000000,0.000000,0.000000,0.022560,-0.016347,0.170801,0.497508,0.343054,-0.022560,-0.000000,1.008813,-0.711132,-0.408015,-1.611709,0.012053,0.044152,-0.025250,-0.882778,0.612323,0.500795,1.650508,0.089581,-0.126032,-0.185328
5.650000,0.000000,0.000000,0.000000,0.022564,-0.016504,0.169833,0.495457,0.342128,-0.022564,-0.000000,1.009360,-0.708835,-0.410477,-1.607734,0.009829,0.039442,-0.023463,-0.882348,0.609491,0.503733,1.645906,0.092241,-0.121809,-0.188685
5.700000,0.000000,0.000000,0.000000,0.022559,-0.016636,0.168988,0.493639,0.341287,-0.022559,-0.000000,1.009914,-0.706526,-0.412936,-1.603678,0.007589,0.034667,-0.021640,-0.882016,0.606749,0.506595,1.641178,0.094809,-0.117434,-0.191946
5.750000,0.000000,0.000000,0.000000,0.022545,-0.016741,0.168268,0.492059,0.340532,-0.022545,-0.000000,1.010472,-0.704210,-0.415390,-1.599549,0.005337,0.029834,-0.019785,-0.881783,0.604100,0.509379,1.636326,0.097286,-0.112905,-0.195111
5.800000,0.000000,0.000000,0.000000,0.022524,-0.016820,0.167675,0.490717,0.339862,-0.022524,-0.000000,1.011036,-0.701890,-0.417833,-1.595351,0.003077,0.024951,-0.017899,-0.881648,0.601544,0.512083,1.631348,0.099669,-0.108221,-0.198177
5.850000,0.000000,0.000000,0.000000,0.022495,-0.016872,0.167210,0.489615,0.339276,-0.022495,-0.000000,1.011603,-0.699569,-0.420261,-1.591089,0.000813,0.020025,-0.015985,-0.881610,0.599082,0.514708,1.626246,0.101960,-0.103383,-0.201146
5.900000,0.000000,0.000000,0.000000,0.022459,-0.016896,0.166875,0.488755,0.338776,-0.022459,-0.000000,1.012174,-0.697252,-0.422671,-1.586771,-0.001453,0.015063,-0.014047,-0.881668,0.596717,0.517251,1.621020,0.104157,-0.098390,-0.204018
5.950000,0.000000,0.000000,0.000000,0.022416,-0.016891,0.166670,0.488138,0.338359,-0.022416,-0.000000,1.012747,-0.694941,-0.425059,-1.582403,-0.003716,0.010074,-0.012086,-0.881821,0.594448,0.519713,1.615670,0.106260,-0.093241,-0.206792
6.000000,0.000000,0.000000,0.000000,0.022367,-0.016858,0.166598,0.487765,0.338025,-0.022367,-0.000000,1.013322,-0.692642,-0.427421,-1.577990,-0.005974,0.005065,-0.010107,-0.882067,0.592277,0.522092,1.610196,0.108269,-0.087938,-0.209468
6.050000,0.000000,0.000000,0.000000,0.022311,-0.016796,0.166658,0.487636,0.337774,-0.022311,-0.000000,1.013898,-0.690356,-0.429752,-1.573541,-0.008221,0.000043,-0.008111,-0.882405,0.590205,0.524388,1.604598,0.110184,-0.082480,-0.212048
6.100000,0.000000,0.000000,0.000000,0.022063,-0.016825,0.166653,0.487762,0.337934,-0.022063,0.000000,1.013867,-0.688253,-0.431711,-1.568876,-0.010313,-0.004986,-0.005947,-0.885116,0.592497,0.523178,1.602034,0.107988,-0.078232,-0.208955
6.150000,0.000000,0.000000,0.000000,0.021811,-0.016823,0.166783,0.488132,0.338171,-0.021811,0.000000,1.013838,-0.686168,-0.433634,-1.564190,-0.012388,-0.010011,-0.003774,-0.887903,0.594872,0.521905,1.599339,0.105704,-0.073822,-0.205752
6.200000,0.000000,0.000000,0.000000,0.021553,-0.016788,0.167051,0.488746,0.338483,-0.021553,0.000000,1.013806,-0.684108,-0.435513,-1.559490,-0.014444,-0.015024,-0.001594,-0.890768,0.597334,0.520561,1.596511,0.103331,-0.069252,-0.202443
6.250000,0.000000,0.000000,0.000000,0.021286,-0.016721,0.167457,0.489602,0.338866,-0.021286,0.000000,1.013771,-0.682076,-0.437345,-1.554782,-0.016476,-0.020018,0.000591,-0.893707,0.599883,0.519146,1.593545,0.100869,-0.064522,-0.199027
6.300000,0.000000,0.000000,0.000000,0.021011,-0.016621,0.168002,0.490699,0.339318,-0.021011,0.000000,1.013731,-0.680076,-0.439126,-1.550074,-0.018480,-0.024984,0.002777,-0.896718,0.602518,0.517657,1.590436,0.098316,-0.059631,-0.195507
6.350000,0.000000,0.000000,0.000000,0.020726,-0.016486,0.168687,0.492037,0.339835,-0.020726,0.000000,1.013686,-0.678112,-0.440850,-1.545373,-0.020453,-0.029916,0.004963,-0.899795,0.605238,0.516096,1.587180,0.095675,-0.054581,-0.191881
6.400000,0.000000,0.000000,0.000000,0.020430,-0.016315,0.169512,0.493612,0.340416,-0.020430,0.000000,1.013633,-0.676186,-0.442514,-1.540688,-0.022392,-0.034805,0.007146,-0.902935,0.608042,0.514462,1.583774,0.092943,-0.049371,-0.188152
6.450000,0.000000,0.000000,0.000000,0.020121,-0.016110,0.170477,0.495424,0.341056,-0.020121,0.000000,1.013573,-0.674303,-0.444115,-1.536026,-0.024293,-0.039644,0.009322,-0.906134,0.610931,0.512755,1.580211,0.090123,-0.044002,-0.184320
6.500000,0.000000,0.000000,0.000000,0.019798,-0.015867,0.171583,0.497468,0.341752,-0.019798,0.000000,1.013503,-0.672466,-0.445647,-1.531395,-0.026152,-0.044425,0.011489,-0.909388,0.613901,0.510975,1.576489,0.087215,-0.038475,-0.180387
6.550000,0.000000,0.000000,0.000000,0.019460,-0.015588,0.172829,0.499743,0.342503,-0.019460,0.000000,1.013424,-0.670678,-0.447107,-1.526804,-0.027966,-0.049140,0.013645,-0.912692,0.616953,0.509122,1.572604,0.084219,-0.032792,-0.176352
6.600000,0.000000,0.000000,0.000000,0.019104,-0.015272,0.174214,0.502246,0.343304,-0.019104,0.000000,1.013333,-0.668943,-0.448493,-1.522259,-0.029732,-0.053783,0.015786,-0.916042,0.620085,0.507197,1.568550,0.081136,-0.026953,-0.172219
6.650000,0.000000,0.000000,0.000000,0.018731,-0.014918,0.175738,0.504972,0.344152,-0.018731,0.000000,1.013231,-0.667263,-0.449800,-1.517771,-0.031446,-0.058345,0.017911,-0.919432,0.623296,0.505201,1.564324,0.077967,-0.020960,-0.167987
6.700000,0.000000,0.000000,0.000000,0.018338,-0.014526,0.177399,0.507919,0.345045,-0.018338,0.000000,1.013116,-0.665641,-0.451026,-1.513346,-0.033106,-0.062820,0.020015,-0.922859,0.626585,0.503135,1.559922,0.074713,-0.014816,-0.163660
6.750000,0.000000,0.000000,0.000000,0.017924,-0.014095,0.179197,0.511082,0.345980,-0.017924,0.000000,1.012989,-0.664081,-0.452167,-1.508993,-0.034708,-0.067200,0.022096,-0.926318,0.629948,0.501000,1.555341,0.071376,-0.008521,-0.159237
6.800000,0.000000,0.000000,0.000000,0.017487,-0.013626,0.181130,0.514457,0.346953,-0.017487,0.000000,1.012848,-0.662585,-0.453222,-1.504720,-0.036250,-0.071478,0.024151,-0.929803,0.633386,0.498797,1.550577,0.067957,-0.002078,-0.154722
6.850000,0.000000,0.000000,0.000000,0.017026,-0.013117,0.183196,0.518040,0.347961,-0.017026,0.000000,1.012694,-0.661155,-0.454187,-1.500536,-0.037729,-0.075648,0.026178,-0.933309,0.636896,0.496529,1.545626,0.064458,0.004511,-0.150115
6.900000,0.000000,0.000000,0.000000,0.016540,-0.012570,0.185394,0.521825,0.349002,-0.016540,0.000000,1.012525,-0.659794,-0.455059,-1.496449,-0.039142,-0.079702,0.028174,-0.936832,0.640476,0.494196,1.540486,0.060879,0.011242,-0.145419
6.950000,0.000000,0.000000,0.000000,0.016026,-0.011984,0.187720,0.525809,0.350072,-0.016026,0.000000,1.012342,-0.658505,-0.455838,-1.492466,-0.040487,-0.083634,0.030135,-0.940367,0.644125,0.491801,1.535152,0.057224,0.018114,-0.140635
7.000000,0.000000,0.000000,0.000000,0.015484,-0.011358,0.190174,0.529984,0.351169,-0.015484,0.000000,1.012145,-0.657290,-0.456520,-1.488595,-0.041760,-0.087438,0.032060,-0.943908,0.647840,0.489347,1.529623,0.053495,0.025124,-0.135765
7.050000,0.000000,0.000000,0.000000,0.014912,-0.010694,0.192751,0.534346,0.352289,-0.014912,0.000000,1.011933,-0.656150,-0.457105,-1.484845,-0.042960,-0.091108,0.033945,-0.947451,0.651619,0.486834,1.523896,0.049692,0.032268,-0.130812
7.100000,0.000000,0.000000,0.000000,0.014309,-0.009990,0.195449,0.538889,0.353430,-0.014309,0.000000,1.011707,-0.655088,-0.457590,-1.481222,-0.044085,-0.094637,0.035788,-0.950989,0.655461,0.484267,1.517969,0.045820,0.039543,-0.125778
7.150000,0.000000,0.000000,0.000000,0.013673,-0.009248,0.198266,0.543607,0.354589,-0.013673,0.000000,1.011466,-0.654106,-0.457974,-1.477735,-0.045131,-0.098020,0.037586,-0.954520,0.659362,0.481647,1.511838,0.041879,0.046946,-0.120664
7.200000,0.000000,0.000000,0.000000,0.013003,-0.008467,0.201197,0.548493,0.355763,-0.013003,0.000000,1.011211,-0.653206,-0.458255,-1.474391,-0.046098,-0.101251,0.039337,-0.958036,0.663321,0.478977,1.505504,0.037873,0.054473,-0.115474
7.250000,0.000000,0.000000,0.000000,0.012298,-0.007649,0.204239,0.553540,0.356950,-0.012298,0.000000,1.010941,-0.652388,-0.458434,-1.471195,-0.046982,-0.104325,0.041038,-0.961534,0.667335,0.476260,1.498963,0.033804,0.062121,-0.110208
7.300000,0.000000,0.000000,0.000000,0.011557,-0.006792,0.207389,0.558743,0.358146,-0.011557,0.000000,1.010658,-0.651655,-0.458507,-1.468156,-0.047783,-0.107237,0.042687,-0.965009,0.671401,0.473500,1.492215,0.029674,0.069885,-0.104871
7.350000,0.000000,0.000000,0.000000,0.010779,-0.005899,0.210642,0.564093,0.359350,-0.010779,0.000000,1.010361,-0.651008,-0.458476,-1.465280,-0.048499,-0.109981,0.044282,-0.968455,0.675518,0.470698,1.485260,0.025488,0.077762,-0.099463
7.400000,0.000000,0.000000,0.000000,0.009962,-0.004969,0.213995,0.569584,0.360557,-0.009962,0.000000,1.010051,-0.650449,-0.458339,-1.462572,-0.049128,-0.112555,0.045820,-0.971867,0.679683,0.467859,1.478096,0.021247,0.085748,-0.093987
7.450000,0.000000,0.000000,0.000000,0.009106,-0.004002,0.217444,0.575207,0.361766,-0.009106,0.000000,1.009727,-0.649978,-0.458096,-1.460038,-0.049668,-0.114953,0.047300,-0.975242,0.683894,0.464986,1.470723,0.016954,0.093837,-0.088446
7.500000,0.000000,0.000000,0.000000,0.008209,-0.003001,0.220983,0.580956,0.362974,-0.008209,0.000000,1.009392,-0.649596,-0.457746,-1.457684,-0.050119,-0.117171,0.048719,-0.978575,0.688147,0.462081,1.463141,0.012612,0.102027,-0.082843
7.550000,0.000000,0.000000,0.000000,0.007272,-0.001964,0.224610,0.586823,0.364177,-0.007272,0.000000,1.009044,-0.649305,-0.457289,-1.455514,-0.050478,-0.119206,0.050075,-0.981860,0.692440,0.459148,1.455351,0.008225,0.110311,-0.077179
7.600000,0.000000,0.000000,0.000000,0.006293,-0.000894,0.228318,0.592799,0.365375,-0.006293,0.000000,1.008684,-0.649106,-0.456725,-1.453534,-0.050746,-0.121054,0.051368,-0.985094,0.696770,0.456191,1.447354,0.003795,0.118687,-0.071458
7.650000,0.000000,0.000000,0.000000,0.005272,0.000210,0.232103,0.598875,0.366562,-0.005272,0.000000,1.008313,-0.648998,-0.456054,-1.451748,-0.050921,-0.122713,0.052595,-0.988273,0.701136,0.453213,1.439150,-0.000674,0.127148,-0.065682
7.700000,0.000000,0.000000,0.000000,0.004208,0.001346,0.235960,0.605045,0.367738,-0.004208,0.000000,1.007931,-0.648983,-0.455277,-1.450159,-0.051001,-0.124179,0.053755,-0.991392,0.705534,0.450217,1.430742,-0.005180,0.135691,-0.059853
7.750000,0.000000,0.000000,0.000000,0.003102,0.002513,0.239885,0.611298,0.368899,-0.003102,0.000000,1.007538,-0.649061,-0.454393,-1.448770,-0.050987,-0.125451,0.054846,-0.994447,0.709961,0.447207,1.422131,-0.009718,0.144309,-0.053974
7.800000,0.000000,0.000000,0.000000,0.001952,0.003711,0.243872,0.617626,0.370043,-0.001952,0.000000,1.007136,-0.649232,-0.453403,-1.447584,-0.050878,-0.126525,0.055868,-0.997434,0.714415,0.444186,1.413320,-0.014287,0.152999,-0.048049
7.850000,0.000000,0.000000,0.000000,0.000759,0.004938,0.247916,0.624020,0.371166,-0.000759,0.000000,1.006723,-0.649497,-0.452308,-1.446605,-0.050674,-0.127402,0.056819,-1.000350,0.718893,0.441157,1.404311,-0.018882,0.161755,-0.042079
7.900000,0.000000,0.000000,0.000000,-0.000478,0.006194,0.252011,0.630471,0.372267,0.000478,0.000000,1.006302,-0.649856,-0.451108,-1.445832,-0.050373,-0.128078,0.057699,-1.003192,0.723392,0.438123,1.395107,-0.023502,0.170573,-0.036067
7.950000,0.000000,0.000000,0.000000,-0.001757,0.007476,0.256153,0.636971,0.373341,0.001757,0.000000,1.005872,-0.650308,-0.449803,-1.445269,-0.049977,-0.128553,0.058508,-1.005955,0.727909,0.435087,1.385713,-0.028141,0.179446,-0.030017
8.000000,0.000000,0.000000,0.000000,-0.003080,0.008785,0.260336,0.643508,0.374387,0.003080,0.000000,1.005433,-0.650855,-0.448396,-1.444916,-0.049484,-0.128827,0.059243,-1.008637,0.732443,0.432054,1.376131,-0.032799,0.188369,-0.023931
8.050000,0.000000,0.000000,0.000000,-0.004445,0.010119,0.264555,0.650075,0.375401,0.004445,0.000000,1.004986,-0.651495,-0.446885,-1.444772,-0.048896,-0.128899,0.059906,-1.011235,0.736989,0.429025,1.366366,-0.037470,0.197338,-0.017812
8.100000,0.000000,0.000000,0.000000,-0.004958,0.010683,0.267657,0.656638,0.378298,0.004958,0.000000,1.004964,-0.651764,-0.446313,-1.444908,-0.048640,-0.128788,0.060073,-1.013105,0.741391,0.425966,1.367188,-0.041969,0.196384,-0.012514
8.150000,0.000000,0.000000,0.000000,-0.005476,0.011234,0.270749,0.663200,0.381218,0.005476,0.000000,1.004941,-0.652110,-0.445675,-1.445254,-0.048304,-0.128475,0.060149,-1.014971,0.745797,0.422886,1.367978,-0.046466,0.195433,-0.007244
8.200000,0.000000,0.000000,0.000000,-0.006010,0.011783,0.273837,0.669755,0.384135,0.006010,0.000000,1.004914,-0.652538,-0.444963,-1.445811,-0.047884,-0.127961,0.060141,-1.016803,0.750207,0.419798,1.368697,-0.050959,0.194489,-0.001989
8.250000,0.000000,0.000000,0.000000,-0.006558,0.012328,0.276917,0.676293,0.387048,0.006558,0.000000,1.004885,-0.653047,-0.444176,-1.446575,-0.047381,-0.127247,0.060046,-1.018599,0.754616,0.416706,1.369353,-0.055446,0.193546,0.003247
8.300000,0.000000,0.000000,0.000000,-0.007118,0.012869,0.279982,0.682802,0.389951,0.007118,0.000000,1.004854,-0.653636,-0.443317,-1.447547,-0.046796,-0.126335,0.059867,-1.020355,0.759022,0.413612,1.369953,-0.059923,0.192596,0.008459
8.350000,0.000000,0.000000,0.000000,-0.007689,0.013404,0.283027,0.689274,0.392843,0.007689,0.000000,1.004819,-0.654305,-0.442387,-1.448722,-0.046129,-0.125225,0.059603,-1.022070,0.763420,0.410518,1.370506,-0.064386,0.191633,0.013642
8.400000,0.000000,0.000000,0.000000,-0.008270,0.013931,0.286048,0.695697,0.395719,0.008270,0.000000,1.004782,-0.655051,-0.441388,-1.450098,-0.045382,-0.123920,0.059255,-1.023741,0.767810,0.407426,1.371019,-0.068831,0.190650,0.018791
8.450000,0.000000,0.000000,0.000000,-0.008859,0.014449,0.289037,0.702063,0.398576,0.008859,0.000000,1.004741,-0.655875,-0.440321,-1.451673,-0.044556,-0.122422,0.058823,-1.025367,0.772186,0.404338,1.371500,-0.073255,0.189640,0.023902
8.500000,0.000000,0.000000,0.000000,-0.009453,0.014958,0.291990,0.708359,0.401411,0.009453,0.000000,1.004697,-0.656775,-0.439188,-1.453442,-0.043652,-0.120733,0.058308,-1.026945,0.776547,0.401257,1.371959,-0.077655,0.188596,0.028971
8.550000,0.000000,0.000000,0.000000,-0.010052,0.015455,0.294903,0.714577,0.404219,0.010052,0.000000,1.004650,-0.657749,-0.437990,-1.455401,-0.042671,-0.118857,0.057712,-1.028473,0.780890,0.398184,1.372404,-0.082027,0.187513,0.033991
8.600000,0.000000,0.000000,0.000000,-0.010652,0.015941,0.297768,0.720707,0.406998,0.010652,0.000000,1.004599,-0.658797,-0.436729,-1.457546,-0.041616,-0.116797,0.057036,-1.029950,0.785211,0.395122,1.372843,-0.086368,0.186383,0.038959
8.650000,0.000000,0.000000,0.000000,-0.011253,0.016413,0.300582,0.726738,0.409743,0.011253,0.000000,1.004544,-0.659917,-0.435408,-1.459871,-0.040487,-0.114556,0.056280,-1.031373,0.789509,0.392072,1.373286,-0.090675,0.185199,0.043868
8.700000,0.000000,0.000000,0.000000,-0.011853,0.016870,0.303340,0.732660,0.412450,0.011853,0.000000,1.004485,-0.661108,-0.434027,-1.462372,-0.039286,-0.112138,0.055446,-1.032741,0.793780,0.389035,1.373740,-0.094945,0.183956,0.048716
8.750000,0.000000,0.000000,0.000000,-0.012448,0.017313,0.306036,0.738464,0.415115,0.012448,0.000000,1.004422,-0.662367,-0.432588,-1.465043,-0.038016,-0.109547,0.054536,-1.034053,0.798022,0.386014,1.374214,-0.099175,0.182646,0.053496
8.800000,0.000000,0.000000,0.000000,-0.013038,0.017738,0.308666,0.744140,0.417735,0.013038,0.000000,1.004353,-0.663695,-0.431095,-1.467877,-0.036677,-0.106788,0.053552,-1.035307,0.802233,0.383009,1.374718,-0.103363,0.181264,0.058204
8.850000,0.000000,0.000000,0.000000,-0.013620,0.018147,0.311225,0.749679,0.420307,0.013620,0.000000,1.004280,-0.665088,-0.429548,-1.470869,-0.035272,-0.103865,0.052495,-1.036501,0.806410,0.380023,1.375260,-0.107506,0.179803,0.062836
8.900000,0.000000,0.000000,0.000000,-0.014193,0.018538,0.313709,0.755071,0.422825,0.014193,0.000000,1.004201,-0.666545,-0.427949,-1.474011,-0.033803,-0.100782,0.051367,-1.037635,0.810551,0.377056,1.375849,-0.111600,0.178257,0.067386
8.950000,0.000000,0.000000,0.000000,-0.014753,0.018909,0.316112,0.760307,0.425286,0.014753,0.000000,1.004116,-0.668065,-0.426301,-1.477297,-0.032272,-0.097546,0.050171,-1.038707,0.814654,0.374110,1.376493,-0.115645,0.176621,0.071849
9.000000,0.000000,0.000000,0.000000,-0.015299,0.019261,0.318431,0.765379,0.427687,0.015299,0.000000,1.004025,-0.669644,-0.424606,-1.480720,-0.030682,-0.094161,0.048909,-1.039716,0.818716,0.371185,1.377202,-0.119638,0.174888,0.076223
9.050000,0.000000,0.000000,0.000000,-0.015830,0.019592,0.320661,0.770277,0.430023,0.015830,0.000000,1.003927,-0.671283,-0.422865,-1.484273,-0.029033,-0.090633,0.047583,-1.040662,0.822736,0.368283,1.377982,-0.123577,0.173054,0.080501
9.100000,0.000000,0.000000,0.000000,-0.016342,0.019902,0.322799,0.774993,0.432292,0.016342,0.000000,1.003822,-0.672977,-0.421081,-1.487947,-0.027329,-0.086967,0.046195,-1.041543,0.826712,0.365405,1.378843,-0.127460,0.171112,0.084680
9.150000,0.000000,0.000000,0.000000,-0.016834,0.020191,0.324840,0.779519,0.434488,0.016834,0.000000,1.003710,-0.674726,-0.419257,-1.491736,-0.025573,-0.083171,0.044748,-1.042358,0.830642,0.362551,1.379793,-0.131285,0.169057,0.088755
9.200000,0.000000,0.000000,0.000000,-0.017305,0.020457,0.326781,0.783848,0.436609,0.017305,0.000000,1.003589,-0.676526,-0.417394,-1.495631,-0.023766,-0.079249,0.043244,-1.043108,0.834524,0.359722,1.380839,-0.135051,0.166885,0.092723
9.250000,0.000000,0.000000,0.000000,-0.017753,0.020700,0.328619,0.787971,0.438652,0.017753,0.000000,1.003460,-0.678377,-0.415494,-1.499624,-0.021911,-0.075208,0.041686,-1.043791,0.838357,0.356918,1.381989,-0.138757,0.164590,0.096579
9.300000,0.000000,0.000000,0.000000,-0.018175,0.020921,0.330349,0.791882,0.440613,0.018175,0.000000,1.003322,-0.680274,-0.413561,-1.503707,-0.020011,-0.071055,0.040078,-1.044407,0.842139,0.354141,1.383251,-0.142400,0.162167,0.100320
9.350000,0.000000,0.000000,0.000000,-0.018570,0.021117,0.331969,0.795573,0.442488,0.018570,0.000000,1.003174,-0.682217,-0.411596,-1.507872,-0.018068,-0.066797,0.038421,-1.044955,0.845870,0.351391,1.384631,-0.145981,0.159614,0.103942
9.400000,0.000000,0.000000,0.000000,-0.018936,0.021289,0.333475,0.799039,0.444274,0.018936,0.000000,1.003017,-0.684203,-0.409602,-1.512111,-0.016085,-0.062439,0.036719,-1.045435,0.849547,0.348668,1.386136,-0.149497,0.156924,0.107442
9.450000,0.000000,0.000000,0.000000,-0.019273,0.021437,0.334866,0.802272,0.445969,0.019273,0.000000,1.002848,-0.686228,-0.407581,-1.516416,-0.014064,-0.057990,0.034974,-1.045847,0.853170,0.345972,1.387773,-0.152949,0.154095,0.110817
9.500000,0.000000,0.000000,0.000000,-0.019579,0.021560,0.336137,0.805267,0.447569,0.019579,0.000000,1.002669,-0.688291,-0.405536,-1.520778,-0.012009,-0.053455,0.033190,-1.046191,0.856738,0.343303,1.389547,-0.156336,0.151122,0.114063
9.550000,0.000000,0.000000,0.000000,-0.019852,0.021659,0.337288,0.808019,0.449072,0.019852,0.000000,1.002479,-0.690388,-0.403469,-1.525188,-0.009923,-0.048843,0.031369,-1.046466,0.860249,0.340663,1.391464,-0.159657,0.148003,0.117178
9.600000,0.000000,0.000000,0.000000,-0.020092,0.021733,0.338315,0.810523,0.450475,0.020092,0.000000,1.002276,-0.692518,-0.401383,-1.529639,-0.007807,-0.044161,0.029515,-1.046672,0.863704,0.338050,1.393529,-0.162912,0.144734,0.120159
9.650000,0.000000,0.000000,0.000000,-0.020298,0.021781,0.339217,0.812774,0.451776,0.020298,0.000000,1.002061,-0.694677,-0.399280,-1.534123,-0.005666,-0.039415,0.027631,-1.046809,0.867102,0.335466,1.395748,-0.166101,0.141311,0.123004
9.700000,0.000000,0.000000,0.000000,-0.020469,0.021804,0.339992,0.814769,0.452972,0.020469,0.000000,1.001834,-0.696863,-0.397164,-1.538631,-0.003501,-0.034614,0.025720,-1.046876,0.870441,0.332909,1.398124,-0.169223,0.137734,0.125711
9.750000,0.000000,0.000000,0.000000,-0.020604,0.021803,0.340639,0.816503,0.454061,0.020604,0.000000,1.001592,-0.699072,-0.395036,-1.543155,-0.001317,-0.029764,0.023785,-1.046875,0.873723,0.330380,1.400662,-0.172279,0.133998,0.128278
9.800000,0.000000,0.000000,0.000000,-0.020703,0.021776,0.341156,0.817974,0.455042,0.020703,0.000000,1.001337,-0.701302,-0.392899,-1.547687,0.000885,-0.024874,0.021830,-1.046804,0.876945,0.327878,1.403364,-0.175269,0.130103,0.130703
9.850000,0.000000,0.000000,0.000000,-0.020765,0.021724,0.341543,0.819179,0.455912,0.020765,0.000000,1.001068,-0.703550,-0.390757,-1.552219,0.003101,-0.019950,0.019857,-1.046665,0.880110,0.325405,1.406235,-0.178194,0.126046,0.132985
9.900000,0.000000,0.000000,0.000000,-0.020791,0.021648,0.341798,0.820116,0.456670,0.020791,0.000000,1.000784,-0.705812,-0.388611,-1.556744,0.005327,-0.015001,0.017870,-1.046456,0.883215,0.322958,1.409276,-0.181053,0.121826,0.135123
9.950000,0.000000,0.000000,0.000000,-0.020780,0.021547,0.341922,0.820783,0.457314,0.020780,0.000000,1.000485,-0.708087,-0.386464,-1.561255,0.007561,-0.010034,0.015873,-1.046178,0.886263,0.320538,1.412490,-0.183848,0.117441,0.137116
10.000000,0.000000,0.000000,0.000000,-0.020733,0.021421,0.341913,0.821178,0.457844,0.020733,0.000000,1.000170,-0.710370,-0.384320,-1.565742,0.009801,-0.005057,0.013868,-1.045831,0.889252,0.318145,1.415877,-0.186580,0.112892,0.138964
10.050000,0.000000,0.000000,0.000000,-0.020650,0.021272,0.341772,0.821303,0.458258,0.020650,0.000000,0.999839,-0.712658,-0.382180,-1.570200,0.012042,-0.000077,0.011859,-1.045415,0.892183,0.315778,1.419440,-0.189248,0.108176,0.140666
10.100000,0.000000,0.000000,0.000000,-0.019616,0.020609,0.340872,0.821119,0.459638,0.019616,0.000000,1.000348,-0.714419,-0.381175,-1.574885,0.013815,0.004913,0.009362,-1.044221,0.890145,0.317076,1.425641,-0.187300,0.103225,0.136937
10.150000,0.000000,0.000000,0.000000,-0.018546,0.019930,0.339849,0.820667,0.460888,0.018546,0.000000,1.000837,-0.716178,-0.380180,-1.579531,0.015585,0.009892,0.006868,-1.042929,0.888045,0.318421,1.432007,-0.185289,0.098102,0.133081
10.200000,0.000000,0.000000,0.000000,-0.017443,0.019234,0.338703,0.819947,0.462010,0.017443,-0.000000,1.001307,-0.717932,-0.379195,-1.584130,0.017347,0.014854,0.004381,-1.041545,0.885884,0.319805,1.438533,-0.183214,0.092811,0.129096
10.250000,0.000000,0.000000,0.000000,-0.016308,0.018522,0.337436,0.818959,0.463002,0.016308,-0.000000,1.001757,-0.719680,-0.378223,-1.588675,0.019100,0.019790,0.001904,-1.040068,0.883664,0.321229,1.445215,-0.181076,0.087352,0.124983
10.300000,0.000000,0.000000,0.000000,-0.015144,0.017794,0.336048,0.817706,0.463864,0.015144,-0.000000,1.002188,-0.721417,-0.377266,-1.593160,0.020841,0.024693,-0.000559,-1.038495,0.881385,0.322693,1.452046,-0.178875,0.081728,0.120743
10.350000,0.000000,0.000000,0.000000,-0.013952,0.017054,0.334542,0.816191,0.464594,0.013952,-0.000000,1.002599,-0.723141,-0.376325,-1.597579,0.022566,0.029556,-0.003004,-1.036824,0.879047,0.324198,1.459019,-0.176610,0.075939,0.116378
10.400000,0.000000,0.000000,0.000000,-0.012734,0.016301,0.332921,0.814415,0.465193,0.012734,-0.000000,1.002990,-0.724849,-0.375402,-1.601926,0.024273,0.034371,-0.005428,-1.035055,0.876653,0.325743,1.466128,-0.174283,0.069989,0.111892
10.450000,0.000000,0.000000,0.000000,-0.011494,0.015537,0.331186,0.812382,0.465659,0.011494,-0.000000,1.003360,-0.726539,-0.374499,-1.606194,0.025959,0.039130,-0.007826,-1.033184,0.874202,0.327329,1.473367,-0.171893,0.063878,0.107285
10.500000,0.000000,0.000000,0.000000,-0.010235,0.014763,0.329341,0.810097,0.465993,0.010235,-0.000000,1.003710,-0.728207,-0.373618,-1.610380,0.027622,0.043827,-0.010197,-1.031212,0.871695,0.328956,1.480727,-0.169442,0.057610,0.102561
10.550000,0.000000,0.000000,0.000000,-0.008957,0.013980,0.327389,0.807563,0.466194,0.008957,-0.000000,1.004039,-0.729850,-0.372760,-1.614477,0.029259,0.048455,-0.012535,-1.029135,0.869133,0.330625,1.488201,-0.166929,0.051187,0.097723
10.600000,0.000000,0.000000,0.000000,-0.007665,0.013191,0.325331,0.804785,0.466263,0.007665,-0.000000,1.004348,-0.731466,-0.371927,-1.618480,0.030867,0.053007,-0.014838,-1.026954,0.866518,0.332336,1.495781,-0.164355,0.044612,0.092773
10.650000,0.000000,0.000000,0.000000,-0.006362,0.012395,0.323173,0.801767,0.466199,0.006362,-0.000000,1.004636,-0.733051,-0.371122,-1.622385,0.032443,0.057475,-0.017102,-1.024665,0.863851,0.334089,1.503460,-0.161721,0.037888,0.087714
10.700000,0.000000,0.000000,0.000000,-0.005050,0.011595,0.320916,0.798516,0.466005,0.005050,-0.000000,1.004904,-0.734604,-0.370344,-1.626188,0.033984,0.061853,-0.019324,-1.022269,0.861131,0.335884,1.511228,-0.159027,0.031019,0.082550
10.750000,0.000000,0.000000,0.000000,-0.003732,0.010791,0.318566,0.795036,0.465680,0.003732,-0.000000,1.005152,-0.736121,-0.369598,-1.629883,0.035490,0.066134,-0.021500,-1.019765,0.858362,0.337722,1.519079,-0.156274,0.024007,0.077283
10.800000,0.000000,0.000000,0.000000,-0.002412,0.009985,0.316125,0.791335,0.465225,0.002412,-0.000000,1.005379,-0.737599,-0.368883,-1.633467,0.036955,0.070312,-0.023628,-1.017151,0.855542,0.339603,1.527002,-0.153463,0.016857,0.071919
10.850000,0.000000,0.000000,0.000000,-0.001093,0.009178,0.313598,0.787419,0.464643,0.001093,-0.000000,1.005587,-0.739036,-0.368201,-1.636936,0.038379,0.074381,-0.025704,-1.014426,0.852675,0.341526,1.534989,-0.150595,0.009571,0.066459
10.900000,0.000000,0.000000,0.000000,0.000223,0.008372,0.310988,0.783294,0.463933,-0.000223,-0.000000,1.005776,-0.740429,-0.367555,-1.640287,0.039759,0.078335,-0.027725,-1.011591,0.849760,0.343493,1.543032,-0.147671,0.002155,0.060907
10.950000,0.000000,0.000000,0.000000,0.001531,0.007567,0.308301,0.778967,0.463099,-0.001531,-0.000000,1.005946,-0.741776,-0.366945,-1.643516,0.041092,0.082167,-0.029688,-1.008644,0.846799,0.345503,1.551122,-0.144691,-0.005388,0.055268
11.000000,0.000000,0.000000,0.000000,0.002830,0.006765,0.305540,0.774447,0.462141,-0.002830,-0.000000,1.006097,-0.743074,-0.366373,-1.646619,0.042376,0.085872,-0.031592,-1.005585,0.843794,0.347556,1.559250,-0.141658,-0.013053,0.049546
11.050000,0.000000,0.000000,0.000000,0.004114,0.005968,0.302711,0.769740,0.461062,-0.004114,-0.000000,1.006230,-0.744320,-0.365840,-1.649594,0.043609,0.089444,-0.033431,-1.002415,0.840744,0.349652,1.567407,-0.138571,-0.020837,0.043743
11.100000,0.000000,0.000000,0.000000,0.005382,0.005175,0.299817,0.764855,0.459863,-0.005382,-0.000000,1.006346,-0.745513,-0.365348,-1.652439,0.044788,0.092877,-0.035205,-0.999133,0.837652,0.351791,1.575583,-0.135432,-0.028733,0.037865
11.150000,0.000000,0.000000,0.000000,0.006630,0.004389,0.296863,0.759801,0.458548,-0.006630,-0.000000,1.006445,-0.746650,-0.364899,-1.655149,0.045912,0.096168,-0.036911,-0.995740,0.834519,0.353973,1.583771,-0.132244,-0.036738,0.031915
11.200000,0.000000,0.000000,0.000000,0.007855,0.003611,0.293855,0.754585,0.457118,-0.007855,-0.000000,1.006528,-0.747728,-0.364492,-1.657724,0.046979,0.099310,-0.038546,-0.992235,0.831345,0.356198,1.591960,-0.129006,-0.044847,0.025897
11.250000,0.000000,0.000000,0.000000,0.009055,0.002842,0.290798,0.749216,0.455576,-0.009055,-0.000000,1.006595,-0.748747,-0.364130,-1.660161,0.047986,0.102299,-0.040107,-0.988620,0.828133,0.358465,1.600143,-0.125721,-0.053054,0.019816
11.300000,0.000000,0.000000,0.000000,0.010225,0.002082,0.287696,0.743703,0.453925,-0.010225,-0.000000,1.006647,-0.749703,-0.363813,-1.662458,0.048933,0.105131,-0.041594,-0.984896,0.824882,0.360773,1.608310,-0.122390,-0.061354,0.013676
11.350000,0.000000,0.000000,0.000000,0.011363,0.001334,0.284554,0.738055,0.452167,-0.011363,-0.000000,1.006685,-0.750595,-0.363543,-1.664612,0.049816,0.107801,-0.043003,-0.981062,0.821595,0.363123,1.616453,-0.119015,-0.069742,0.007480
11.400000,0.000000,0.000000,0.000000,0.012467,0.000598,0.281378,0.732282,0.450306,-0.012467,-0.000000,1.006709,-0.751421,-0.363320,-1.666623,0.050635,0.110305,-0.044333,-0.977122,0.818273,0.365513,1.624563,-0.115598,-0.078213,0.001234
11.450000,0.000000,0.000000,0.000000,0.013533,-0.000125,0.278173,0.726393,0.448345,-0.013533,-0.000000,1.006720,-0.752179,-0.363145,-1.668489,0.051388,0.112640,-0.045581,-0.973075,0.814916,0.367943,1.632632,-0.112141,-0.086760,-0.005059
11.500000,0.000000,0.000000,0.000000,0.014559,-0.000834,0.274944,0.720397,0.446287,-0.014559,-0.000000,1.006718,-0.752868,-0.363019,-1.670208,0.052074,0.114801,-0.046747,-0.968924,0.811527,0.370412,1.640651,-0.108645,-0.095378,-0.011394
11.550000,0.000000,0.000000,0.000000,0.015543,-0.001528,0.271697,0.714304,0.444135,-0.015543,-0.000000,1.006705,-0.753487,-0.362943,-1.671779,0.052691,0.116786,-0.047828,-0.964671,0.808106,0.372919,1.648613,-0.105113,-0.104062,-0.017767
11.600000,0.000000,0.000000,0.000000,0.016482,-0.002206,0.268437,0.708123,0.441893,-0.016482,-0.000000,1.006681,-0.754035,-0.362917,-1.673201,0.053238,0.118592,-0.048824,-0.960317,0.804654,0.375462,1.656509,-0.101547,-0.112804,-0.024173
11.650000,0.000000,0.000000,0.000000,0.017375,-0.002867,0.265169,0.701865,0.439564,-0.017375,-0.000000,1.006646,-0.754509,-0.362941,-1.674473,0.053714,0.120216,-0.049732,-0.955865,0.801173,0.378042,1.664332,-0.097949,-0.121600,-0.030609
11.700000,0.000000,0.000000,0.000000,0.018219,-0.003510,0.261898,0.695540,0.437152,-0.018219,-0.000000,1.006602,-0.754910,-0.363016,-1.675594,0.054118,0.121656,-0.050552,-0.951317,0.797664,0.380655,1.672074,-0.094322,-0.130442,-0.037070
11.750000,0.000000,0.000000,0.000000,0.019011,-0.004135,0.258631,0.689156,0.434660,-0.019011,-0.000000,1.006548,-0.755236,-0.363143,-1.676563,0.054450,0.122909,-0.051282,-0.946676,0.794129,0.383301,1.679729,-0.090668,-0.139325,-0.043551
11.800000,0.000000,0.000000,0.000000,0.019752,-0.004740,0.255372,0.682725,0.432093,-0.019752,-0.000000,1.006486,-0.755486,-0.363321,-1.677381,0.054709,0.123973,-0.051922,-0.941946,0.790569,0.385977,1.687289,-0.086990,-0.148242,-0.050049
11.850000,0.000000,0.000000,0.000000,0.020439,-0.005325,0.252126,0.676256,0.429454,-0.020439,-0.000000,1.006415,-0.755661,-0.363550,-1.678045,0.054893,0.124847,-0.052470,-0.937128,0.786985,0.388683,1.694747,-0.083291,-0.157186,-0.056560
11.900000,0.000000,0.000000,0.000000,0.021070,-0.005888,0.248899,0.669758,0.426748,-0.021070,-0.000000,1.006337,-0.755759,-0.363830,-1.678556,0.055004,0.125530,-0.052927,-0.932227,0.783379,0.391416,1.702098,-0.079572,-0.166152,-0.063078
11.950000,0.000000,0.000000,0.000000,0.021645,-0.006431,0.245696,0.663243,0.423978,-0.021645,-0.000000,1.006251,-0.755781,-0.364162,-1.678913,0.055040,0.126020,-0.053292,-0.927246,0.779751,0.394175,1.709334,-0.075837,-0.175133,-0.069600
12.000000,0.000000,0.000000,0.000000,0.022163,-0.006951,0.242522,0.656720,0.421148,-0.022163,-0.000000,1.006159,-0.755726,-0.364545,-1.679116,0.055001,0.126317,-0.053563,-0.922188,0.776105,0.396955,1.716451,-0.072090,-0.184121,-0.076121
