xyodfish/PIVOT/config/trajectories/collision_task_csv/wbc_ik_collision_task_passive_left_arm_wrist_margin_projection_with_collision_task.csv
time,chassis_x,chassis_y,chassis_yaw,head_joint1,head_joint2,leg_joint1,leg_joint2,leg_joint3,leg_joint4,leg_joint5,left_arm_joint1,left_arm_joint2,left_arm_joint3,left_arm_joint4,left_arm_joint5,left_arm_joint6,left_arm_joint7,right_arm_joint1,right_arm_joint2,right_arm_joint3,right_arm_joint4,right_arm_joint5,right_arm_joint6,right_arm_joint7
0.000000,0.000000,0.000000,0.000000,0.000000,0.000000,0.250000,0.650000,0.400000,0.000000,0.000000,1.000000,-0.700000,-0.400000,-1.570000,0.000000,0.000000,0.000000,-1.000000,0.700000,0.400000,1.570000,0.000000,0.000000,0.000000
0.050000,0.000000,0.000000,0.000000,0.000000,0.000000,0.232845,0.662227,0.398926,0.051550,-0.020742,1.000000,-0.700000,-0.400000,-1.570000,0.000000,0.000000,0.000000,-1.014206,0.772466,0.352801,1.612648,-0.043236,-0.101206,0.066663
0.100000,0.000000,0.000000,0.000000,0.000000,0.000000,0.219136,0.673606,0.398287,0.108633,-0.036569,1.000000,-0.700000,-0.400000,-1.570000,0.000000,0.000000,0.000000,-1.021264,0.845192,0.308396,1.643869,-0.082919,-0.200291,0.130074
0.150000,0.000000,0.000000,0.000000,0.000000,0.000000,0.208632,0.683775,0.397886,0.170119,-0.047607,1.000000,-0.700000,-0.400000,-1.570000,0.000000,0.000000,0.000000,-1.020887,0.918358,0.267622,1.663982,-0.119598,-0.296613,0.191059
0.200000,0.000000,0.000000,0.000000,0.000000,0.000000,0.201209,0.692416,0.397567,0.234925,-0.054090,1.000000,-0.700000,-0.400000,-1.570000,0.000000,0.000000,0.000000,-1.012849,0.991837,0.231351,1.673425,-0.153707,-0.389493,0.250245
0.250000,0.000000,0.000000,0.000000,0.000000,0.000000,0.196838,0.699211,0.397234,0.302071,-0.056400,1.000000,-0.700000,-0.400000,-1.570000,0.000000,0.000000,0.000000,-0.997027,1.065278,0.200377,1.672854,-0.185686,-0.478310,0.308161
0.300000,0.000000,0.000000,0.000000,0.000000,0.000000,0.195572,0.703842,0.396859,0.370790,-0.055087,1.000000,-0.700000,-0.400000,-1.570000,0.000000,0.000000,0.000000,-0.973385,1.138196,0.175307,1.663127,-0.216036,-0.562590,0.365303
0.350000,0.000000,0.000000,0.000000,0.000000,0.000000,0.197520,0.706008,0.396481,0.440612,-0.050842,1.000000,-0.700000,-0.400000,-1.570000,0.000000,0.000000,0.000000,-0.941930,1.210047,0.156507,1.645192,-0.245334,-0.642072,0.422164
0.400000,0.000000,0.000000,0.000000,0.000000,0.000000,0.202822,0.705434,0.396201,0.511404,-0.044444,1.000000,-0.700000,-0.400000,-1.570000,0.000000,0.000000,0.000000,-0.902644,1.280281,0.144116,1.619928,-0.274196,-0.716710,0.479245
0.450000,0.000000,0.000000,0.000000,0.000000,0.000000,0.219198,0.733458,0.407200,0.585234,-0.058890,1.000000,-0.700000,-0.400000,-1.570000,0.000000,0.000000,0.000000,-0.865639,1.378349,0.154970,1.532354,-0.298330,-0.732756,0.545142
0.500000,0.000000,0.000000,0.000000,0.000000,0.000000,0.240973,0.764494,0.419558,0.658322,-0.075171,1.000000,-0.700000,-0.400000,-1.570000,0.000000,0.000000,0.000000,-0.819308,1.475733,0.180311,1.428098,-0.320589,-0.733153,0.612422
0.550000,0.000000,0.000000,0.000000,0.000000,0.000000,0.266491,0.789577,0.430640,0.730086,-0.088716,1.000000,-0.700000,-0.400000,-1.570000,0.000000,0.000000,0.000000,-0.760844,1.563662,0.214534,1.323815,-0.342535,-0.733663,0.681115
0.600000,0.000000,0.000000,0.000000,0.000000,0.000000,0.282973,0.817417,0.452536,0.823466,-0.073452,1.000000,-0.700000,-0.400000,-1.570000,0.000000,0.000000,0.000000,-0.686172,1.603475,0.262090,1.207486,-0.344100,-0.732828,0.757941
0.650000,0.000000,0.000000,0.000000,0.000000,0.000000,0.291991,0.841065,0.479543,0.933905,-0.041677,1.000000,-0.700000,-0.400000,-1.570000,0.000000,0.000000,0.000000,-0.600005,1.602563,0.317662,1.089439,-0.332955,-0.732107,0.835602
0.700000,0.000000,0.000000,0.000000,0.000000,0.000000,0.308944,0.852890,0.499404,1.039290,-0.023895,1.000000,-0.700000,-0.400000,-1.570000,0.000000,0.000000,0.000000,-0.508916,1.602932,0.373694,0.980183,-0.330609,-0.733301,0.911677
0.750000,0.000000,0.000000,0.000000,0.000000,0.000000,0.308944,0.852890,0.499404,1.039290,-0.023895,1.000000,-0.700000,-0.400000,-1.570000,0.000000,0.000000,0.000000,-0.508916,1.602932,0.373694,0.980183,-0.330609,-0.733301,0.911677
0.800000,0.000000,0.000000,0.000000,0.000000,0.000000,0.308944,0.852890,0.499404,1.039290,-0.023895,1.000000,-0.700000,-0.400000,-1.570000,0.000000,0.000000,0.000000,-0.508916,1.602932,0.373694,0.980183,-0.330609,-0.733301,0.911677
0.850000,0.000000,0.000000,0.000000,0.000000,0.000000,0.308944,0.852890,0.499404,1.039290,-0.023895,1.000000,-0.700000,-0.400000,-1.570000,0.000000,0.000000,0.000000,-0.508916,1.602932,0.373694,0.980183,-0.330609,-0.733301,0.911677
0.900000,0.000000,0.000000,0.000000,0.000000,0.000000,0.308944,0.852890,0.499404,1.039290,-0.023895,1.000000,-0.700000,-0.400000,-1.570000,0.000000,0.000000,0.000000,-0.508916,1.602932,0.373694,0.980183,-0.330609,-0.733301,0.911677
0.950000,0.000000,0.000000,0.000000,0.000000,0.000000,0.308944,0.852890,0.499404,1.039290,-0.023895,1.000000,-0.700000,-0.400000,-1.570000,0.000000,0.000000,0.000000,-0.508916,1.602932,0.373694,0.980183,-0.330609,-0.733301,0.911677
1.000000,0.000000,0.000000,0.000000,0.000000,0.000000,0.308944,0.852890,0.499404,1.039290,-0.023895,1.000000,-0.700000,-0.400000,-1.570000,0.000000,0.000000,0.000000,-0.508916,1.602932,0.373694,0.980183,-0.330609,-0.733301,0.911677
1.050000,0.000000,0.000000,0.000000,0.000000,0.000000,0.308944,0.852890,0.499404,1.039290,-0.023895,1.000000,-0.700000,-0.400000,-1.570000,0.000000,0.000000,0.000000,-0.508916,1.602932,0.373694,0.980183,-0.330609,-0.733301,0.911677
1.100000,0.000000,0.000000,0.000000,0.000000,0.000000,0.308944,0.852890,0.499404,1.039290,-0.023895,1.000000,-0.700000,-0.400000,-1.570000,0.000000,0.000000,0.000000,-0.508916,1.602932,0.373694,0.980183,-0.330609,-0.733301,0.911677
1.150000,0.000000,0.000000,0.000000,0.000000,0.000000,0.308944,0.852890,0.499404,1.039290,-0.023895,1.000000,-0.700000,-0.400000,-1.570000,0.000000,0.000000,0.000000,-0.508916,1.602932,0.373694,0.980183,-0.330609,-0.733301,0.911677
1.200000,0.000000,0.000000,0.000000,0.000000,0.000000,0.308944,0.852890,0.499404,1.039290,-0.023895,1.000000,-0.700000,-0.400000,-1.570000,0.000000,0.000000,0.000000,-0.508916,1.602932,0.373694,0.980183,-0.330609,-0.733301,0.911677
1.250000,0.000000,0.000000,0.000000,0.000000,0.000000,0.308944,0.852890,0.499404,1.039290,-0.023895,1.000000,-0.700000,-0.400000,-1.570000,0.000000,0.000000,0.000000,-0.508916,1.602932,0.373694,0.980183,-0.330609,-0.733301,0.911677
1.300000,0.000000,0.000000,0.000000,0.000000,0.000000,0.308944,0.852890,0.499404,1.039290,-0.023895,1.000000,-0.700000,-0.400000,-1.570000,0.000000,0.000000,0.000000,-0.508916,1.602932,0.373694,0.980183,-0.330609,-0.733301,0.911677
1.350000,0.000000,0.000000,0.000000,0.000000,0.000000,0.308944,0.852890,0.499404,1.039290,-0.023895,1.000000,-0.700000,-0.400000,-1.570000,0.000000,0.000000,0.000000,-0.508916,1.602932,0.373694,0.980183,-0.330609,-0.733301,0.911677
1.400000,0.000000,0.000000,0.000000,0.000000,0.000000,0.308944,0.852890,0.499404,1.039290,-0.023895,1.000000,-0.700000,-0.400000,-1.570000,0.000000,0.000000,0.000000,-0.508916,1.602932,0.373694,0.980183,-0.330609,-0.733301,0.911677
1.450000,0.000000,0.000000,0.000000,0.000000,0.000000,0.308944,0.852890,0.499404,1.039290,-0.023895,1.000000,-0.700000,-0.400000,-1.570000,0.000000,0.000000,0.000000,-0.508916,1.602932,0.373694,0.980183,-0.330609,-0.733301,0.911677
1.500000,0.000000,0.000000,0.000000,0.000000,0.000000,0.308944,0.852890,0.499404,1.039290,-0.023895,1.000000,-0.700000,-0.400000,-1.570000,0.000000,0.000000,0.000000,-0.508916,1.602932,0.373694,0.980183,-0.330609,-0.733301,0.911677
1.550000,0.000000,0.000000,0.000000,0.000000,0.000000,0.287105,0.880182,0.493806,0.962377,-0.030121,1.000000,-0.700000,-0.400000,-1.570000,0.000000,0.000000,0.000000,-0.595630,1.579552,0.351747,1.015422,-0.309267,-0.673577,0.839612
1.600000,0.000000,0.000000,0.000000,0.000000,0.000000,0.267838,0.902778,0.490440,0.893272,-0.038269,1.000000,-0.700000,-0.400000,-1.570000,0.000000,0.000000,0.000000,-0.674507,1.548583,0.334278,1.045412,-0.289203,-0.613364,0.771441
1.650000,0.000000,0.000000,0.000000,0.000000,0.000000,0.251469,0.921063,0.488765,0.829807,-0.047956,1.000000,-0.700000,-0.400000,-1.570000,0.000000,0.000000,0.000000,-0.745980,1.512003,0.320938,1.071321,-0.270287,-0.552438,0.706983
1.700000,0.000000,0.000000,0.000000,0.000000,0.000000,0.238196,0.935345,0.488313,0.770369,-0.058796,1.000000,-0.700000,-0.400000,-1.570000,0.000000,0.000000,0.000000,-0.810547,1.471068,0.311511,1.093948,-0.252323,-0.490463,0.645950
1.750000,0.000000,0.000000,0.000000,0.000000,0.000000,0.228138,0.945857,0.488697,0.713737,-0.070404,1.000000,-0.700000,-0.400000,-1.570000,0.000000,0.000000,0.000000,-0.868674,1.426571,0.305911,1.113816,-0.235054,-0.427048,0.588018
1.800000,0.000000,0.000000,0.000000,0.000000,0.000000,0.221369,0.952771,0.489610,0.658972,-0.082393,1.000000,-0.700000,-0.400000,-1.570000,0.000000,0.000000,0.000000,-0.920764,1.379011,0.304166,1.131224,-0.218165,-0.361777,0.532847
1.850000,0.000000,0.000000,0.000000,0.000000,0.000000,0.217944,0.956213,0.490809,0.605336,-0.094350,1.000000,-0.700000,-0.400000,-1.570000,0.000000,0.000000,0.000000,-0.967145,1.328692,0.306391,1.146280,-0.201285,-0.294229,0.480083
1.900000,0.000000,0.000000,0.000000,0.000000,0.000000,0.217910,0.956285,0.492112,0.552236,-0.105828,1.000000,-0.700000,-0.400000,-1.570000,0.000000,0.000000,0.000000,-1.008070,1.275782,0.312765,1.158921,-0.183980,-0.223986,0.429344
1.950000,0.000000,0.000000,0.000000,0.000000,0.000000,0.221327,0.953076,0.493389,0.499193,-0.116325,1.000000,-0.700000,-0.400000,-1.570000,0.000000,0.000000,0.000000,-1.043714,1.220350,0.323513,1.168919,-0.165743,-0.150635,0.380200
2.000000,0.000000,0.000000,0.000000,0.000000,0.000000,0.228268,0.946683,0.494560,0.445829,-0.125269,1.000000,-0.700000,-0.400000,-1.570000,0.000000,0.000000,0.000000,-1.074176,1.162388,0.338883,1.175874,-0.145982,-0.073779,0.332146
2.050000,0.000000,0.000000,0.000000,0.000000,0.000000,0.238843,0.937231,0.495603,0.391863,-0.131997,1.000000,-0.700000,-0.400000,-1.570000,0.000000,0.000000,0.000000,-1.099478,1.101820,0.359122,1.179204,-0.123999,0.006954,0.284560
2.100000,0.000000,0.000000,0.000000,0.000000,0.000000,0.253208,0.924904,0.496552,0.337127,-0.135741,1.000000,-0.700000,-0.400000,-1.570000,0.000000,0.000000,0.000000,-1.119560,1.038495,0.384454,1.178132,-0.098951,0.091897,0.236650
2.150000,0.000000,0.000000,0.000000,0.000000,0.000000,0.271594,0.909977,0.497524,0.281590,-0.135599,1.000000,-0.700000,-0.400000,-1.570000,0.000000,0.000000,0.000000,-1.134283,0.972169,0.415044,1.171666,-0.069804,0.181327,0.187378
2.200000,0.000000,0.000000,0.000000,0.000000,0.000000,0.294338,0.892883,0.498729,0.225410,-0.130501,1.000000,-0.700000,-0.400000,-1.570000,0.000000,0.000000,0.000000,-1.143423,0.902466,0.450959,1.158562,-0.035234,0.275441,0.135349
