xyodfish/PIVOT/config/trajectories/collision_task_csv/wbc_ik_collision_task_case_suite_single_arm_intrusion_with_collision_task.csv
time,chassis_x,chassis_y,chassis_yaw,head_joint1,head_joint2,leg_joint1,leg_joint2,leg_joint3,leg_joint4,leg_joint5,left_arm_joint1,left_arm_joint2,left_arm_joint3,left_arm_joint4,left_arm_joint5,left_arm_joint6,left_arm_joint7,right_arm_joint1,right_arm_joint2,right_arm_joint3,right_arm_joint4,right_arm_joint5,right_arm_joint6,right_arm_joint7
0.000000,0.000000,0.000000,0.000000,0.000000,0.000000,0.250000,0.650000,0.400000,0.000000,0.000000,1.000000,-0.700000,-0.400000,-1.570000,0.000000,0.000000,0.000000,-1.000000,0.700000,0.400000,1.570000,0.000000,0.000000,0.000000
0.050000,0.000000,0.000000,0.000000,0.000000,0.000000,0.266792,0.662216,0.399951,0.015245,-0.019622,0.984373,-0.695946,-0.387137,-1.578567,0.015221,0.005173,0.006352,-0.999766,0.767487,0.350693,1.638136,-0.046319,-0.085866,0.059708
0.100000,0.000000,0.000000,0.000000,0.000000,0.000000,0.286113,0.673952,0.399644,0.034067,-0.037150,0.968395,-0.693789,-0.373263,-1.589935,0.030215,0.008864,0.012795,-0.995735,0.836158,0.299147,1.697956,-0.094290,-0.171813,0.116894
0.150000,0.000000,0.000000,0.000000,0.000000,0.000000,0.307775,0.685195,0.399011,0.056324,-0.052885,0.951982,-0.693427,-0.358351,-1.603804,0.044976,0.011176,0.019533,-0.987771,0.906746,0.245240,1.748650,-0.144179,-0.257641,0.172091
0.200000,0.000000,0.000000,0.000000,0.000000,0.000000,0.331570,0.695931,0.397951,0.081830,-0.067078,0.935118,-0.694769,-0.342414,-1.619779,0.059450,0.012130,0.026744,-0.975615,0.979867,0.189135,1.789091,-0.195907,-0.342966,0.225683
0.250000,0.000000,0.000000,0.000000,0.000000,0.000000,0.357104,0.704767,0.397448,0.111087,-0.077707,0.918458,-0.698432,-0.326567,-1.639179,0.072177,0.010950,0.033692,-0.960570,1.054620,0.134762,1.823640,-0.251862,-0.430142,0.275628
0.300000,0.000000,0.000000,0.000000,0.000000,0.000000,0.384780,0.723190,0.388348,0.136549,-0.103031,0.897817,-0.698306,-0.302552,-1.645821,0.093898,0.013786,0.047400,-0.928715,1.142268,0.057422,1.801883,-0.283117,-0.492515,0.342389
0.350000,0.000000,0.000000,0.000000,0.000000,0.000000,0.411579,0.737667,0.380129,0.163034,-0.119674,0.880579,-0.702063,-0.281299,-1.653612,0.110878,0.012542,0.058449,-0.894084,1.231953,-0.006810,1.774498,-0.318338,-0.556415,0.399371
0.400000,0.000000,0.000000,0.000000,0.000000,0.000000,0.439445,0.744131,0.376827,0.196756,-0.125323,0.865153,-0.710024,-0.264628,-1.673214,0.120618,0.007185,0.066616,-0.863271,1.315747,-0.054252,1.763499,-0.365391,-0.632078,0.447574
0.450000,0.000000,0.000000,0.000000,0.000000,0.000000,0.468206,0.748909,0.373292,0.232931,-0.128679,0.850161,-0.719398,-0.248383,-1.694309,0.128306,0.000001,0.074880,-0.827856,1.401057,-0.096243,1.739844,-0.410164,-0.703784,0.495448
0.500000,0.000000,0.000000,0.000000,0.000000,0.000000,0.500976,0.771577,0.379904,0.264902,-0.148264,0.838123,-0.721365,-0.230979,-1.710190,0.144658,-0.008358,0.082904,-0.798269,1.510784,-0.119841,1.671998,-0.452850,-0.733395,0.547414
0.550000,0.000000,0.000000,0.000000,0.000000,0.000000,0.543282,0.830516,0.413512,0.304895,-0.161932,0.824260,-0.744006,-0.195318,-1.691278,0.175309,-0.047830,0.076487,-0.763138,1.605042,-0.143872,1.561723,-0.453047,-0.733566,0.642668
0.600000,0.000000,0.000000,0.000000,0.000000,0.000000,0.602168,0.955449,0.509866,0.387754,-0.131900,0.774194,-0.850956,-0.103141,-1.569729,0.233893,-0.172266,0.037629,-0.688088,1.607063,-0.217645,1.412110,-0.313184,-0.729893,0.855620
0.650000,0.000000,0.000000,0.000000,0.000000,0.000000,0.641377,1.039091,0.581958,0.487388,-0.103958,0.694578,-0.971066,-0.013323,-1.443187,0.283047,-0.275887,0.025305,-0.596539,1.604038,-0.266585,1.273516,-0.167700,-0.727987,1.030782
0.700000,0.000000,0.000000,0.000000,0.000000,0.000000,0.662774,1.079974,0.628863,0.596824,-0.089144,0.610468,-1.085894,0.063776,-1.338040,0.317598,-0.352005,0.035519,-0.504465,1.601649,-0.284783,1.156004,-0.042185,-0.728657,1.162000
0.750000,0.000000,0.000000,0.000000,0.000000,0.000000,0.662774,1.079974,0.628863,0.596824,-0.089144,0.610468,-1.085894,0.063776,-1.338040,0.317598,-0.352005,0.035519,-0.504465,1.601649,-0.284783,1.156004,-0.042185,-0.728657,1.162000
0.800000,0.000000,0.000000,0.000000,0.000000,0.000000,0.662774,1.079974,0.628863,0.596824,-0.089144,0.610468,-1.085894,0.063776,-1.338040,0.317598,-0.352005,0.035519,-0.504465,1.601649,-0.284783,1.156004,-0.042185,-0.728657,1.162000
0.850000,0.000000,0.000000,0.000000,0.000000,0.000000,0.662774,1.079974,0.628863,0.596824,-0.089144,0.610468,-1.085894,0.063776,-1.338040,0.317598,-0.352005,0.035519,-0.504465,1.601649,-0.284783,1.156004,-0.042185,-0.728657,1.162000
0.900000,0.000000,0.000000,0.000000,0.000000,0.000000,0.662774,1.079974,0.628863,0.596824,-0.089144,0.610468,-1.085894,0.063776,-1.338040,0.317598,-0.352005,0.035519,-0.504465,1.601649,-0.284783,1.156004,-0.042185,-0.728657,1.162000
0.950000,0.000000,0.000000,0.000000,0.000000,0.000000,0.662774,1.079974,0.628863,0.596824,-0.089144,0.610468,-1.085894,0.063776,-1.338040,0.317598,-0.352005,0.035519,-0.504465,1.601649,-0.284783,1.156004,-0.042185,-0.728657,1.162000
1.000000,0.000000,0.000000,0.000000,0.000000,0.000000,0.662774,1.079974,0.628863,0.596824,-0.089144,0.610468,-1.085894,0.063776,-1.338040,0.317598,-0.352005,0.035519,-0.504465,1.601649,-0.284783,1.156004,-0.042185,-0.728657,1.162000
1.050000,0.000000,0.000000,0.000000,0.000000,0.000000,0.662774,1.079974,0.628863,0.596824,-0.089144,0.610468,-1.085894,0.063776,-1.338040,0.317598,-0.352005,0.035519,-0.504465,1.601649,-0.284783,1.156004,-0.042185,-0.728657,1.162000
1.100000,0.000000,0.000000,0.000000,0.000000,0.000000,0.662774,1.079974,0.628863,0.596824,-0.089144,0.610468,-1.085894,0.063776,-1.338040,0.317598,-0.352005,0.035519,-0.504465,1.601649,-0.284783,1.156004,-0.042185,-0.728657,1.162000
1.150000,0.000000,0.000000,0.000000,0.000000,0.000000,0.662774,1.079974,0.628863,0.596824,-0.089144,0.610468,-1.085894,0.063776,-1.338040,0.317598,-0.352005,0.035519,-0.504465,1.601649,-0.284783,1.156004,-0.042185,-0.728657,1.162000
1.200000,0.000000,0.000000,0.000000,0.000000,0.000000,0.662774,1.079974,0.628863,0.596824,-0.089144,0.610468,-1.085894,0.063776,-1.338040,0.317598,-0.352005,0.035519,-0.504465,1.601649,-0.284783,1.156004,-0.042185,-0.728657,1.162000
1.250000,0.000000,0.000000,0.000000,0.000000,0.000000,0.662774,1.079974,0.628863,0.596824,-0.089144,0.610468,-1.085894,0.063776,-1.338040,0.317598,-0.352005,0.035519,-0.504465,1.601649,-0.284783,1.156004,-0.042185,-0.728657,1.162000
1.300000,0.000000,0.000000,0.000000,0.000000,0.000000,0.662774,1.079974,0.628863,0.596824,-0.089144,0.610468,-1.085894,0.063776,-1.338040,0.317598,-0.352005,0.035519,-0.504465,1.601649,-0.284783,1.156004,-0.042185,-0.728657,1.162000
1.350000,0.000000,0.000000,0.000000,0.000000,0.000000,0.662774,1.079974,0.628863,0.596824,-0.089144,0.610468,-1.085894,0.063776,-1.338040,0.317598,-0.352005,0.035519,-0.504465,1.601649,-0.284783,1.156004,-0.042185,-0.728657,1.162000
1.400000,0.000000,0.000000,0.000000,0.000000,0.000000,0.662774,1.079974,0.628863,0.596824,-0.089144,0.610468,-1.085894,0.063776,-1.338040,0.317598,-0.352005,0.035519,-0.504465,1.601649,-0.284783,1.156004,-0.042185,-0.728657,1.162000
1.450000,0.000000,0.000000,0.000000,0.000000,0.000000,0.662774,1.079974,0.628863,0.596824,-0.089144,0.610468,-1.085894,0.063776,-1.338040,0.317598,-0.352005,0.035519,-0.504465,1.601649,-0.284783,1.156004,-0.042185,-0.728657,1.162000
1.500000,0.000000,0.000000,0.000000,0.000000,0.000000,0.662774,1.079974,0.628863,0.596824,-0.089144,0.610468,-1.085894,0.063776,-1.338040,0.317598,-0.352005,0.035519,-0.504465,1.601649,-0.284783,1.156004,-0.042185,-0.728657,1.162000
1.550000,0.000000,0.000000,0.000000,0.000000,0.000000,0.640956,1.096136,0.628177,0.538631,-0.102218,0.620293,-1.062721,0.049582,-1.304931,0.326281,-0.333736,0.024490,-0.565862,1.539635,-0.303459,1.215540,-0.026187,-0.674719,1.114148
1.600000,0.000000,0.000000,0.000000,0.000000,0.000000,0.620534,1.109674,0.629304,0.486967,-0.115002,0.629304,-1.040536,0.035763,-1.276500,0.331507,-0.318312,0.015215,-0.620587,1.473433,-0.316329,1.267267,-0.010442,-0.616906,1.068877
1.650000,0.000000,0.000000,0.000000,0.000000,0.000000,0.601427,1.120742,0.631809,0.440894,-0.126620,0.637932,-1.019512,0.022191,-1.252642,0.333855,-0.305257,0.007114,-0.669662,1.403825,-0.323786,1.311215,0.005086,-0.555095,1.025764
1.700000,0.000000,0.000000,0.000000,0.000000,0.000000,0.583495,1.129445,0.635373,0.399626,-0.136407,0.646503,-0.999850,0.008783,-1.233095,0.333736,-0.294187,-0.000285,-0.713918,1.331475,-0.326200,1.347313,0.020553,-0.489234,0.984422
1.750000,0.000000,0.000000,0.000000,0.000000,0.000000,0.566579,1.135867,0.639766,0.362491,-0.143866,0.655261,-0.981739,-0.004527,-1.217506,0.331429,-0.284815,-0.007357,-0.754013,1.256992,-0.323949,1.375420,0.036193,-0.419357,0.944506
1.800000,0.000000,0.000000,0.000000,0.000000,0.000000,0.550523,1.140083,0.644812,0.328921,-0.148635,0.664392,-0.965333,-0.017791,-1.205483,0.327132,-0.276936,-0.014398,-0.790457,1.180963,-0.317438,1.395365,0.052291,-0.345577,0.905704
1.850000,0.000000,0.000000,0.000000,0.000000,0.000000,0.535195,1.142176,0.650378,0.298445,-0.150455,0.674045,-0.950757,-0.031045,-1.196636,0.320992,-0.270414,-0.021645,-0.823630,1.103942,-0.307114,1.406974,0.069150,-0.268082,0.867725
1.900000,0.000000,0.000000,0.000000,0.000000,0.000000,0.520492,1.142237,0.656361,0.270689,-0.149153,0.684333,-0.938104,-0.044313,-1.190601,0.313131,-0.265174,-0.029282,-0.853807,1.026446,-0.293474,1.410096,0.087068,-0.187130,0.830284
1.950000,0.000000,0.000000,0.000000,0.000000,0.000000,0.506350,1.140368,0.662689,0.245370,-0.144608,0.695346,-0.927443,-0.057600,-1.187063,0.303653,-0.261188,-0.037454,-0.881186,0.948931,-0.277053,1.404632,0.106324,-0.103022,0.793083
2.000000,0.000000,0.000000,0.000000,0.000000,0.000000,0.492746,1.136680,0.669319,0.222287,-0.136737,0.707164,-0.918826,-0.070901,-1.185773,0.292653,-0.258472,-0.046285,-0.905914,0.871763,-0.258404,1.390550,0.127185,-0.016084,0.755798
2.050000,0.000000,0.000000,0.000000,0.000000,0.000000,0.479699,1.131295,0.676242,0.201309,-0.125465,0.719861,-0.912289,-0.084208,-1.186556,0.280216,-0.257087,-0.055886,-0.928111,0.795199,-0.238070,1.367878,0.149926,0.073370,0.718054
2.100000,0.000000,0.000000,0.000000,0.000000,0.000000,0.467271,1.124345,0.683487,0.182364,-0.110708,0.733533,-0.907861,-0.097516,-1.189315,0.266411,-0.257140,-0.066384,-0.947887,0.719364,-0.216552,1.336694,0.174871,0.165070,0.679405
2.150000,0.000000,0.000000,0.000000,0.000000,0.000000,0.455576,1.115978,0.691129,0.165423,-0.092354,0.748306,-0.905564,-0.110830,-1.194030,0.251297,-0.258799,-0.077935,-0.965350,0.644240,-0.194296,1.297092,0.202457,0.258821,0.639297
2.200000,0.000000,0.000000,0.000000,0.000000,0.000000,0.444789,1.106376,0.699297,0.150493,-0.070247,0.764370,-0.905414,-0.124177,-1.200761,0.234915,-0.262307,-0.090756,-0.980620,0.569661,-0.171682,1.249139,0.233317,0.354545,0.597025
