xyodfish/PIVOT/config/trajectories/collision_task_csv/wbc_ik_collision_task_case_suite_single_arm_intrusion_without_collision_task.csv
time,chassis_x,chassis_y,chassis_yaw,head_joint1,head_joint2,leg_joint1,leg_joint2,leg_joint3,leg_joint4,leg_joint5,left_arm_joint1,left_arm_joint2,left_arm_joint3,left_arm_joint4,left_arm_joint5,left_arm_joint6,left_arm_joint7,right_arm_joint1,right_arm_joint2,right_arm_joint3,right_arm_joint4,right_arm_joint5,right_arm_joint6,right_arm_joint7
0.000000,0.000000,0.000000,0.000000,0.000000,0.000000,0.250000,0.650000,0.400000,0.000000,0.000000,1.000000,-0.700000,-0.400000,-1.570000,0.000000,0.000000,0.000000,-1.000000,0.700000,0.400000,1.570000,0.000000,0.000000,0.000000
0.050000,0.000000,0.000000,0.000000,0.000000,0.000000,0.266792,0.662216,0.399951,0.015245,-0.019622,0.984373,-0.695946,-0.387137,-1.578567,0.015221,0.005173,0.006352,-0.999766,0.767487,0.350693,1.638136,-0.046319,-0.085866,0.059708
0.100000,0.000000,0.000000,0.000000,0.000000,0.000000,0.286113,0.673952,0.399644,0.034067,-0.037150,0.968395,-0.693789,-0.373263,-1.589935,0.030215,0.008864,0.012795,-0.995735,0.836158,0.299147,1.697956,-0.094290,-0.171813,0.116894
0.150000,0.000000,0.000000,0.000000,0.000000,0.000000,0.307775,0.685195,0.399011,0.056324,-0.052885,0.951982,-0.693427,-0.358351,-1.603804,0.044976,0.011176,0.019533,-0.987771,0.906746,0.245240,1.748650,-0.144179,-0.257641,0.172091
0.200000,0.000000,0.000000,0.000000,0.000000,0.000000,0.331570,0.695931,0.397951,0.081830,-0.067078,0.935118,-0.694769,-0.342414,-1.619779,0.059450,0.012130,0.026744,-0.975615,0.979867,0.189135,1.789091,-0.195907,-0.342966,0.225683
0.250000,0.000000,0.000000,0.000000,0.000000,0.000000,0.357240,0.706118,0.396359,0.110321,-0.079881,0.917882,-0.697745,-0.325538,-1.637379,0.073494,0.011682,0.034547,-0.958941,1.055976,0.131444,1.817942,-0.248973,-0.427195,0.277930
0.300000,0.000000,0.000000,0.000000,0.000000,0.000000,0.384461,0.715651,0.394158,0.141463,-0.091289,0.900464,-0.702298,-0.307923,-1.656107,0.086852,0.009732,0.042957,-0.937438,1.135286,0.073380,1.833880,-0.302458,-0.509550,0.328993
0.350000,0.000000,0.000000,0.000000,0.000000,0.000000,0.412880,0.724326,0.391345,0.174919,-0.101113,0.883144,-0.708384,-0.289897,-1.675591,0.099137,0.006137,0.051873,-0.910907,1.217682,0.016776,1.835931,-0.355156,-0.589143,0.378980
0.400000,0.000000,0.000000,0.000000,0.000000,0.000000,0.442177,0.731817,0.388026,0.210475,-0.109033,0.866216,-0.715950,-0.271897,-1.695737,0.109848,0.000740,0.061105,-0.879323,1.302684,-0.036127,1.823785,-0.405876,-0.665121,0.428025
0.450000,0.000000,0.000000,0.000000,0.000000,0.000000,0.472413,0.739123,0.385175,0.247697,-0.116042,0.850080,-0.724297,-0.254279,-1.716399,0.119210,-0.006562,0.070418,-0.843612,1.391255,-0.082364,1.795685,-0.453843,-0.734157,0.476731
0.500000,0.000000,0.000000,0.000000,0.000000,0.000000,0.507863,0.777656,0.399468,0.274317,-0.151028,0.839328,-0.719662,-0.234681,-1.725904,0.144722,-0.014439,0.078748,-0.821748,1.521675,-0.099738,1.700699,-0.500125,-0.733285,0.531066
0.550000,0.000000,0.000000,0.000000,0.000000,0.000000,0.552911,0.847345,0.443419,0.317716,-0.162022,0.823248,-0.750042,-0.192681,-1.696181,0.179959,-0.064574,0.067466,-0.782507,1.605368,-0.132480,1.585262,-0.485150,-0.733645,0.643912
0.600000,0.000000,0.000000,0.000000,0.000000,0.000000,0.610230,0.974255,0.541884,0.396202,-0.129550,0.774088,-0.858343,-0.101709,-1.568064,0.238702,-0.191074,0.025048,-0.701211,1.607063,-0.206782,1.426627,-0.345536,-0.729828,0.854849
0.650000,0.000000,0.000000,0.000000,0.000000,0.000000,0.648109,1.059112,0.614723,0.492687,-0.099833,0.693980,-0.979933,-0.012617,-1.435688,0.287874,-0.295610,0.010450,-0.605529,1.604130,-0.255448,1.281199,-0.200822,-0.727806,1.027301
0.700000,0.000000,0.000000,0.000000,0.000000,0.000000,0.668324,1.100561,0.661824,0.600648,-0.084114,0.608942,-1.096130,0.064205,-1.326128,0.322609,-0.372125,0.019336,-0.511107,1.601684,-0.273041,1.159402,-0.075889,-0.728503,1.156565
0.750000,0.000000,0.000000,0.000000,0.000000,0.000000,0.668324,1.100561,0.661824,0.600648,-0.084114,0.608942,-1.096130,0.064205,-1.326128,0.322609,-0.372125,0.019336,-0.511107,1.601684,-0.273041,1.159402,-0.075889,-0.728503,1.156565
0.800000,0.000000,0.000000,0.000000,0.000000,0.000000,0.668324,1.100561,0.661824,0.600648,-0.084114,0.608942,-1.096130,0.064205,-1.326128,0.322609,-0.372125,0.019336,-0.511107,1.601684,-0.273041,1.159402,-0.075889,-0.728503,1.156565
0.850000,0.000000,0.000000,0.000000,0.000000,0.000000,0.668324,1.100561,0.661824,0.600648,-0.084114,0.608942,-1.096130,0.064205,-1.326128,0.322609,-0.372125,0.019336,-0.511107,1.601684,-0.273041,1.159402,-0.075889,-0.728503,1.156565
0.900000,0.000000,0.000000,0.000000,0.000000,0.000000,0.668324,1.100561,0.661824,0.600648,-0.084114,0.608942,-1.096130,0.064205,-1.326128,0.322609,-0.372125,0.019336,-0.511107,1.601684,-0.273041,1.159402,-0.075889,-0.728503,1.156565
0.950000,0.000000,0.000000,0.000000,0.000000,0.000000,0.668324,1.100561,0.661824,0.600648,-0.084114,0.608942,-1.096130,0.064205,-1.326128,0.322609,-0.372125,0.019336,-0.511107,1.601684,-0.273041,1.159402,-0.075889,-0.728503,1.156565
1.000000,0.000000,0.000000,0.000000,0.000000,0.000000,0.668324,1.100561,0.661824,0.600648,-0.084114,0.608942,-1.096130,0.064205,-1.326128,0.322609,-0.372125,0.019336,-0.511107,1.601684,-0.273041,1.159402,-0.075889,-0.728503,1.156565
1.050000,0.000000,0.000000,0.000000,0.000000,0.000000,0.668324,1.100561,0.661824,0.600648,-0.084114,0.608942,-1.096130,0.064205,-1.326128,0.322609,-0.372125,0.019336,-0.511107,1.601684,-0.273041,1.159402,-0.075889,-0.728503,1.156565
1.100000,0.000000,0.000000,0.000000,0.000000,0.000000,0.668324,1.100561,0.661824,0.600648,-0.084114,0.608942,-1.096130,0.064205,-1.326128,0.322609,-0.372125,0.019336,-0.511107,1.601684,-0.273041,1.159402,-0.075889,-0.728503,1.156565
1.150000,0.000000,0.000000,0.000000,0.000000,0.000000,0.668324,1.100561,0.661824,0.600648,-0.084114,0.608942,-1.096130,0.064205,-1.326128,0.322609,-0.372125,0.019336,-0.511107,1.601684,-0.273041,1.159402,-0.075889,-0.728503,1.156565
1.200000,0.000000,0.000000,0.000000,0.000000,0.000000,0.668324,1.100561,0.661824,0.600648,-0.084114,0.608942,-1.096130,0.064205,-1.326128,0.322609,-0.372125,0.019336,-0.511107,1.601684,-0.273041,1.159402,-0.075889,-0.728503,1.156565
1.250000,0.000000,0.000000,0.000000,0.000000,0.000000,0.668324,1.100561,0.661824,0.600648,-0.084114,0.608942,-1.096130,0.064205,-1.326128,0.322609,-0.372125,0.019336,-0.511107,1.601684,-0.273041,1.159402,-0.075889,-0.728503,1.156565
1.300000,0.000000,0.000000,0.000000,0.000000,0.000000,0.668324,1.100561,0.661824,0.600648,-0.084114,0.608942,-1.096130,0.064205,-1.326128,0.322609,-0.372125,0.019336,-0.511107,1.601684,-0.273041,1.159402,-0.075889,-0.728503,1.156565
1.350000,0.000000,0.000000,0.000000,0.000000,0.000000,0.668324,1.100561,0.661824,0.600648,-0.084114,0.608942,-1.096130,0.064205,-1.326128,0.322609,-0.372125,0.019336,-0.511107,1.601684,-0.273041,1.159402,-0.075889,-0.728503,1.156565
1.400000,0.000000,0.000000,0.000000,0.000000,0.000000,0.668324,1.100561,0.661824,0.600648,-0.084114,0.608942,-1.096130,0.064205,-1.326128,0.322609,-0.372125,0.019336,-0.511107,1.601684,-0.273041,1.159402,-0.075889,-0.728503,1.156565
1.450000,0.000000,0.000000,0.000000,0.000000,0.000000,0.668324,1.100561,0.661824,0.600648,-0.084114,0.608942,-1.096130,0.064205,-1.326128,0.322609,-0.372125,0.019336,-0.511107,1.601684,-0.273041,1.159402,-0.075889,-0.728503,1.156565
1.500000,0.000000,0.000000,0.000000,0.000000,0.000000,0.668324,1.100561,0.661824,0.600648,-0.084114,0.608942,-1.096130,0.064205,-1.326128,0.322609,-0.372125,0.019336,-0.511107,1.601684,-0.273041,1.159402,-0.075889,-0.728503,1.156565
1.550000,0.000000,0.000000,0.000000,0.000000,0.000000,0.646952,1.117107,0.661190,0.542045,-0.097093,0.618424,-1.072928,0.049742,-1.293127,0.331272,-0.353482,0.008369,-0.572685,1.540082,-0.291004,1.218805,-0.059144,-0.674215,1.109136
1.600000,0.000000,0.000000,0.000000,0.000000,0.000000,0.626895,1.130983,0.662409,0.489959,-0.109748,0.627145,-1.050694,0.035680,-1.264792,0.336446,-0.337744,-0.000872,-0.627589,1.474268,-0.303103,1.270421,-0.042582,-0.616116,1.064330
1.650000,0.000000,0.000000,0.000000,0.000000,0.000000,0.608087,1.142352,0.665037,0.443457,-0.121215,0.635534,-1.029604,0.021886,-1.241021,0.338721,-0.324428,-0.008962,-0.676835,1.405026,-0.309729,1.314274,-0.026164,-0.554071,1.021728
1.700000,0.000000,0.000000,0.000000,0.000000,0.000000,0.590398,1.151327,0.668749,0.401757,-0.130836,0.643916,-1.009864,0.008272,-1.221551,0.338515,-0.313144,-0.016370,-0.721241,1.333019,-0.311259,1.350286,-0.009734,-0.488018,0.980939
1.750000,0.000000,0.000000,0.000000,0.000000,0.000000,0.573675,1.157999,0.673307,0.364192,-0.138123,0.652530,-0.991661,-0.005230,-1.206028,0.336114,-0.303597,-0.023465,-0.761461,1.258859,-0.308078,1.378309,0.006936,-0.417983,0.941614
1.800000,0.000000,0.000000,0.000000,0.000000,0.000000,0.557771,1.162449,0.678533,0.330197,-0.142718,0.661560,-0.975153,-0.018672,-1.194060,0.331718,-0.295579,-0.030542,-0.797996,1.183129,-0.300603,1.398164,0.024118,-0.344069,0.903436
1.850000,0.000000,0.000000,0.000000,0.000000,0.000000,0.542558,1.164763,0.684289,0.299307,-0.144373,0.671146,-0.960466,-0.032092,-1.185252,0.325483,-0.288951,-0.037830,-0.831221,1.106386,-0.289299,1.409668,0.042096,-0.266462,0.866106
1.900000,0.000000,0.000000,0.000000,0.000000,0.000000,0.527939,1.165037,0.690468,0.271152,-0.142918,0.681398,-0.947692,-0.045509,-1.179242,0.317534,-0.283631,-0.045510,-0.861408,1.029146,-0.274677,1.412664,0.061145,-0.185409,0.829329
1.950000,0.000000,0.000000,0.000000,0.000000,0.000000,0.513855,1.163374,0.696996,0.245454,-0.138241,0.692399,-0.936903,-0.058927,-1.175715,0.307982,-0.279587,-0.053725,-0.888752,0.951866,-0.257290,1.407047,0.081520,-0.101210,0.792801
2.000000,0.000000,0.000000,0.000000,0.000000,0.000000,0.500287,1.159888,0.703828,0.222017,-0.130261,0.704222,-0.928152,-0.072339,-1.174425,0.296927,-0.276832,-0.062591,-0.913401,0.874914,-0.237703,1.392780,0.103459,-0.014185,0.756188
2.050000,0.000000,0.000000,0.000000,0.000000,0.000000,0.487256,1.154699,0.710952,0.200716,-0.118909,0.716940,-0.921479,-0.085733,-1.175199,0.284457,-0.275421,-0.072221,-0.935476,0.798544,-0.216468,1.369891,0.127211,0.075357,0.719111
2.100000,0.000000,0.000000,0.000000,0.000000,0.000000,0.474829,1.147939,0.718397,0.181483,-0.104103,0.730640,-0.916913,-0.099102,-1.177945,0.270648,-0.275459,-0.082739,-0.955088,0.722884,-0.194093,1.338457,0.153076,0.167149,0.681120
2.150000,0.000000,0.000000,0.000000,0.000000,0.000000,0.463123,1.139755,0.726234,0.164294,-0.085734,0.745447,-0.914478,-0.112446,-1.182650,0.255563,-0.277106,-0.094302,-0.972351,0.647916,-0.171024,1.298573,0.181472,0.261004,0.641661
2.200000,0.000000,0.000000,0.000000,0.000000,0.000000,0.452315,1.130325,0.734587,0.149159,-0.063645,0.761547,-0.914194,-0.125789,-1.189380,0.239250,-0.280601,-0.107127,-0.987388,0.573471,-0.147641,1.250308,0.213017,0.356850,0.600031
