xyodfish/PIVOT/config/trajectories/collision_task_csv/wbc_ik_collision_task_case_suite_wrist_margin_projection_esdf_with_collision_task.csv
time,chassis_x,chassis_y,chassis_yaw,head_joint1,head_joint2,leg_joint1,leg_joint2,leg_joint3,leg_joint4,leg_joint5,left_arm_joint1,left_arm_joint2,left_arm_joint3,left_arm_joint4,left_arm_joint5,left_arm_joint6,left_arm_joint7,right_arm_joint1,right_arm_joint2,right_arm_joint3,right_arm_joint4,right_arm_joint5,right_arm_joint6,right_arm_joint7
0.000000,0.000000,0.000000,0.000000,0.000000,0.000000,0.250000,0.650000,0.400000,0.000000,0.000000,1.000000,-0.700000,-0.400000,-1.570000,0.000000,0.000000,0.000000,-1.000000,0.700000,0.400000,1.570000,0.000000,0.000000,0.000000
0.050000,0.000000,0.000000,0.000000,0.000000,0.000000,0.262908,0.662792,0.400446,0.013272,-0.021277,0.984110,-0.694976,-0.386556,-1.575912,0.015513,0.006749,0.007768,-1.004647,0.774735,0.343436,1.645878,-0.051980,-0.092808,0.065541
0.100000,0.000000,0.000000,0.000000,0.000000,0.000000,0.278795,0.674820,0.400611,0.030909,-0.039799,0.967781,-0.692270,-0.371982,-1.585356,0.030698,0.011743,0.015497,-1.005095,0.850901,0.283821,1.711865,-0.106350,-0.185829,0.128332
0.150000,0.000000,0.000000,0.000000,0.000000,0.000000,0.297394,0.685989,0.400381,0.052737,-0.055873,0.950868,-0.691796,-0.356228,-1.597980,0.045545,0.015140,0.023442,-1.001144,0.929525,0.220901,1.766775,-0.163497,-0.278812,0.189084
0.200000,0.000000,0.000000,0.000000,0.000000,0.000000,0.318406,0.696206,0.399594,0.078507,-0.069740,0.933333,-0.693486,-0.339304,-1.613277,0.059966,0.016981,0.031815,-0.992404,1.011493,0.154860,1.808912,-0.223264,-0.371225,0.248292
0.250000,0.000000,0.000000,0.000000,0.000000,0.000000,0.341445,0.705340,0.398084,0.107837,-0.081495,0.915292,-0.697292,-0.321348,-1.630602,0.073741,0.017204,0.040728,-0.978394,1.097470,0.086625,1.836253,-0.284817,-0.462210,0.306275
0.300000,0.000000,0.000000,0.000000,0.000000,0.000000,0.366025,0.713156,0.395748,0.140236,-0.090989,0.897040,-0.703182,-0.302685,-1.649312,0.086469,0.015660,0.050126,-0.958696,1.187741,0.018123,1.846887,-0.346652,-0.550630,0.363209
0.350000,0.000000,0.000000,0.000000,0.000000,0.000000,0.391620,0.719239,0.392626,0.175260,-0.097808,0.878979,-0.711129,-0.283850,-1.669034,0.097543,0.012158,0.059785,-0.933128,1.282069,-0.047782,1.839625,-0.406927,-0.635234,0.419230
0.400000,0.000000,0.000000,0.000000,0.000000,0.000000,0.417804,0.722973,0.388927,0.212752,-0.101402,0.861449,-0.721076,-0.265506,-1.689926,0.106205,0.006500,0.069416,-0.901788,1.379692,-0.107812,1.814429,-0.464058,-0.714906,0.474598
0.450000,0.000000,0.000000,0.000000,0.000000,0.000000,0.449658,0.752919,0.400658,0.242751,-0.128212,0.849147,-0.720158,-0.246254,-1.703525,0.127688,-0.000481,0.077352,-0.881852,1.513972,-0.141237,1.727727,-0.519109,-0.733129,0.535052
0.500000,0.000000,0.000000,0.000000,0.000000,0.000000,0.500473,0.834587,0.457180,0.290437,-0.134177,0.836955,-0.756134,-0.202105,-1.671427,0.165720,-0.061681,0.056961,-0.849249,1.605808,-0.188135,1.602116,-0.504989,-0.733852,0.672458
0.550000,0.000000,0.000000,0.000000,0.000000,0.000000,0.576517,0.991829,0.584310,0.376822,-0.080849,0.796165,-0.882098,-0.107481,-1.527625,0.228891,-0.222766,-0.012036,-0.765614,1.607063,-0.283004,1.426179,-0.358147,-0.732268,0.925246
0.600000,0.000000,0.000000,0.000000,0.000000,0.000000,0.624851,1.103336,0.683935,0.484575,-0.025578,0.705056,-1.033620,-0.008962,-1.357135,0.285065,-0.362118,-0.049169,-0.656654,1.604550,-0.347081,1.251609,-0.196240,-0.726452,1.129473
0.650000,0.000000,0.000000,0.000000,0.000000,0.000000,0.643565,1.153029,0.746879,0.612008,0.010259,0.598972,-1.181626,0.075927,-1.211898,0.323307,-0.461560,-0.050585,-0.548599,1.600433,-0.369184,1.112092,-0.055497,-0.726659,1.276665
0.700000,0.000000,0.000000,0.000000,0.000000,0.000000,0.935870,1.663276,1.412584,0.890980,-0.064462,-0.321934,-1.442752,2.038052,-1.011389,-0.282474,-0.754499,-1.537203,-0.579919,1.587093,-0.204195,1.087855,-0.323313,-0.731025,1.537203
0.750000,0.000000,0.000000,0.000000,0.000000,0.000000,0.935870,1.663276,1.412584,0.890980,-0.064462,-0.321934,-1.442752,2.038052,-1.011389,-0.282474,-0.754499,-1.537203,-0.579919,1.587093,-0.204195,1.087855,-0.323313,-0.731025,1.537203
0.800000,0.000000,0.000000,0.000000,0.000000,0.000000,0.935870,1.663276,1.412584,0.890980,-0.064462,-0.321934,-1.442752,2.038052,-1.011389,-0.282474,-0.754499,-1.537203,-0.579919,1.587093,-0.204195,1.087855,-0.323313,-0.731025,1.537203
0.850000,0.000000,0.000000,0.000000,0.000000,0.000000,0.935870,1.663276,1.412584,0.890980,-0.064462,-0.321934,-1.442752,2.038052,-1.011389,-0.282474,-0.754499,-1.537203,-0.579919,1.587093,-0.204195,1.087855,-0.323313,-0.731025,1.537203
0.900000,0.000000,0.000000,0.000000,0.000000,0.000000,0.935870,1.663276,1.412584,0.890980,-0.064462,-0.321934,-1.442752,2.038052,-1.011389,-0.282474,-0.754499,-1.537203,-0.579919,1.587093,-0.204195,1.087855,-0.323313,-0.731025,1.537203
0.950000,0.000000,0.000000,0.000000,0.000000,0.000000,0.935870,1.663276,1.412584,0.890980,-0.064462,-0.321934,-1.442752,2.038052,-1.011389,-0.282474,-0.754499,-1.537203,-0.579919,1.587093,-0.204195,1.087855,-0.323313,-0.731025,1.537203
1.000000,0.000000,0.000000,0.000000,0.000000,0.000000,0.935870,1.663276,1.412584,0.890980,-0.064462,-0.321934,-1.442752,2.038052,-1.011389,-0.282474,-0.754499,-1.537203,-0.579919,1.587093,-0.204195,1.087855,-0.323313,-0.731025,1.537203
1.050000,0.000000,0.000000,0.000000,0.000000,0.000000,0.935870,1.663276,1.412584,0.890980,-0.064462,-0.321934,-1.442752,2.038052,-1.011389,-0.282474,-0.754499,-1.537203,-0.579919,1.587093,-0.204195,1.087855,-0.323313,-0.731025,1.537203
1.100000,0.000000,0.000000,0.000000,0.000000,0.000000,0.935870,1.663276,1.412584,0.890980,-0.064462,-0.321934,-1.442752,2.038052,-1.011389,-0.282474,-0.754499,-1.537203,-0.579919,1.587093,-0.204195,1.087855,-0.323313,-0.731025,1.537203
1.150000,0.000000,0.000000,0.000000,0.000000,0.000000,0.935870,1.663276,1.412584,0.890980,-0.064462,-0.321934,-1.442752,2.038052,-1.011389,-0.282474,-0.754499,-1.537203,-0.579919,1.587093,-0.204195,1.087855,-0.323313,-0.731025,1.537203
1.200000,0.000000,0.000000,0.000000,0.000000,0.000000,0.935870,1.663276,1.412584,0.890980,-0.064462,-0.321934,-1.442752,2.038052,-1.011389,-0.282474,-0.754499,-1.537203,-0.579919,1.587093,-0.204195,1.087855,-0.323313,-0.731025,1.537203
1.250000,0.000000,0.000000,0.000000,0.000000,0.000000,0.935870,1.663276,1.412584,0.890980,-0.064462,-0.321934,-1.442752,2.038052,-1.011389,-0.282474,-0.754499,-1.537203,-0.579919,1.587093,-0.204195,1.087855,-0.323313,-0.731025,1.537203
1.300000,0.000000,0.000000,0.000000,0.000000,0.000000,0.935870,1.663276,1.412584,0.890980,-0.064462,-0.321934,-1.442752,2.038052,-1.011389,-0.282474,-0.754499,-1.537203,-0.579919,1.587093,-0.204195,1.087855,-0.323313,-0.731025,1.537203
1.350000,0.000000,0.000000,0.000000,0.000000,0.000000,0.935870,1.663276,1.412584,0.890980,-0.064462,-0.321934,-1.442752,2.038052,-1.011389,-0.282474,-0.754499,-1.537203,-0.579919,1.587093,-0.204195,1.087855,-0.323313,-0.731025,1.537203
1.400000,0.000000,0.000000,0.000000,0.000000,0.000000,0.935870,1.663276,1.412584,0.890980,-0.064462,-0.321934,-1.442752,2.038052,-1.011389,-0.282474,-0.754499,-1.537203,-0.579919,1.587093,-0.204195,1.087855,-0.323313,-0.731025,1.537203
1.450000,0.000000,0.000000,0.000000,0.000000,0.000000,0.935870,1.663276,1.412584,0.890980,-0.064462,-0.321934,-1.442752,2.038052,-1.011389,-0.282474,-0.754499,-1.537203,-0.579919,1.587093,-0.204195,1.087855,-0.323313,-0.731025,1.537203
1.500000,0.000000,0.000000,0.000000,0.000000,0.000000,0.935870,1.663276,1.412584,0.890980,-0.064462,-0.321934,-1.442752,2.038052,-1.011389,-0.282474,-0.754499,-1.537203,-0.579919,1.587093,-0.204195,1.087855,-0.323313,-0.731025,1.537203
1.550000,0.000000,0.000000,0.000000,0.000000,0.000000,0.935870,1.663276,1.412584,0.890980,-0.064462,-0.321934,-1.442752,2.038052,-1.011389,-0.282474,-0.754499,-1.537203,-0.579919,1.587093,-0.204195,1.087855,-0.323313,-0.731025,1.537203
1.600000,0.000000,0.000000,0.000000,0.000000,0.000000,0.935870,1.663276,1.412584,0.890980,-0.064462,-0.321934,-1.442752,2.038052,-1.011389,-0.282474,-0.754499,-1.537203,-0.579919,1.587093,-0.204195,1.087855,-0.323313,-0.731025,1.537203
1.650000,0.000000,0.000000,0.000000,0.000000,0.000000,0.935359,1.700852,1.408634,0.800155,-0.058584,-0.305323,-1.395813,2.060130,-1.000886,-0.333318,-0.740182,-1.528782,-0.662233,1.537828,-0.233397,1.179630,-0.343404,-0.686145,1.478376
1.700000,0.000000,0.000000,0.000000,0.000000,0.000000,0.935201,1.731355,1.403666,0.729298,-0.067555,-0.293931,-1.352417,2.077576,-0.996181,-0.373612,-0.726328,-1.509095,-0.738392,1.473563,-0.257578,1.266416,-0.331354,-0.635175,1.443764
1.750000,0.000000,0.000000,0.000000,0.000000,0.000000,0.935305,1.758912,1.401188,0.667112,-0.076899,-0.284634,-1.312141,2.092442,-0.993529,-0.406309,-0.714441,-1.494291,-0.808413,1.401566,-0.272075,1.341658,-0.316746,-0.575875,1.414827
1.800000,0.000000,0.000000,0.000000,0.000000,0.000000,0.935362,1.783319,1.400467,0.611923,-0.085264,-0.277157,-1.274683,2.104966,-0.992928,-0.432700,-0.704232,-1.484350,-0.872922,1.323507,-0.277841,1.404738,-0.299856,-0.508196,1.390700
1.850000,0.000000,0.000000,0.000000,0.000000,0.000000,0.935393,1.804706,1.400962,0.562398,-0.091745,-0.270900,-1.239758,2.115388,-0.994181,-0.453677,-0.695572,-1.479357,-0.932580,1.240907,-0.275946,1.455001,-0.280880,-0.432217,1.370893
1.900000,0.000000,0.000000,0.000000,0.000000,0.000000,0.935402,1.823223,1.402284,0.517446,-0.095789,-0.265266,-1.207127,2.123896,-0.997023,-0.470035,-0.688399,-1.479240,-0.987814,1.155157,-0.267578,1.491880,-0.260010,-0.348238,1.354988
1.950000,0.000000,0.000000,0.000000,0.000000,0.000000,0.934167,1.837834,1.404251,0.475994,-0.097101,-0.260521,-1.176684,2.130445,-1.001343,-0.483315,-0.682662,-1.482894,-1.038088,1.067152,-0.253730,1.515443,-0.237218,-0.257125,1.341618
2.000000,0.000000,0.000000,0.000000,0.000000,0.000000,0.931243,1.848228,1.406727,0.437424,-0.095555,-0.256546,-1.148360,2.135097,-1.006910,-0.494285,-0.678345,-1.489732,-1.083247,0.978027,-0.235555,1.525541,-0.212680,-0.159641,1.330098
2.050000,0.000000,0.000000,0.000000,0.000000,0.000000,0.926786,1.854662,1.409611,0.401467,-0.091096,-0.252920,-1.122144,2.137964,-1.013437,-0.503165,-0.675451,-1.499612,-1.123454,0.889046,-0.214401,1.521953,-0.186878,-0.056497,1.320241
2.100000,0.000000,0.000000,0.000000,0.000000,0.000000,0.920882,1.857294,1.412874,0.368028,-0.083669,-0.249352,-1.098109,2.139085,-1.020705,-0.510097,-0.673985,-1.512405,-1.158847,0.801286,-0.191560,1.504736,-0.160418,0.051495,1.311828
2.150000,0.000000,0.000000,0.000000,0.000000,0.000000,0.913548,1.856174,1.416551,0.337124,-0.073155,-0.245656,-1.076381,2.138435,-1.028579,-0.515135,-0.673953,-1.528052,-1.189594,0.715550,-0.168142,1.474213,-0.133916,0.163507,1.304607
2.200000,0.000000,0.000000,0.000000,0.000000,0.000000,0.902229,1.849306,1.420171,0.311354,-0.061566,-0.242726,-1.057585,2.131344,-1.034990,-0.519099,-0.674506,-1.537203,-1.215991,0.633598,-0.144505,1.428711,-0.105090,0.280276,1.297847
2.250000,0.000000,0.000000,0.000000,0.000000,0.000000,0.886046,1.835977,1.423774,0.291731,-0.048970,-0.240947,-1.042066,2.116133,-1.039409,-0.522211,-0.675393,-1.537203,-1.238721,0.556079,-0.121587,1.368066,-0.073584,0.401465,1.290887
2.300000,0.000000,0.000000,0.000000,0.000000,0.000000,0.867276,1.817910,1.427999,0.275956,-0.032707,-0.239347,-1.029345,2.096834,-1.043948,-0.523556,-0.677465,-1.537203,-1.258434,0.481576,-0.100299,1.294850,-0.041910,0.525319,1.283592
